(1001)
(Machine)
(  vendor: Nikodem Bartnik)
(  model: Generic 3-axis Router)
(  description: This machine has XYZ axis on the Head)
(T2  D=3.175 CR=0 - ZMIN=-25.4 - flat end mill)
G90 G94
G17
G21

(Drill4)
T2
S5000 M3
G54
G0 X0 Y-7
Z15
Z5
Z0.1
G1 Z-4.9 F10
Z-6.9
G2 X0.4 Y-7 I0.2 J0 F50
X-0.8 Y-7 I-0.6 J0
X1.2 Y-7 I1 J0
X-1.413 Y-7 I-1.306 J0
X1.412 Y-7 I1.413 J0
X-1.413 Y-7 I-1.413 J0
G1 X0
Z-8.9 F10
G2 X0.4 Y-7 I0.2 J0 F50
X-0.8 Y-7 I-0.6 J0
X1.2 Y-7 I1 J0
X-1.413 Y-7 I-1.306 J0
X1.412 Y-7 I1.413 J0
X-1.413 Y-7 I-1.413 J0
G1 X0
Z-10.9 F10
G2 X0.4 Y-7 I0.2 J0 F50
X-0.8 Y-7 I-0.6 J0
X1.2 Y-7 I1 J0
X-1.413 Y-7 I-1.306 J0
X1.412 Y-7 I1.413 J0
X-1.413 Y-7 I-1.413 J0
G1 X0
Z-12.9 F10
G2 X0.4 Y-7 I0.2 J0 F50
X-0.8 Y-7 I-0.6 J0
X1.2 Y-7 I1 J0
X-1.413 Y-7 I-1.306 J0
X1.412 Y-7 I1.413 J0
X-1.413 Y-7 I-1.413 J0
G1 X0
Z-14.9 F10
G2 X0.4 Y-7 I0.2 J0 F50
X-0.8 Y-7 I-0.6 J0
X1.2 Y-7 I1 J0
X-1.413 Y-7 I-1.306 J0
X1.412 Y-7 I1.413 J0
X-1.413 Y-7 I-1.413 J0
G1 X0
Z-16.9 F10
G2 X0.4 Y-7 I0.2 J0 F50
X-0.8 Y-7 I-0.6 J0
X1.2 Y-7 I1 J0
X-1.413 Y-7 I-1.306 J0
X1.412 Y-7 I1.413 J0
X-1.413 Y-7 I-1.413 J0
G1 X0
Z-18.9 F10
G2 X0.4 Y-7 I0.2 J0 F50
X-0.8 Y-7 I-0.6 J0
X1.2 Y-7 I1 J0
X-1.413 Y-7 I-1.306 J0
X1.412 Y-7 I1.413 J0
X-1.413 Y-7 I-1.413 J0
G1 X0
Z-20.9 F10
G2 X0.4 Y-7 I0.2 J0 F50
X-0.8 Y-7 I-0.6 J0
X1.2 Y-7 I1 J0
X-1.413 Y-7 I-1.306 J0
X1.412 Y-7 I1.413 J0
X-1.413 Y-7 I-1.413 J0
G1 X0
Z-22.9 F10
G2 X0.4 Y-7 I0.2 J0 F50
X-0.8 Y-7 I-0.6 J0
X1.2 Y-7 I1 J0
X-1.413 Y-7 I-1.306 J0
X1.412 Y-7 I1.413 J0
X-1.413 Y-7 I-1.413 J0
G1 X0
Z-24.9 F10
G2 X0.4 Y-7 I0.2 J0 F50
X-0.8 Y-7 I-0.6 J0
X1.2 Y-7 I1 J0
X-1.413 Y-7 I-1.306 J0
X1.412 Y-7 I1.413 J0
X-1.413 Y-7 I-1.413 J0
G1 X0
Z-25.4 F10
G2 X0.4 Y-7 I0.2 J0 F50
X-0.8 Y-7 I-0.6 J0
X1.2 Y-7 I1 J0
X-1.413 Y-7 I-1.306 J0
X1.412 Y-7 I1.413 J0
X-1.413 Y-7 I-1.413 J0
X1.412 Y-7 I1.413 J0
X-1.413 Y-7 I-1.413 J0
G1 X0
G0 Z5
Z15
M5
M30
