(1003pocket)
(Machine)
(  vendor: Nikodem Bartnik)
(  model: Generic 3-axis Router)
(  description: This machine has XYZ axis on the Head)
(T1  D=3.175 CR=0 - ZMIN=-5.195 - flat end mill)
G90 G94
G17
G21
(When using Fusion 360 for Personal Use, the feedrate of)
(rapid moves is reduced to match the feedrate of cutting)
(moves, which can increase machining time. Unrestricted rapid)
(moves are available with a Fusion 360 Subscription.)

(Pocket1)
T1
S5000 M3
G54
G0 X-8.638 Y-9.257
Z3
G1 Z-1.692 F50
Z-2.374 F16.7
X-8.629 Y-9.251 Z-2.456 F50
X-8.603 Y-9.234 Z-2.531
X-8.563 Y-9.205 Z-2.597
X-8.514 Y-9.166 Z-2.647
X-8.458 Y-9.118 Z-2.679
X-8.401 Y-9.064 Z-2.692
G3 X-10.536 Y-6.933 Z-2.85 I-1.068 J1.065
X-8.401 Y-9.064 Z-3.009 I1.068 J-1.065
X-10.536 Y-6.933 Z-3.168 I-1.068 J1.065
X-8.401 Y-9.064 Z-3.327 I1.068 J-1.065
X-10.536 Y-6.933 Z-3.485 I-1.068 J1.065
X-8.401 Y-9.064 Z-3.644 I1.068 J-1.065
X-10.536 Y-6.933 Z-3.803 I-1.068 J1.065
X-10.976 Y-7.998 Z-3.842 I1.068 J-1.065
G1 Y-8.016
X-10.971 Y-8.061
X-10.953 Y-8.103
X-10.926 Y-8.139
X-10.89 Y-8.166
X-10.848 Y-8.184
X-10.803 Y-8.19
X10.803 Y-8.193
X10.848 Y-8.187
X10.89 Y-8.169
X10.926 Y-8.142
X10.953 Y-8.106
X10.971 Y-8.064
X10.976 Y-8.019
Y-7.984
X10.971 Y-7.939
X10.953 Y-7.897
X10.926 Y-7.861
X10.89 Y-7.834
X10.848 Y-7.816
X10.803 Y-7.81
X-10.803 Y-7.807
X-10.848 Y-7.813
X-10.89 Y-7.831
X-10.926 Y-7.858
X-10.953 Y-7.894
X-10.971 Y-7.936
X-10.976 Y-7.981
Y-7.998
G2 X-11.468 Y-8.916 I-1.102 J0
G3 X-11.167 Y-9.913 I0.301 J-0.453
G1 X12.7 Y-9.916
Y-6.087
X-12.7 Y-6.084
Y-9.913
X-11.167
X-11.119 Y-9.909 Z-3.835
X-11.071 Y-9.898 Z-3.827
X-11.03 Y-9.882 Z-3.804
X-10.991 Y-9.86 Z-3.782
X-10.938 Y-9.815 Z-3.712
X-10.909 Y-9.78 Z-3.623
X-10.9 Y-9.767 Z-3.525
Z1.317
X10.776 Y-7.25
Z-2.692
X10.769 Y-7.238 Z-2.788
X10.746 Y-7.201 Z-2.875
X10.709 Y-7.144 Z-2.945
X10.658 Y-7.075 Z-2.991
X10.597 Y-7.002 Z-3.009
G3 X8.339 Y-9.001 Z-3.168 I-1.129 J-1
X10.597 Y-7.002 Z-3.327 I1.129 J1
X8.339 Y-9.001 Z-3.485 I-1.129 J-1
X10.597 Y-7.002 Z-3.644 I1.129 J1
X8.339 Y-9.001 Z-3.803 I-1.129 J-1
X10.976 Y-8.002 Z-3.925 I1.129 J1
G1 Y-7.984
X10.971 Y-7.939
X10.953 Y-7.897
X10.926 Y-7.861
X10.89 Y-7.834
X10.848 Y-7.816
X10.803 Y-7.81
X-10.803 Y-7.807
X-10.848 Y-7.813
X-10.89 Y-7.831
X-10.926 Y-7.858
X-10.953 Y-7.894
X-10.971 Y-7.936
X-10.976 Y-7.981
Y-8.016
X-10.971 Y-8.061
X-10.953 Y-8.103
X-10.926 Y-8.139
X-10.89 Y-8.166
X-10.848 Y-8.184
X-10.803 Y-8.19
X10.803 Y-8.193
X10.848 Y-8.187
X10.89 Y-8.169
X10.926 Y-8.142
X10.953 Y-8.106
X10.971 Y-8.064
X10.976 Y-8.019
Y-8.002
G2 X11.468 Y-7.084 I1.102 J0
G3 X11.167 Y-6.087 I-0.301 J0.453
G1 X-12.7 Y-6.084
Y-9.913
X12.7 Y-9.916
Y-6.087
X11.167
X11.119 Y-6.091 Z-3.917
X11.071 Y-6.102 Z-3.909
X11.03 Y-6.118 Z-3.887
X10.991 Y-6.14 Z-3.864
X10.938 Y-6.185 Z-3.794
X10.909 Y-6.22 Z-3.706
X10.9 Y-6.233 Z-3.608
Z1.317
X0.215 Y4.568
Z-2.374
X0.2 Y4.571 Z-2.47
X0.158 Y4.579 Z-2.557
X0.091 Y4.587 Z-2.627
X0.005 Y4.591 Z-2.673
X-0.09 Y4.587 Z-2.692
G3 X0.09 Y2.592 Z-2.802 I0.09 J-0.998
X-0.09 Y4.587 Z-2.911 I-0.09 J0.998
X0.09 Y2.592 Z-3.021 I0.09 J-0.998
X-0.09 Y4.587 Z-3.131 I-0.09 J0.998
X0.09 Y2.592 Z-3.241 I0.09 J-0.998
X-0.09 Y4.587 Z-3.351 I-0.09 J0.998
X0.09 Y2.592 Z-3.461 I0.09 J-0.998
X-0.09 Y4.587 Z-3.571 I-0.09 J0.998
X0.09 Y2.592 Z-3.681 I0.09 J-0.998
X-0.09 Y4.587 Z-3.791 I-0.09 J0.998
X-1.002 Y3.592 Z-3.842 I0.09 J-0.998
G1 X-1.005 Y2.588
X1.005
X0.97 Y15.5
X-0.97
X-1.002 Y3.592
X-0.998 Y3.543 Z-3.835
X-0.987 Y3.495 Z-3.827
X-0.971 Y3.454 Z-3.804
X-0.949 Y3.416 Z-3.782
X-0.904 Y3.362 Z-3.712
X-0.869 Y3.333 Z-3.623
X-0.857 Y3.325 Z-3.525
Z1.317
X0.957 Y3.354
Z-2.374
X0.96 Y3.368 Z-2.47
X0.968 Y3.411 Z-2.557
X0.976 Y3.478 Z-2.627
X0.98 Y3.563 Z-2.673
X0.976 Y3.658 Z-2.692
G3 X-0.976 Y3.477 Z-2.799 I-0.976 J-0.091
X0.976 Y3.658 Z-2.907 I0.976 J0.091
X-0.976 Y3.477 Z-3.014 I-0.976 J-0.091
X0.976 Y3.658 Z-3.122 I0.976 J0.091
X-0.976 Y3.477 Z-3.229 I-0.976 J-0.091
X0.976 Y3.658 Z-3.337 I0.976 J0.091
X-0.976 Y3.477 Z-3.444 I-0.976 J-0.091
X0.976 Y3.658 Z-3.552 I0.976 J0.091
X-0.976 Y3.477 Z-3.659 I-0.976 J-0.091
X0.976 Y3.658 Z-3.767 I0.976 J0.091
X-0.976 Y3.477 Z-3.874 I-0.976 J-0.091
X0 Y2.588 Z-3.925 I0.976 J0.091
G1 X0.983
X0.948 Y15.5
X-0.949
X-0.946 Y15.436
X-0.945 Y15.399
X-0.983 Y2.588
X0
X0.049 Y2.591 Z-3.917
X0.097 Y2.603 Z-3.909
X0.138 Y2.619 Z-3.887
X0.176 Y2.641 Z-3.864
X0.23 Y2.686 Z-3.794
X0.259 Y2.721 Z-3.706
X0.267 Y2.733 Z-3.608
Z1.317
X0.874 Y3.33
Z-2.374
X0.877 Y3.348 Z-2.478
X0.883 Y3.398 Z-2.571
X0.886 Y3.476 Z-2.641
X0.883 Y3.552 Z-2.677
X0.871 Y3.635 Z-2.692
G3 X-0.873 Y3.313 Z-2.789 I-0.872 J-0.161
X0.871 Y3.635 Z-2.886 I0.872 J0.161
X-0.873 Y3.313 Z-2.983 I-0.872 J-0.161
X0.871 Y3.635 Z-3.081 I0.872 J0.161
X-0.873 Y3.313 Z-3.178 I-0.872 J-0.161
X0.871 Y3.635 Z-3.275 I0.872 J0.161
X-0.873 Y3.313 Z-3.373 I-0.872 J-0.161
X0.871 Y3.635 Z-3.47 I0.872 J0.161
X-0.873 Y3.313 Z-3.567 I-0.872 J-0.161
X0.871 Y3.635 Z-3.664 I0.872 J0.161
X-0.873 Y3.313 Z-3.762 I-0.872 J-0.161
X0.871 Y3.635 Z-3.859 I0.872 J0.161
X-0.873 Y3.313 Z-3.956 I-0.872 J-0.161
X0.871 Y3.635 Z-4.054 I0.872 J0.161
X-0.873 Y3.313 Z-4.151 I-0.872 J-0.161
X0.886 Y3.476 Z-4.242 I0.872 J0.161
G1 X0.877 Y8.704
X0.86 Y15.5
X-0.857
X-0.889 Y2.901
Y2.588
X0.888
X0.886 Y3.476
X0.882 Y3.525 Z-4.235
X0.871 Y3.572 Z-4.227
X0.855 Y3.613 Z-4.204
X0.833 Y3.652 Z-4.182
X0.787 Y3.705 Z-4.112
X0.753 Y3.734 Z-4.023
X0.74 Y3.743 Z-3.925
Z1.317
X0.744 Y5.491
Z-2.374
Y5.499 Z-2.444
Y5.522 Z-2.511
Y5.559 Z-2.571
Y5.609 Z-2.621
Y5.668 Z-2.659
Y5.735 Z-2.683
Y5.805 Z-2.692
X0.741 Y13.168 Z-2.776
X0.733 Y15.5 Z-2.803
X-0.733 Z-2.82
X-0.746 Y10.044 Z-2.883
X-0.745 Y3.175 Z-2.962
X0.745 Z-2.979
X0.741 Y13.168 Z-3.094
X0.733 Y15.5 Z-3.121
X-0.733 Z-3.137
X-0.746 Y10.044 Z-3.2
X-0.745 Y3.175 Z-3.279
X0.745 Z-3.296
X0.741 Y13.168 Z-3.411
X0.733 Y15.5 Z-3.438
X-0.733 Z-3.455
X-0.746 Y10.044 Z-3.518
X-0.745 Y3.175 Z-3.597
X0.745 Z-3.614
X0.741 Y13.168 Z-3.729
X0.733 Y15.5 Z-3.756
X-0.733 Z-3.772
X-0.746 Y10.044 Z-3.835
X-0.745 Y3.175 Z-3.914
X0.745 Z-3.931
X0.741 Y13.168 Z-4.046
X0.733 Y15.5 Z-4.073
X-0.733 Z-4.09
X-0.746 Y10.044 Z-4.153
X-0.745 Y3.175 Z-4.232
X0.745 Z-4.249
X0.741 Y13.168 Z-4.364
X0.733 Y15.5 Z-4.391
X-0.733 Z-4.407
X-0.746 Y10.044 Z-4.47
X-0.745 Y3.175 Z-4.549
X0.19 Z-4.56
X0.745
X0.741 Y13.168
X0.733 Y15.5
X-0.733
X-0.746 Y10.044
X-0.745 Y3.175
X0.19
X0.239 Y3.178 Z-4.552
X0.287 Y3.19 Z-4.544
X0.328 Y3.206 Z-4.522
X0.366 Y3.228 Z-4.499
X0.42 Y3.273 Z-4.429
X0.449 Y3.308 Z-4.341
X0.457 Y3.321 Z-4.243
Z1.317
X0.537 Y5.878
Z-2.374
Y5.886 Z-2.444
Y5.909 Z-2.511
Y5.946 Z-2.571
Y5.996 Z-2.621
X0.536 Y6.055 Z-2.659
Y6.121 Z-2.683
Y6.191 Z-2.692
X0.5 Y15.5 Z-2.819
X-0.497 Z-2.833
X-0.54 Y4.947 Z-2.977
X0.541 Z-2.992
X0.5 Y15.5 Z-3.137
X-0.497 Z-3.15
X-0.54 Y4.947 Z-3.295
X0.541 Z-3.31
X0.5 Y15.5 Z-3.454
X-0.497 Z-3.468
X-0.54 Y4.947 Z-3.612
X0.541 Z-3.627
X0.5 Y15.5 Z-3.772
X-0.497 Z-3.785
X-0.54 Y4.947 Z-3.93
X0.541 Z-3.945
X0.5 Y15.5 Z-4.089
X-0.497 Z-4.103
X-0.54 Y4.947 Z-4.247
X0.541 Z-4.262
X0.5 Y15.5 Z-4.407
X-0.497 Z-4.42
X-0.54 Y4.947 Z-4.565
X0.541 Z-4.58
X0.5 Y15.5 Z-4.724
X-0.497 Z-4.738
X-0.539 Y5.297 Z-4.878
X-0.54 Y4.947
X0.541
X0.5 Y15.5
X-0.497
X-0.539 Y5.297
Y5.227 Z-4.87
Y5.16 Z-4.846
X-0.54 Y5.099 Z-4.808
Y5.049 Z-4.758
Y5.011 Z-4.698
Y4.988 Z-4.631
Y4.98 Z-4.56
Z1.317
X-0.276 Y8.016
Z-2.374
Y8.008 Z-2.444
Y7.985 Z-2.511
Y7.948 Z-2.57
Y7.899 Z-2.62
Y7.84 Z-2.659
Y7.774 Z-2.683
Y7.704 Z-2.692
X-0.275 Y6.72 Z-2.708
X0.275 Z-2.718
Y12.275 Z-2.812
X0.264 Y15.5 Z-2.867
X-0.262 Z-2.876
Y15.494
X-0.278 Y10.044 Z-2.969
X-0.275 Y6.72 Z-3.026
X0.275 Z-3.035
Y12.275 Z-3.13
X0.264 Y15.5 Z-3.185
X-0.262 Z-3.194
Y15.494
X-0.278 Y10.044 Z-3.287
X-0.275 Y6.72 Z-3.343
X0.275 Z-3.353
Y12.275 Z-3.447
X0.264 Y15.5 Z-3.502
X-0.262 Z-3.511
Y15.494
X-0.278 Y10.044 Z-3.604
X-0.275 Y6.72 Z-3.661
X0.275 Z-3.67
Y12.275 Z-3.765
X0.264 Y15.5 Z-3.82
X-0.262 Z-3.829
Y15.494
X-0.278 Y10.044 Z-3.922
X-0.275 Y6.72 Z-3.978
X0.275 Z-3.988
Y12.275 Z-4.082
X0.264 Y15.5 Z-4.137
X-0.262 Z-4.146
Y15.494
X-0.278 Y10.044 Z-4.239
X-0.275 Y6.72 Z-4.296
X0.275 Z-4.305
Y12.275 Z-4.4
X0.264 Y15.5 Z-4.455
X-0.262 Z-4.464
Y15.494
X-0.278 Y10.044 Z-4.557
X-0.275 Y6.72 Z-4.613
X0.275 Z-4.623
Y12.275 Z-4.717
X0.264 Y15.5 Z-4.772
X-0.262 Z-4.781
Y15.494
X-0.278 Y10.044 Z-4.874
X-0.275 Y6.72 Z-4.931
X0.275 Z-4.94
Y12.275 Z-5.035
X0.264 Y15.5 Z-5.09
X-0.262 Z-5.099
Y15.494
X-0.278 Y10.044 Z-5.192
Y9.854 Z-5.195
X-0.275 Y6.72
X0.275
Y12.275
X0.264 Y15.5
X-0.262
Y15.494
X-0.278 Y10.044
Y9.854
X-0.277 Y9.783 Z-5.187
Y9.716 Z-5.164
Y9.656 Z-5.126
Y9.606 Z-5.075
Y9.568 Z-5.015
Y9.544 Z-4.948
Y9.536 Z-4.878
Z3
M5
M30
