(1003)
(Machine)
(  vendor: Nikodem Bartnik)
(  model: Generic 3-axis Router)
(  description: This machine has XYZ axis on the Head)
(T2  D=3.175 CR=0 - ZMIN=-4.9 - flat end mill)
G90 G94
G17
G21
(When using Fusion 360 for Personal Use, the feedrate of)
(rapid moves is reduced to match the feedrate of cutting)
(moves, which can increase machining time. Unrestricted rapid)
(moves are available with a Fusion 360 Subscription.)

(Face9)
T2
S5000 M3
G54
G0 X-1.615 Y-21.836
Z15
G1 Z5 F50
Z-0.582 F10
G19 G3 Y-21.519 Z-0.9 J0.317 K0
G1 Y-20
Y20 F50
G3 Y20.317 Z-0.582 J0 K0.317
G1 Z5
X-2.341 Y-22.055
Z-0.582 F10
G3 Y-21.737 Z-0.9 J0.317 K0
G1 Y-20
Y20 F50
G3 Y20.317 Z-0.582 J0 K0.317
G1 Z5
X-3.067 Y-22.064
Z-0.582 F10
G3 Y-21.746 Z-0.9 J0.317 K0
G1 Y-20
Y20 F50
G3 Y20.317 Z-0.582 J0 K0.317
G1 Z5
X-3.793 Y-22.064
Z-0.582 F10
G3 Y-21.746 Z-0.9 J0.317 K0
G1 Y-20
Y20 F50
G3 Y20.317 Z-0.582 J0 K0.317
G1 Z5
X-4.519 Y-22.064
Z-0.582 F10
G3 Y-21.746 Z-0.9 J0.317 K0
G1 Y-20
Y20 F50
G3 Y20.317 Z-0.582 J0 K0.317
G1 Z5
X-1.615 Y-21.836
Z-2.582 F10
G3 Y-21.519 Z-2.9 J0.317 K0
G1 Y-20
Y20 F50
G3 Y20.317 Z-2.582 J0 K0.318
G1 Z5
X-2.341 Y-22.055
Z-2.582 F10
G3 Y-21.737 Z-2.9 J0.317 K0
G1 Y-20
Y20 F50
G3 Y20.317 Z-2.582 J0 K0.318
G1 Z5
X-3.067 Y-22.064
Z-2.582 F10
G3 Y-21.746 Z-2.9 J0.317 K0
G1 Y-20
Y20 F50
G3 Y20.317 Z-2.582 J0 K0.318
G1 Z5
X-3.793 Y-22.064
Z-2.582 F10
G3 Y-21.746 Z-2.9 J0.317 K0
G1 Y-20
Y20 F50
G3 Y20.317 Z-2.582 J0 K0.318
G1 Z5
X-4.519 Y-22.064
Z-2.582 F10
G3 Y-21.746 Z-2.9 J0.317 K0
G1 Y-20
Y20 F50
G3 Y20.317 Z-2.582 J0 K0.318
G1 Z5
X-1.615 Y-21.836
Z-4.582 F10
G3 Y-21.519 Z-4.9 J0.317 K0
G1 Y-20
Y20 F50
G3 Y20.317 Z-4.582 J0 K0.318
G1 Z5
X-2.341 Y-22.055
Z-4.582 F10
G3 Y-21.737 Z-4.9 J0.317 K0
G1 Y-20
Y20 F50
G3 Y20.317 Z-4.582 J0 K0.318
G1 Z5
X-3.067 Y-22.064
Z-4.582 F10
G3 Y-21.746 Z-4.9 J0.317 K0
G1 Y-20
Y20 F50
G3 Y20.317 Z-4.582 J0 K0.318
G1 Z5
X-3.793 Y-22.064
Z-4.582 F10
G3 Y-21.746 Z-4.9 J0.317 K0
G1 Y-20
Y20 F50
G3 Y20.317 Z-4.582 J0 K0.318
G1 Z5
X-4.519 Y-22.064
Z-4.582 F10
G3 Y-21.746 Z-4.9 J0.317 K0
G1 Y-20
Y20 F50
G3 Y20.317 Z-4.582 J0 K0.318
G1 Z15
G17
M5
M30
