(1004pocketFinish)
(Machine)
(  vendor: Nikodem Bartnik)
(  model: Generic 3-axis Router)
(  description: This machine has XYZ axis on the Head)
(T1  D=1.38 CR=0 - ZMIN=-5.863 - flat end mill)
G90 G94
G17
G21
(When using Fusion 360 for Personal Use, the feedrate of)
(rapid moves is reduced to match the feedrate of cutting)
(moves, which can increase machining time. Unrestricted rapid)
(moves are available with a Fusion 360 Subscription.)

(Pocket2)
T1
S5000 M3
G54
G0 X2.7 Y9.074
Z3
G1 Z-1.975 F30
Z-2.924 F20
X2.701 Y9.067 Z-2.967
X2.702 Y9.048 Z-3.006
X2.704 Y9.017 Z-3.036
X2.707 Y8.979 Z-3.056
X2.711 Y8.936 Z-3.063
G2 X2.737 Y8.247 I-8.761 J-0.683
G1 X2.732 Y0.985 F30
X2.727 Y0.965
X2.713 Y0.942
X2.688 Y0.92
X2.666 Y0.908
X2.639 Y0.903
X-2.561 Y0.9
X-2.652 Y0.905
X-2.675 Y0.912
X-2.703 Y0.929
X-2.708 Y0.934
X-2.727 Y0.965
X-2.732 Y0.985
X-2.737 Y8.104
X-2.732 Y15.515
X-2.727 Y15.535
X-2.713 Y15.558
X-2.688 Y15.58
X-2.666 Y15.592
X-2.639 Y15.597
X2.639
X2.666 Y15.592
X2.688 Y15.58
X2.713 Y15.558
X2.727 Y15.535
X2.732 Y15.515
X2.737 Y8.396
Y8.247
X2.732 Y8.208
X2.716 Y8.173
X2.691 Y8.143
X2.658 Y8.122
X2.621 Y8.111
X1.154 Y7.879
X1.112 Y7.873 Z-3.056
X1.074 Y7.867 Z-3.036
X1.043 Y7.862 Z-3.006
X1.024 Y7.859 Z-2.967
X1.017 Y7.858 Z-2.924
Z-1.975
X1.095 Y14.848
Z-2.924
X1.102 Z-2.967 F20
X1.121 Z-3.006
X1.152 Z-3.036
X1.19 Z-3.056
X1.233 Z-3.063
X1.713
X1.719 F30
G2 X1.983 Y14.584 I0 J-0.265
G1 Y1.916
G2 X1.719 Y1.651 I-0.265 J0
G1 X-1.719 Y1.65
G2 X-1.983 Y1.914 I0 J0.265
G1 Y14.584
G2 X-1.719 Y14.848 I0.265 J0
G1 X-1.682 Y14.855
X-1.65 Y14.876
X-1.628 Y14.907
X-1.619 Y14.943
X-1.624 Y14.981
X-1.643 Y15.014
X-1.993 Y15.416
X-2.011 Y15.448
X-2.017 Y15.484
X-2.01 Y15.52
X-1.99 Y15.55
X-1.96 Y15.572
X-1.925 Y15.581
X-1.888 Y15.584 Z-3.068 F20
X-1.854 Y15.587 Z-3.083
X-1.825 Y15.589 Z-3.106
X-1.796 Y15.592 Z-3.13
X-1.761 Y15.594 Z-3.145
X-1.724 Y15.597 Z-3.15
X-1.719
X2.639 F30
X2.666 Y15.592
X2.688 Y15.58
X2.713 Y15.558
X2.727 Y15.535
X2.732 Y15.515
X2.737 Y8.396
X2.732 Y0.985
X2.727 Y0.965
X2.713 Y0.942
X2.688 Y0.92
X2.666 Y0.908
X2.639 Y0.903
X-2.561 Y0.9
X-2.652 Y0.905
X-2.675 Y0.912
X-2.703 Y0.929
X-2.708 Y0.934
X-2.727 Y0.965
X-2.732 Y0.985
X-2.737 Y8.104
X-2.732 Y15.515
X-2.727 Y15.535
X-2.713 Y15.558
X-2.688 Y15.58
X-2.666 Y15.592
X-2.639 Y15.597
X-1.719
X1.574 Y14.848
X1.719
G2 X1.983 Y14.584 I0 J-0.265
G1 Y1.916
G2 X1.719 Y1.651 I-0.265 J0
G1 X-1.719 Y1.65
G2 X-1.983 Y1.914 I0 J0.265
G1 Y14.584
G2 X-1.719 Y14.848 I0.265 J0
G1 X-1.574
X-1.537 Y14.855
X-1.505 Y14.876
X-1.483 Y14.907
X-1.474 Y14.943
X-1.479 Y14.981
X-1.498 Y15.014
X-1.848 Y15.416
X-1.866 Y15.448
X-1.872 Y15.484
X-1.865 Y15.52
X-1.845 Y15.55
X-1.815 Y15.572
X-1.78 Y15.581
X-1.743 Y15.584 Z-3.155 F20
X-1.709 Y15.587 Z-3.17
X-1.68 Y15.589 Z-3.194
X-1.651 Y15.592 Z-3.217
X-1.616 Y15.594 Z-3.232
X-1.579 Y15.597 Z-3.237
X-1.574
X2.639 F30
X2.666 Y15.592
X2.688 Y15.58
X2.713 Y15.558
X2.727 Y15.535
X2.732 Y15.515
X2.737 Y8.396
X2.732 Y0.985
X2.727 Y0.965
X2.713 Y0.942
X2.688 Y0.92
X2.666 Y0.908
X2.639 Y0.903
X-2.561 Y0.9
X-2.652 Y0.905
X-2.675 Y0.912
X-2.703 Y0.929
X-2.708 Y0.934
X-2.727 Y0.965
X-2.732 Y0.985
X-2.737 Y8.104
X-2.732 Y15.515
X-2.727 Y15.535
X-2.713 Y15.558
X-2.688 Y15.58
X-2.666 Y15.592
X-2.639 Y15.597
X-1.574
X1.499 Y14.848
X1.719
G2 X1.983 Y14.584 I0 J-0.265
G1 Y1.916
G2 X1.719 Y1.651 I-0.265 J0
G1 X-1.719 Y1.65
G2 X-1.983 Y1.914 I0 J0.265
G1 Y14.584
G2 X-1.719 Y14.848 I0.265 J0
G1 X-1.501
X-1.464 Y14.855
X-1.432 Y14.876
X-1.41 Y14.907
X-1.401 Y14.943
X-1.407 Y14.981
X-1.426 Y15.014
X-1.775 Y15.416
X-1.794 Y15.448
X-1.8 Y15.484
X-1.792 Y15.52
X-1.772 Y15.55
X-1.743 Y15.572
X-1.708 Y15.581
X-1.67 Y15.584 Z-3.243 F20
X-1.636 Y15.587 Z-3.258
X-1.607 Y15.589 Z-3.281
X-1.578 Y15.592 Z-3.305
X-1.544 Y15.594 Z-3.32
X-1.507 Y15.597 Z-3.325
X-1.501
X2.639 F30
X2.666 Y15.592
X2.688 Y15.58
X2.713 Y15.558
X2.727 Y15.535
X2.732 Y15.515
X2.737 Y8.396
X2.732 Y0.985
X2.727 Y0.965
X2.713 Y0.942
X2.688 Y0.92
X2.666 Y0.908
X2.639 Y0.903
X-2.561 Y0.9
X-2.652 Y0.905
X-2.675 Y0.912
X-2.703 Y0.929
X-2.708 Y0.934
X-2.727 Y0.965
X-2.732 Y0.985
X-2.737 Y8.104
X-2.732 Y15.515
X-2.727 Y15.535
X-2.713 Y15.558
X-2.688 Y15.58
X-2.666 Y15.592
X-2.639 Y15.597
X-1.501
X-1.476 Y15.594
X1.421 Y14.851
X1.445 Y14.848
X1.719
G2 X1.983 Y14.584 I0 J-0.265
G1 Y1.916
G2 X1.719 Y1.651 I-0.265 J0
G1 X-1.719 Y1.65
G2 X-1.983 Y1.914 I0 J0.265
G1 Y14.584
G2 X-1.719 Y14.848 I0.265 J0
G1 X-1.453
X-1.416 Y14.855
X-1.384 Y14.876
X-1.362 Y14.907
X-1.353 Y14.943
X-1.358 Y14.981
X-1.377 Y15.014
X-1.727 Y15.416
X-1.745 Y15.448
X-1.751 Y15.484
X-1.744 Y15.52
X-1.724 Y15.55
X-1.695 Y15.572
X-1.659 Y15.581
X-1.622 Y15.584 Z-3.33 F20
X-1.588 Y15.587 Z-3.345
X-1.559 Y15.589 Z-3.369
X-1.53 Y15.592 Z-3.392
X-1.495 Y15.594 Z-3.407
X-1.458 Y15.597 Z-3.412
X-1.453
X2.639 F30
X2.666 Y15.592
X2.688 Y15.58
X2.713 Y15.558
X2.727 Y15.535
X2.732 Y15.515
X2.737 Y8.396
X2.732 Y0.985
X2.727 Y0.965
X2.713 Y0.942
X2.688 Y0.92
X2.666 Y0.908
X2.639 Y0.903
X-2.561 Y0.9
X-2.652 Y0.905
X-2.675 Y0.912
X-2.703 Y0.929
X-2.708 Y0.934
X-2.727 Y0.965
X-2.732 Y0.985
X-2.737 Y8.104
X-2.732 Y15.515
X-2.727 Y15.535
X-2.713 Y15.558
X-2.688 Y15.58
X-2.666 Y15.592
X-2.639 Y15.597
X-1.453
X-1.427 Y15.594
X1.393 Y14.851
X1.419 Y14.848
X1.719
G2 X1.983 Y14.584 I0 J-0.265
G1 Y1.916
G2 X1.719 Y1.651 I-0.265 J0
G1 X-1.719 Y1.65
G2 X-1.983 Y1.914 I0 J0.265
G1 Y14.584
G2 X-1.719 Y14.848 I0.265 J0
G1 X-1.421
X-1.383 Y14.855
X-1.352 Y14.876
X-1.33 Y14.907
X-1.321 Y14.943
X-1.326 Y14.981
X-1.345 Y15.014
X-1.695 Y15.416
X-1.713 Y15.448
X-1.719 Y15.484
X-1.712 Y15.52
X-1.692 Y15.55
X-1.662 Y15.572
X-1.627 Y15.581
X-1.59 Y15.584 Z-3.418 F20
X-1.556 Y15.587 Z-3.433
X-1.527 Y15.589 Z-3.456
X-1.497 Y15.592 Z-3.48
X-1.463 Y15.594 Z-3.495
X-1.426 Y15.597 Z-3.5
X-1.421
X2.639 F30
X2.666 Y15.592
X2.688 Y15.58
X2.713 Y15.558
X2.727 Y15.535
X2.732 Y15.515
X2.737 Y8.396
X2.732 Y0.985
X2.727 Y0.965
X2.713 Y0.942
X2.688 Y0.92
X2.666 Y0.908
X2.639 Y0.903
X-2.561 Y0.9
X-2.652 Y0.905
X-2.675 Y0.912
X-2.703 Y0.929
X-2.708 Y0.934
X-2.727 Y0.965
X-2.732 Y0.985
X-2.737 Y8.104
X-2.732 Y15.515
X-2.727 Y15.535
X-2.713 Y15.558
X-2.688 Y15.58
X-2.666 Y15.592
X-2.639 Y15.597
X-1.421
X-1.395 Y15.594
X1.382 Y14.852
X1.408 Y14.848
X1.719
G2 X1.983 Y14.584 I0 J-0.265
G1 Y1.916
G2 X1.719 Y1.651 I-0.265 J0
G1 X-1.719 Y1.65
G2 X-1.983 Y1.914 I0 J0.265
G1 Y14.584
G2 X-1.719 Y14.848 I0.265 J0
G1 X-1.405
X-1.362 Y14.841
X-0.401 Y14.529
X-0.36 Y14.516 Z-3.493
X-0.323 Y14.504 Z-3.474
X-0.294 Y14.495 Z-3.443
X-0.276 Y14.488 Z-3.405
X-0.269 Y14.486 Z-3.362
Z-2.063
X-1.19 Y2.339
Z-2.5
Z-3.45 F20
Y2.333 Z-3.492
Y2.313 Z-3.531
Y2.282 Z-3.561
Y2.244 Z-3.581
Y2.201 Z-3.588
Y2.188
Y1.916 F30
G3 X-0.926 Y1.652 I0.264 J0
G1 X0.926
G3 X1.19 Y1.916 I0 J0.264
G1 Y2.182
G2 X1.565 Y2.744 I0.609 J0
G3 X1.94 Y3.307 I-0.234 J0.562
G1 X1.938 Y12.851
X1.934 Y15.548
X1.938 Y15.597
X-1.939
X-1.931 Y15.524
X-1.939 Y6.649
X-1.94 Y0.974
X-1.947 Y0.903
X1.947
X1.946 Y0.911
X1.94 Y0.974
Y3.307
X1.932 Y3.351 F10
X1.911 Y3.39
X1.879 Y3.421
X1.839 Y3.439
X1.794 Y3.444
X1.751 Y3.435
X-1.091 Y2.316 Z-3.675
X-1.127 Y2.295
X-1.155 Y2.265
X-1.172 Y2.228
X-1.179 Y2.187
Y1.916 F30
G3 X-0.915 Y1.652 I0.264 J0
G1 X0.913
G3 X1.177 Y1.916 I0 J0.264
G1 Y2.182
G2 X1.551 Y2.745 I0.609 J0.001
G3 X1.925 Y3.307 I-0.235 J0.562
G1 X1.92 Y11.014
X1.91 Y15.544
X1.914 Y15.597
X-1.916
X-1.91 Y15.557
X-1.907 Y15.511
X-1.927 Y6.358
X-1.929 Y0.964
X-1.934 Y0.903
X1.937
X1.929 Y0.978
X1.927 Y1.015
X1.925 Y3.307
X1.918 Y3.351 F10
X1.897 Y3.391
X1.865 Y3.421
X1.824 Y3.44
X1.78 Y3.445
X1.736 Y3.435
X-1.079 Y2.315 Z-3.763
X-1.114 Y2.295
X-1.142 Y2.265
X-1.159 Y2.228
X-1.165 Y2.187
X-1.166 Y1.916 F30
G3 X-0.902 Y1.652 I0.264 J0
G1 X0.902
G3 X1.165 Y1.916 I0 J0.264
G1 Y2.182
G2 X1.539 Y2.745 I0.609 J0.001
G3 X1.912 Y3.308 I-0.235 J0.562
G1 X1.901 Y9.559
X1.885 Y15.525
X1.892 Y15.597
X-1.892
X-1.885 Y15.525
X-1.915 Y2.574
X-1.916 Y0.966
X-1.922 Y0.903
X1.922
X1.916 Y0.966
X1.912 Y3.308
X1.905 Y3.352 F10
X1.884 Y3.391
X1.851 Y3.422
X1.811 Y3.441
X1.766 Y3.445
X1.723 Y3.436
X-1.066 Y2.315 Z-3.85
X-1.101 Y2.294
X-1.129 Y2.264
X-1.147 Y2.228
X-1.153 Y2.187
X-1.154 Y1.916 F30
G3 X-0.89 Y1.652 I0.263 J-0.001
G1 X0.89
G3 X1.154 Y1.916 I0 J0.263
G1 X1.153 Y2.182
G2 X1.526 Y2.745 I0.609 J0.002
G3 X1.899 Y3.308 I-0.236 J0.561
G1 X1.861 Y15.525
X1.869 Y15.597
X-1.869
X-1.861 Y15.525
X-1.906 Y0.948
X-1.909 Y0.903
X1.909
X1.906 Y0.948
X1.899 Y3.308
X1.891 Y3.353 F10
X1.87 Y3.392
X1.837 Y3.423
X1.797 Y3.441
X1.752 Y3.446
X1.709 Y3.436
X-1.041 Y2.315 Z-3.938
X-1.076 Y2.294
X-1.103 Y2.264
X-1.121 Y2.228
X-1.127 Y2.187
X-1.128 Y1.916 F30
G3 X-0.864 Y1.652 I0.263 J-0.001
G1 X0.864
G3 X1.128 Y1.916 I0 J0.263
G1 X1.127 Y2.182
G2 X1.5 Y2.745 I0.609 J0.002
G3 X1.873 Y3.308 I-0.236 J0.561
G1 X1.838 Y15.525
X1.845 Y15.597
X-1.845
X-1.838 Y15.525
X-1.88 Y0.973
X-1.887 Y0.903
X1.887
X1.886 Y0.911
X1.88 Y0.973
X1.873 Y3.308
X1.867 Y3.348 F10
X1.849 Y3.385
X1.822 Y3.415
X1.787 Y3.436
X1.747 Y3.445
X1.707 Y3.443
X1.685 Y3.438 Z-3.943
X1.67 Y3.435 Z-3.959
X1.664 Y3.434 Z-3.981
X1.658 Y3.433 Z-4.003
X1.643 Y3.429 Z-4.019
X1.621 Y3.425 Z-4.025
X-0.247 Y3.034
X-0.29 Y3.017
X-0.325 Y2.986
X-0.348 Y2.945
X-0.357 Y2.899
Y2.661 F30
G3 X-0.094 Y2.397 I0.263 J-0.001
G1 X0.094
G3 X0.357 Y2.661 I0 J0.263
G1 X0.356 Y2.903
X0.349 Y2.941
X0.327 Y2.974
X0.294 Y2.995
X0.256 Y3.003
X-1.002 Y2.998
X-1.04 Y2.991
X-1.072 Y2.969
X-1.094 Y2.937
X-1.102 Y2.899
X-1.105 Y1.916
G3 X-0.841 Y1.652 I0.263 J-0.001
G1 X0.841
G3 X1.105 Y1.916 I0 J0.263
G1 X1.102 Y2.899
G2 X1.475 Y3.462 I0.609 J0.002
G3 X1.848 Y4.025 I-0.236 J0.561
G1 X1.814 Y15.525
X1.822 Y15.597
X-1.822
X-1.814 Y15.525
X-1.857 Y0.973
X-1.864 Y0.903
X1.864
X1.857 Y0.973
X1.848 Y4.025
X1.842 Y4.065 F10
X1.824 Y4.102
X1.797 Y4.132
X1.762 Y4.153
X1.723 Y4.162
X1.683 Y4.16
X1.645 Y4.147
X1.625 Y4.136 Z-4.031
X1.611 Y4.129 Z-4.047
X1.606 Y4.126 Z-4.069
X1.601 Y4.123 Z-4.091
X1.587 Y4.116 Z-4.107
X1.568 Y4.106 Z-4.113
X-0.26 Y3.129
X-0.29 Y3.107
X-0.313 Y3.078
X-0.328 Y3.044
X-0.333 Y3.008
X-0.334 Y2.661 F30
G3 X-0.07 Y2.397 I0.263 J-0.001
G1 X0.071
G3 X0.334 Y2.661 I0 J0.263
G1 X0.333 Y3.008
X0.325 Y3.046
X0.303 Y3.078
X0.271 Y3.1
X0.233 Y3.107
X-0.978 Y3.104
X-1.016 Y3.096
X-1.049 Y3.075
X-1.07 Y3.042
X-1.078 Y3.004
X-1.081 Y1.916
G3 X-0.818 Y1.652 I0.263 J-0.001
G1 X0.821
G3 X1.083 Y1.916 I0 J0.263
G1 X1.08 Y3.004
G2 X1.452 Y3.565 I0.607 J0.002
G3 X1.824 Y4.127 I-0.235 J0.56
G1 X1.79 Y15.525
X1.798 Y15.597
X-1.797
X-1.795 Y15.563
X-1.792 Y14.508
X-1.834 Y0.973
X-1.841 Y0.903
X1.84
X1.838 Y0.936
X1.827 Y2.864
X1.824 Y4.127
X1.818 Y4.166 F10
X1.801 Y4.201
X1.775 Y4.231
X1.742 Y4.252
X1.704 Y4.263
X1.665
X1.643 Y4.259 Z-4.118
X1.627 Y4.257 Z-4.134
X1.622 Y4.256 Z-4.156
X1.616 Y4.255 Z-4.178
X1.6 Y4.253 Z-4.194
X1.578 Y4.249 Z-4.2
X-0.185 Y3.982
X-0.223 Y3.971
X-0.255 Y3.949
X-0.281 Y3.92
X-0.297 Y3.884
X-0.302 Y3.846
X-0.306 Y2.661 F30
G3 X-0.042 Y2.397 I0.264 J-0.001
G1 X0.044
G3 X0.308 Y2.661 I0 J0.264
G1 X0.304 Y3.846
X0.297 Y3.884
X0.275 Y3.916
X0.243 Y3.938
X0.205 Y3.946
X-0.947 Y3.949
X-0.986 Y3.942
X-1.018 Y3.92
X-1.04 Y3.888
X-1.048 Y3.849
X-1.053 Y1.916
G3 X-0.789 Y1.652 I0.264 J-0.001
G1 X0.793
G3 X1.056 Y1.916 I0 J0.263
G1 X1.05 Y3.85
G2 X1.423 Y4.413 I0.608 J0.002
G3 X1.796 Y4.975 I-0.236 J0.561
G1 X1.767 Y15.525
X1.774 Y15.597
X-1.774
X-1.767 Y15.525
X-1.804 Y0.973
X-1.812 Y0.903
X1.811
X1.809 Y0.936
X1.803 Y2.282
X1.796 Y4.975
X1.79 Y5.016 F10
X1.772 Y5.053
X1.744 Y5.083
X1.709 Y5.103
X1.669 Y5.113
X1.628 Y5.11
X1.59 Y5.095
X1.571 Y5.084 Z-4.206
X1.557 Y5.076 Z-4.222
X1.552 Y5.073 Z-4.244
X1.547 Y5.07 Z-4.266
X1.533 Y5.063 Z-4.282
X1.514 Y5.052 Z-4.287
X-0.202 Y4.075
X-0.231 Y4.053
X-0.253 Y4.025
X-0.267 Y3.991
X-0.272 Y3.956
X-0.274 Y2.661 F30
G3 X-0.01 Y2.397 I0.264 J0
G1 X0.009
G3 X0.273 Y2.661 I0 J0.264
G1 X0.271 Y3.951
X0.263 Y3.989
X0.242 Y4.021
X0.209 Y4.043
X0.171 Y4.051
X-0.916 Y4.054
X-0.954 Y4.047
X-0.987 Y4.025
X-1.008 Y3.993
X-1.016 Y3.955
X-1.02 Y1.916
G3 X-0.755 Y1.652 I0.264 J0
G1 X0.755
G3 X1.019 Y1.916 I0 J0.264
G1 X1.015 Y3.955
G2 X1.39 Y4.519 I0.61 J0.001
G3 X1.765 Y5.082 I-0.236 J0.563
G1 X1.76 Y9.559
X1.743 Y15.525
X1.751 Y15.597
X-1.75
X-1.748 Y15.563
X-1.745 Y14.508
X-1.768 Y4.903
X-1.769 Y0.974
X-1.777 Y0.903
X1.777
X1.775 Y0.911
X1.769 Y0.974
X1.765 Y5.082
X1.757 Y5.129 F10
X1.734 Y5.169
X1.699 Y5.2
X1.656 Y5.217
X1.609 Y5.219
X1.587 Y5.216 Z-4.293
X1.571 Y5.214 Z-4.309
X1.565 Y5.213 Z-4.331
X1.56 Z-4.353
X1.544 Y5.21 Z-4.369
X1.522 Y5.208 Z-4.375
X-0.118 Y4.989
X-0.156 Y4.978
X-0.189 Y4.957
X-0.215 Y4.927
X-0.232 Y4.892
X-0.237 Y4.852
X-0.24 Y2.592 F30
G3 X-0.045 Y2.397 I0.195 J0
G1 X0.044
G3 X0.239 Y2.592 I0 J0.195
G1 X0.237 Y4.856
X0.229 Y4.895
X0.208 Y4.927
X0.175 Y4.949
X0.137 Y4.956
X-0.882 Y4.957
X-0.92 Y4.949
X-0.953 Y4.928
X-0.974 Y4.895
X-0.982 Y4.857
X-0.985 Y1.916
G3 X-0.721 Y1.652 I0.264 J0
G1 X0.72
G3 X0.984 Y1.916 I0 J0.264
G1 X0.982 Y4.858
G2 X1.356 Y5.421 I0.609 J0.001
G3 X1.731 Y5.983 I-0.235 J0.562
G1 X1.726 Y13.052
X1.72 Y15.525
X1.727 Y15.597
X-1.726
X-1.725 Y15.563
X-1.722 Y14.508
X-1.733 Y7.813
X-1.734 Y0.974
X-1.742 Y0.903
X1.742
X1.74 Y0.911
X1.734 Y0.974
X1.731 Y5.983
X1.725 Y6.025 F10
X1.706 Y6.062
X1.678 Y6.092
X1.641 Y6.113
X1.601 Y6.121
X1.559 Y6.117
X1.521 Y6.101
X1.502 Y6.089 Z-4.381
X1.488 Y6.081 Z-4.397
X1.483 Y6.078 Z-4.419
X1.478 Y6.075 Z-4.441
X1.465 Y6.066 Z-4.457
X1.446 Y6.055 Z-4.463
X-0.137 Y5.08
X-0.172 Y5.049
X-0.195 Y5.009
X-0.203 Y4.963
Y3.422 F30
G3 X-0.008 Y3.227 I0.195 J0
G1 X0.008
G3 X0.203 Y3.422 I0 J0.195
G1 Y4.961
X0.195 Y5
X0.173 Y5.032
X0.141 Y5.054
X0.103 Y5.061
X-0.848 Y5.062
X-0.887 Y5.054
X-0.919 Y5.033
X-0.941 Y5
X-0.948 Y4.962
Y2.747
G3 X-0.684 Y2.482 I0.264 J0
G1 X0.683
G3 X0.948 Y2.747 I0 J0.264
G1 Y4.963
G2 X1.322 Y5.525 I0.609 J0
G3 X1.697 Y6.087 I-0.234 J0.562
G1 X1.696 Y15.526
X1.704 Y15.597
X-1.703
X-1.701 Y15.563
X-1.697 Y13.344
Y1.733
X1.697
Y6.087
X1.691 Y6.126 F10
X1.675 Y6.162
X1.648 Y6.192
X1.615 Y6.213
X1.576 Y6.224
X1.537 Y6.223
X1.515 Y6.219 Z-4.468
X1.499 Y6.217 Z-4.484
X1.494 Y6.216 Z-4.506
X1.488 Y6.215 Z-4.528
X1.472 Y6.212 Z-4.544
X1.45 Y6.209 Z-4.55
X-0.037 Y5.965
X-0.074 Y5.954
X-0.106 Y5.932
X-0.131 Y5.903
X-0.147 Y5.867
X-0.152 Y5.829
X-0.154 Y3.861 F30
X-0.147 Y3.816
X-0.126 Y3.776
X-0.094 Y3.744
X-0.054 Y3.723
X-0.009 Y3.716
X0.008
X0.053 Y3.723
X0.093 Y3.744
X0.125 Y3.776
X0.146 Y3.816
X0.153 Y3.861
X0.152 Y5.827
X0.145 Y5.865
X0.123 Y5.898
X0.091 Y5.92
X0.053 Y5.927
X-0.796 Y5.932
X-0.835 Y5.924
X-0.867 Y5.903
X-0.889 Y5.87
X-0.897 Y5.832
X-0.899 Y3.235
G3 X-0.634 Y2.971 I0.264 J0
G1 X0.634
G3 X0.898 Y3.235 I0 J0.264
G1 X0.897 Y5.83
G2 X1.272 Y6.392 I0.609 J0
G3 X1.646 Y6.955 I-0.235 J0.562
G1 X1.644 Y13.634
X1.64 Y15.549
X1.643 Y15.597
X-1.645
X-1.638 Y15.529
X-1.636 Y15.492
X-1.649 Y10.723
X-1.648 Y2.221
X1.648
X1.646 Y6.955
X1.64 Y6.997 F10
X1.621 Y7.035
X1.591 Y7.066
X1.553 Y7.086
X1.511 Y7.093
X1.468 Y7.087
X1.43 Y7.068
X1.412 Y7.056 Z-4.556
X1.399 Y7.047 Z-4.572
X1.394 Y7.044 Z-4.594
X1.389 Y7.04 Z-4.616
X1.376 Y7.031 Z-4.632
X1.358 Y7.019 Z-4.637
X-0.041 Y6.052
X-0.073 Y6.022
X-0.094 Y5.983
X-0.101 Y5.939
X-0.105 Y4.284 F30
X-0.099 Y4.254
X-0.081 Y4.228
X-0.055 Y4.211
X-0.025 Y4.204
X0.023
X0.054 Y4.211
X0.08 Y4.228
X0.097 Y4.254
X0.103 Y4.284
X0.1 Y5.936
X0.092 Y5.975
X0.071 Y6.007
X0.038 Y6.029
X0 Y6.036
X-0.745 Y6.037
X-0.783 Y6.029
X-0.816 Y6.008
X-0.837 Y5.975
X-0.845 Y5.937
X-0.85 Y3.724
G3 X-0.585 Y3.459 I0.264 J0
G1 X0.585
G3 X0.849 Y3.724 I0 J0.264
G1 X0.844 Y5.94
G2 X1.22 Y6.505 I0.611 J0.001
G3 X1.596 Y7.07 I-0.236 J0.565
G1 X1.594 Y10.141
X1.573 Y15.525
X1.58 Y15.597
X-1.579
X-1.577 Y15.563
X-1.576 Y14.508
X-1.6 Y7.522
X-1.599 Y2.71
X1.599
X1.596 Y7.07
X1.59 Y7.109 F10
X1.573 Y7.146
X1.546 Y7.176
X1.512 Y7.197
X1.473 Y7.207
X1.433 Y7.205
X1.411 Y7.201 Z-4.643
X1.396 Y7.199 Z-4.659
X1.39 Y7.197 Z-4.681
X1.384 Y7.196 Z-4.703
X1.368 Y7.194 Z-4.719
X1.347 Y7.19 Z-4.725
X0.01 Y6.945
X-0.026 Y6.933
X-0.058 Y6.911
X-0.082 Y6.882
X-0.098 Y6.847
X-0.103 Y6.809
X-0.111 Y4.743 F30
X-0.106 Y4.71
X-0.09 Y4.68
X-0.066 Y4.656
X-0.036 Y4.64
X-0.003 Y4.635
X0.031 Y4.639
X0.063 Y4.654
X0.088 Y4.678
X0.104 Y4.709
X0.109 Y4.743
X0.102 Y6.806
X0.096 Y8.496
Y8.539 Z-4.718
Y8.577 Z-4.699
Y8.608 Z-4.668
Y8.627 Z-4.63
Y8.634 Z-4.587
Z-2.675
X-0.56 Y13.558 Z-1.975
X-0.724 Y14.788
Z-3.638 F10
Z-4.587 F20
X-0.725 Y14.782 Z-4.63
X-0.729 Y14.763 Z-4.668
X-0.736 Y14.733 Z-4.699
X-0.744 Y14.695 Z-4.718
X-0.753 Y14.654 Z-4.725
X-0.756 Y14.64
X-0.762 Y14.584 F30
X-0.8 Y4.212
G3 X-0.537 Y3.948 I0.263 J-0.001
G1 X0.534
G3 X0.798 Y4.212 I0 J0.264
G1 X0.762 Y14.583
X0.758 Y14.628
G2 X0.969 Y15.1 I0.456 J0.079
G3 X0.827 Y15.597 I-0.143 J0.228
G1 X-1.514
X-1.513 Y15.563
X-1.511 Y14.508
X-1.55 Y4.029
Y3.198
X1.549
X1.54 Y7.521
X1.508 Y15.525
X1.515 Y15.597
X0.827
X0.805 Y15.596
X-0.864 Y15.331
X-0.906 Y15.325 Z-4.718
X-0.944 Y15.319 Z-4.699
X-0.974 Y15.314 Z-4.668
X-0.994 Y15.311 Z-4.63
X-1 Y15.31 Z-4.587
Z-1.975
X-0.744 Y12.955
X-0.105 Y7.066 Z-2.763
Z-3.725
Z-4.674 F20
Y7.06 Z-4.717
Y7.04 Z-4.756
Y7.009 Z-4.786
Y6.971 Z-4.806
Y6.928 Z-4.813
Y6.914
X-0.113 Y5.168 F30
X-0.108 Y5.134
X-0.092 Y5.104
X-0.068 Y5.08
X-0.038 Y5.065
X-0.005 Y5.059
X0.005
X0.039 Y5.065
X0.069 Y5.08
X0.093 Y5.104
X0.108 Y5.134
X0.113 Y5.168
X0.106 Y6.916
X0.099 Y8.606
Y8.649 Z-4.806
Y8.687 Z-4.786
Y8.718 Z-4.756
Y8.737 Z-4.717
X0.098 Y8.744 Z-4.674
Z-2.763
X-0.435 Y13.635 Z-1.975
X-0.568 Y14.857
Z-3.725 F10
Z-4.674 F20
X-0.572 Y14.852 Z-4.717
X-0.582 Y14.835 Z-4.756
X-0.599 Y14.81 Z-4.786
X-0.621 Y14.778 Z-4.806
X-0.645 Y14.743 Z-4.813
X-0.652 Y14.731
X-0.677 Y14.685 F30
X-0.692 Y14.636
X-0.697 Y14.584
X-0.696 Y14.543
X-0.694 Y14.503
X-0.738 Y4.701
G3 X-0.474 Y4.436 I0.263 J-0.001
G1 X0.475
G3 X0.738 Y4.701 I0 J0.263
G1 X0.698 Y14.583
X0.693 Y14.634
X0.678 Y14.682
X0.655 Y14.727
G2 X0.636 Y15.195 I0.385 J0.25
G3 X0.396 Y15.597 I-0.24 J0.13
G1 X-1.45
X-1.448 Y15.563
X-1.446 Y14.508
X-1.491 Y3.687
X1.491
X1.443 Y15.524
X1.451 Y15.597
X0.396
X0.364 Y15.594
X0.333 Y15.582
X-1.173 Y14.815
X-1.21 Y14.796 Z-4.806
X-1.245 Y14.778 Z-4.786
X-1.272 Y14.764 Z-4.756
X-1.289 Y14.756 Z-4.717
X-1.295 Y14.753 Z-4.674
Z-1.975
X-0.933 Y12.481
X-0.209 Y7.939 Z-2.85
Z-3.813
Z-4.762 F20
Y7.933 Z-4.805
Y7.913 Z-4.843
Y7.882 Z-4.874
Y7.844 Z-4.893
Y7.801 Z-4.9
Y7.788
X-0.218 Y5.572 F30
G3 X-0.023 Y5.376 I0.195 J-0.001
G1 X0.023
G3 X0.218 Y5.572 I0 J0.195
G1 X0.209 Y7.788
X0.202 Y9.478
Y9.52 Z-4.893
Y9.559 Z-4.874
Y9.589 Z-4.843
Y9.609 Z-4.805
Y9.616 Z-4.762
Z-2.85
X-0.206 Y13.569 Z-1.975
X-0.342 Y14.887
Z-3.813 F10
Z-4.762 F20
X-0.349 Y14.885 Z-4.805
X-0.366 Y14.876 Z-4.843
X-0.394 Y14.863 Z-4.874
X-0.429 Y14.847 Z-4.893
X-0.467 Y14.829 Z-4.9
X-0.48 Y14.823
G3 X-0.633 Y14.583 I0.113 J-0.241 F30
G1 X-0.671 Y5.189
G3 X-0.408 Y4.925 I0.263 J-0.001
G1 X0.408
G3 X0.671 Y5.189 I0 J0.263
G1 X0.633 Y14.583
G3 X0.485 Y14.821 I-0.266 J-0.001
G2 X0.072 Y15.262 I0.381 J0.771
G3 X-0.431 Y15.597 I-0.503 J-0.209
G1 X-1.386
X-1.384 Y15.589
X-1.379 Y15.525
X-1.424 Y4.176
X1.424
X1.379 Y15.525
X1.386 Y15.597
X-0.431
G3 X-1.041 Y14.771 Z-4.921 I0 J-0.639 F10
G1 X-0.814 Y14.035 Z-4.935
G3 X0.406 Y14.411 Z-4.97 I0.61 J0.188
X-0.374 Y14.839 Z-4.988 I-0.61 J-0.188
X-0.568 Y14.584 I0.07 J-0.254 F30
G1 X-0.604 Y5.68
G3 X-0.341 Y5.415 I0.263 J-0.001
G1 X0.341
G3 X0.604 Y5.68 I0 J0.263
G1 X0.568 Y14.583
G3 X0.375 Y14.838 I-0.266 J-0.001
G2 X-0.083 Y15.251 I0.19 J0.671
G3 X-0.594 Y15.597 I-0.511 J-0.203
G1 X-1.32
X-1.319 Y15.563
X-1.317 Y14.508
X-1.357 Y4.666
X1.357
X1.314 Y15.525
X1.322 Y15.597
X-0.594
X-0.633 Y15.592
X-0.668 Y15.576
X-0.698 Y15.551
X-0.719 Y15.518
X-0.73 Y15.481
X-0.995 Y13.812
X-1.001 Y13.77 Z-4.981
X-1.007 Y13.732 Z-4.961
X-1.012 Y13.702 Z-4.931
X-1.015 Y13.682 Z-4.892
X-1.016 Y13.676 Z-4.85
Z-2.5
X-0.509 Y14.502
Z-3.987
Z-4.937 F20
Y14.495 Z-4.98
X-0.51 Y14.475 Z-5.018
Y14.445 Z-5.049
Y14.406 Z-5.068
Y14.364 Z-5.075
X-0.513 Y13.674
X-0.543 Y6.121 F30
G3 X-0.28 Y5.857 I0.263 J-0.001
G1 X0.28
G3 X0.543 Y6.121 I0 J0.263
G1 X0.51 Y14.583
G3 X0.244 Y14.848 I-0.266 J-0.001
G1 X-0.245
G3 X-0.509 Y14.584 I0 J-0.264
G1 X-0.513 Y13.674
G2 X-0.89 Y13.113 I-0.609 J0.002
G3 X-1.266 Y12.553 I0.232 J-0.563
G1 X-1.296 Y5.108
X1.297
X1.255 Y15.525
X1.263 Y15.597
X-1.262
X-1.26 Y15.563
X-1.258 Y14.508
X-1.266 Y12.553
X-1.264 Y12.526 F10
X-1.182 Y12.108
X-0.453 Y8.395 Z-5.162
X-0.456 Y6.655 F30
G3 X-0.192 Y6.391 I0.265 J0
G1 X0.191
G3 X0.455 Y6.655 I0 J0.264
G1 X0.439 Y14.583
G3 X0.173 Y14.848 I-0.266 J-0.001
G1 X-0.175
G3 X-0.439 Y14.584 I0 J-0.264
G1 X-0.453 Y8.395
G2 X-0.829 Y7.83 I-0.614 J0.001
G3 X-1.206 Y7.264 I0.235 J-0.565
G1 X-1.205 Y5.641
X1.205
X1.203 Y10.723
X1.185 Y15.525
X1.192 Y15.597
X-1.191
X-1.189 Y15.563
X-1.188 Y14.508
X-1.207 Y8.395
X-1.206 Y7.264
X-1.2 Y7.229
X-1.181 Y7.198
X-1.152 Y7.176
X-1.117 Y7.165
X-1.081 Y7.168
X-1.048 Y7.183
X-0.526 Y7.554
X-0.493 Y7.569
X-0.456 Y7.572
X-0.422 Y7.561
X-0.393 Y7.539
X-0.374 Y7.508
X-0.368 Y7.472
Y7.435 Z-5.168 F20
Y7.401 Z-5.183
Y7.371 Z-5.206
Y7.342 Z-5.23
Y7.308 Z-5.245
X-0.367 Y7.271 Z-5.25
Y7.265
Y7.144 F30
G3 X-0.103 Y6.879 I0.265 J0
G1 X0.102
G3 X0.367 Y7.144 I0 J0.265
G1 X0.37 Y14.584
G3 X0.106 Y14.848 I-0.264 J0
G1 X-0.11
G3 X-0.374 Y14.584 I0 J-0.264
G1 X-0.367 Y7.265
G2 X-0.742 Y6.703 I-0.609 J-0.001
G3 X-1.116 Y6.141 I0.235 J-0.562
G1 Y6.13
X1.116
X1.12 Y15.526
X1.128 Y15.597
X-1.127
X-1.125 Y15.563
X-1.118 Y9.269
X-1.116 Y6.141
X-1.099 Y6.149
X-0.157 Y7.575
X-0.148 Y7.593
X-0.145 Y7.613
X-0.146 Y7.811
X-0.152 Y7.841
X-0.172 Y7.865
X-0.199 Y7.879
X-0.23
X-0.257 Y7.865
X-0.277 Y7.841
X-0.284 Y7.811
Y7.774 Z-5.255 F20
Y7.74 Z-5.27
Y7.711 Z-5.294
Y7.682 Z-5.317
Y7.647 Z-5.332
Y7.61 Z-5.338
Y7.604
Y7.584 F30
G3 X-0.02 Y7.32 I0.264 J0
G1 X0.019
G3 X0.283 Y7.584 I0 J0.264
G1 X0.266 Y14.585
G3 X-0.265 Y14.584 I-0.266 J-0.003
G1 X-0.284 Y7.604
G2 X-0.549 Y7.108 I-0.6 J0.002
G3 X-0.385 Y6.571 I0.164 J-0.244
G1 X1.035
X1.019 Y14.214
X1.007 Y15.523
X1.009 Y15.56
X1.014 Y15.597
X-1.013
X-1.012 Y15.562
X-1.013 Y14.798
X-1.027 Y12.469
X-1.035 Y6.571
X-0.385
X-0.341 Y6.578 F10
X-0.301 Y6.599
X-0.271 Y6.631
X-0.252 Y6.671
X0 Y7.565
X0.006 Y7.586 Z-5.343
X0.01 Y7.602 Z-5.359
X0.012 Y7.607 Z-5.381
X0.014 Y7.613 Z-5.403
X0.018 Y7.628 Z-5.419
X0.024 Y7.649 Z-5.425
X0.115 Y7.974
G3 X0.002 Y8.148 I-0.133 J0.037
X-0.156 Y8.012 I-0.019 J-0.137
G1 Y8.002 F30
X-0.149 Y7.957
X-0.128 Y7.916
X-0.096 Y7.884
X-0.056 Y7.863
X-0.011 Y7.856
X0.009
X0.054 Y7.863
X0.095 Y7.884
X0.127 Y7.916
X0.147 Y7.957
X0.154 Y8.002
X0.113 Y14.664
X0.106 Y14.702
X0.086 Y14.736
X0.057 Y14.761
X0.02 Y14.774
X-0.019
X-0.055 Y14.761
X-0.085 Y14.736
X-0.105 Y14.702
X-0.112 Y14.664
X-0.156 Y8.012
G2 X-0.425 Y7.593 I-0.465 J0.003
G3 X-0.318 Y7.107 I0.107 J-0.231
G1 X0.906
X0.893 Y11.595
X0.854 Y15.522
X0.856 Y15.56
X0.861 Y15.597
X-0.86
X-0.859 Y15.562
X-0.86 Y14.798
X-0.901 Y10.431
X-0.907 Y7.107
X-0.318
X-0.281 Y7.112
X-0.246 Y7.127
X-0.217 Y7.151
X-0.195 Y7.182
X0.572 Y8.688
X0.592 Y8.726 Z-5.418
X0.609 Y8.76 Z-5.399
X0.623 Y8.788 Z-5.368
X0.632 Y8.805 Z-5.33
X0.635 Y8.811 Z-5.287
Z-3.463
X-0.67 Y8.698
Z-5.195 F10
X-0.679 Y8.682 Z-5.263
X-0.7 Y8.638 Z-5.314
X-0.724 Y8.575 Z-5.333
G3 X0.527 Y8.181 Z-5.377 I0.625 J-0.197
X-0.724 Y8.575 Z-5.421 I-0.625 J0.197
X0.527 Y8.181 Z-5.464 I0.625 J-0.197
X-0.002 Y9.026 Z-5.488 I-0.625 J0.197
X-0.754 Y8.372 Z-5.512 I-0.096 J-0.648
X0.134 Y8.38 I0.444 J0.004
G1 X0.076 Y14.606 F30
X0.068 Y14.638
X0.047 Y14.664
X0.017 Y14.678
X-0.016
X-0.046 Y14.664
X-0.067 Y14.638
X-0.075 Y14.606
X-0.137 Y8.352
X-0.132 Y8.319
X-0.116 Y8.288
X-0.093 Y8.264
X-0.062 Y8.249
X-0.029 Y8.243
X0.027
X0.06 Y8.249
X0.09 Y8.264
X0.114 Y8.288
X0.129 Y8.318
X0.134 Y8.352
Y8.38
G2 X0.455 Y8.869 I0.525 J0.005
G3 X0.776 Y9.358 I-0.207 J0.486
G1 X0.775 Y9.557
X0.715 Y15.522
X0.716 Y15.56
X0.722 Y15.597
X-0.721
X-0.719 Y15.562
X-0.721 Y14.798
X-0.787 Y8.102
X-0.788 Y7.596
X0.787
X0.776 Y9.358
G3 X0.518 Y9.425 I-0.138 J-0.001 F10
G1 X0.476 Y9.349
X0.465 Y9.33 Z-5.518
X0.457 Y9.316 Z-5.534
X0.454 Y9.311 Z-5.556
X0.451 Y9.306 Z-5.578
X0.443 Y9.292 Z-5.594
X0.433 Y9.273 Z-5.6
X-0.12 Y8.29
X-0.135 Y8.251
X-0.138 Y8.211
X-0.128 Y8.171
X-0.108 Y8.136
X-0.077 Y8.108
X-0.041 Y8.09
X0 Y8.084
X0.646 F30
X0.588 Y14.213
X0.575 Y15.523
X0.577 Y15.56
X0.583 Y15.597
X-0.582
X-0.58 Y15.562
X-0.581 Y14.798
X-0.646 Y8.084
X0
X0.038 Y8.09
X0.074 Y8.106
X0.103 Y8.131
X0.125 Y8.163
X0.136 Y8.2
X0.401 Y9.87
X0.407 Y9.912 Z-5.593
X0.413 Y9.95 Z-5.574
X0.418 Y9.98 Z-5.543
X0.421 Y9.999 Z-5.505
X0.422 Y10.006 Z-5.462
Z-3.813
X0.401 Y8.788
Z-3.9
Z-5.37 F10
X0.411 Y8.803 Z-5.438
X0.434 Y8.846 Z-5.488
X0.459 Y8.909 Z-5.508
G3 X-0.46 Y9.202 Z-5.552 I-0.46 J0.147
X0.459 Y8.909 Z-5.596 I0.46 J-0.147
X-0.46 Y9.202 Z-5.639 I-0.46 J0.147
X0.459 Y8.909 Z-5.683 I0.46 J-0.147
X0.482 Y9.058 Z-5.688 I-0.46 J0.147
G1 X0.463 Y12.758 F30
X0.436 Y15.522
X0.438 Y15.56
X0.443 Y15.597
X-0.442
X-0.441 Y15.562
X-0.442 Y14.798
X-0.476 Y11.013
X-0.485 Y8.573
X0.485
X0.482 Y9.058
X0.478 Y9.092 Z-5.678
X0.465 Y9.124 Z-5.669
X0.451 Y9.145 Z-5.644
X0.433 Y9.163 Z-5.619
X0.418 Y9.174 Z-5.549
Z-2.063
X0.302 Y14.453
Z-2.925
Y14.46 Z-2.966 F10
Y14.478 Z-3.004
Y14.507 Z-3.034
Y14.547 Z-3.055
Y14.591 Z-3.063
X0.301 Y15.562 Z-3.068
X0.303 Y15.597 Z-3.069
X-0.303 Z-3.072
X-0.301 Y15.562 Z-3.073
X-0.299 Y11.306 Z-3.099
X-0.294 Y9.061 Z-3.112
X0.293 Z-3.116
X0.302 Y14.507 Z-3.149
X0.301 Y15.562 Z-3.156
X0.303 Y15.597
X-0.303 Z-3.16
X-0.301 Y15.562
X-0.299 Y11.306 Z-3.186
X-0.294 Y9.061 Z-3.2
X0.293 Z-3.204
X0.302 Y14.507 Z-3.237
X0.301 Y15.562 Z-3.243
X0.303 Y15.597 Z-3.244
X-0.303 Z-3.247
X-0.301 Y15.562 Z-3.248
X-0.299 Y11.306 Z-3.274
X-0.294 Y9.061 Z-3.287
X0.293 Z-3.291
X0.302 Y14.507 Z-3.324
X0.301 Y15.562 Z-3.331
X0.303 Y15.597
X-0.303 Z-3.335
X-0.301 Y15.562
X-0.299 Y11.306 Z-3.361
X-0.294 Y9.061 Z-3.375
X0.293 Z-3.379
X0.302 Y14.507 Z-3.412
X0.301 Y15.562 Z-3.418
X0.303 Y15.597 Z-3.419
X-0.303 Z-3.422
X-0.301 Y15.562 Z-3.423
X-0.299 Y11.306 Z-3.449
X-0.294 Y9.061 Z-3.462
X0.293 Z-3.466
X0.302 Y14.507 Z-3.499
X0.301 Y15.562 Z-3.506
X0.303 Y15.597
X-0.303 Z-3.51
X-0.301 Y15.562
X-0.299 Y11.306 Z-3.536
X-0.294 Y9.061 Z-3.55
X0.293 Z-3.554
X0.302 Y14.507 Z-3.587
X0.301 Y15.562 Z-3.593
X0.303 Y15.597 Z-3.594
X-0.303 Z-3.597
X-0.301 Y15.562 Z-3.598
X-0.299 Y11.306 Z-3.624
X-0.294 Y9.061 Z-3.637
X0.293 Z-3.641
X0.302 Y14.507 Z-3.674
X0.301 Y15.562 Z-3.681
X0.303 Y15.597
X-0.303 Z-3.685
X-0.301 Y15.562
X-0.299 Y11.306 Z-3.711
X-0.294 Y9.061 Z-3.725
X0.293 Z-3.729
X0.302 Y14.507 Z-3.762
X0.301 Y15.562 Z-3.768
X0.303 Y15.597 Z-3.769
X-0.303 Z-3.772
X-0.301 Y15.562 Z-3.773
X-0.299 Y11.306 Z-3.799
X-0.294 Y9.061 Z-3.812
X0.293 Z-3.816
X0.302 Y14.507 Z-3.849
X0.301 Y15.562 Z-3.856
X0.303 Y15.597
X-0.303 Z-3.86
X-0.301 Y15.562
X-0.299 Y11.306 Z-3.886
X-0.294 Y9.061 Z-3.9
X0.293 Z-3.904
X0.302 Y14.507 Z-3.937
X0.301 Y15.562 Z-3.943
X0.303 Y15.597 Z-3.944
X-0.303 Z-3.947
X-0.301 Y15.562 Z-3.948
X-0.299 Y11.306 Z-3.974
X-0.294 Y9.061 Z-3.987
X0.293 Z-3.991
X0.302 Y14.507 Z-4.024
X0.301 Y15.562 Z-4.031
X0.303 Y15.597
X-0.303 Z-4.035
X-0.301 Y15.562
X-0.299 Y11.306 Z-4.061
X-0.294 Y9.061 Z-4.075
X0.293 Z-4.079
X0.302 Y14.507 Z-4.112
X0.301 Y15.562 Z-4.118
X0.303 Y15.597 Z-4.119
X-0.303 Z-4.122
X-0.301 Y15.562 Z-4.123
X-0.299 Y11.306 Z-4.149
X-0.294 Y9.061 Z-4.162
X0.293 Z-4.166
X0.302 Y14.507 Z-4.199
X0.301 Y15.562 Z-4.206
X0.303 Y15.597
X-0.303 Z-4.21
X-0.301 Y15.562
X-0.299 Y11.306 Z-4.236
X-0.294 Y9.061 Z-4.25
X0.293 Z-4.254
X0.302 Y14.507 Z-4.287
X0.301 Y15.562 Z-4.293
X0.303 Y15.597 Z-4.294
X-0.303 Z-4.297
X-0.301 Y15.562 Z-4.298
X-0.299 Y11.306 Z-4.324
X-0.294 Y9.061 Z-4.337
X0.293 Z-4.341
X0.302 Y14.507 Z-4.374
X0.301 Y15.562 Z-4.381
X0.303 Y15.597
X-0.303 Z-4.385
X-0.301 Y15.562
X-0.299 Y11.306 Z-4.411
X-0.294 Y9.061 Z-4.425
X0.293 Z-4.429
X0.302 Y14.507 Z-4.462
X0.301 Y15.562 Z-4.468
X0.303 Y15.597 Z-4.469
X-0.303 Z-4.472
X-0.301 Y15.562 Z-4.473
X-0.299 Y11.306 Z-4.499
X-0.294 Y9.061 Z-4.512
X0.293 Z-4.516
X0.302 Y14.507 Z-4.549
X0.301 Y15.562 Z-4.556
X0.303 Y15.597
X-0.303 Z-4.56
X-0.301 Y15.562
X-0.299 Y11.306 Z-4.586
X-0.294 Y9.061 Z-4.6
X0.293 Z-4.604
X0.302 Y14.507 Z-4.637
X0.301 Y15.562 Z-4.643
X0.303 Y15.597 Z-4.644
X-0.303 Z-4.647
X-0.301 Y15.562 Z-4.648
X-0.299 Y11.306 Z-4.674
X-0.294 Y9.061 Z-4.687
X0.293 Z-4.691
X0.302 Y14.507 Z-4.724
X0.301 Y15.562 Z-4.731
X0.303 Y15.597
X-0.303 Z-4.735
X-0.301 Y15.562
X-0.299 Y11.306 Z-4.761
X-0.294 Y9.061 Z-4.775
X0.293 Z-4.779
X0.302 Y14.507 Z-4.812
X0.301 Y15.562 Z-4.818
X0.303 Y15.597 Z-4.819
X-0.303 Z-4.822
X-0.301 Y15.562 Z-4.823
X-0.299 Y11.306 Z-4.849
X-0.294 Y9.061 Z-4.862
X0.293 Z-4.866
X0.302 Y14.507 Z-4.899
X0.301 Y15.562 Z-4.906
X0.303 Y15.597
X-0.303 Z-4.91
X-0.301 Y15.562
X-0.299 Y11.306 Z-4.936
X-0.294 Y9.061 Z-4.95
X0.293 Z-4.954
X0.302 Y14.507 Z-4.987
X0.301 Y15.562 Z-4.993
X0.303 Y15.597 Z-4.994
X-0.303 Z-4.997
X-0.301 Y15.562 Z-4.998
X-0.299 Y11.306 Z-5.024
X-0.294 Y9.061 Z-5.037
X0.293 Z-5.041
X0.302 Y14.507 Z-5.074
X0.301 Y15.562 Z-5.081
X0.303 Y15.597
X-0.303 Z-5.085
X-0.301 Y15.562
X-0.299 Y11.306 Z-5.111
X-0.294 Y9.061 Z-5.125
X0.293 Z-5.129
X0.302 Y14.507 Z-5.162
X0.301 Y15.562 Z-5.168
X0.303 Y15.597 Z-5.169
X-0.303 Z-5.172
X-0.301 Y15.562 Z-5.173
X-0.299 Y11.306 Z-5.199
X-0.294 Y9.061 Z-5.212
X0.293 Z-5.216
X0.302 Y14.507 Z-5.249
X0.301 Y15.562 Z-5.256
X0.303 Y15.597
X-0.303 Z-5.26
X-0.301 Y15.562
X-0.299 Y11.306 Z-5.286
X-0.294 Y9.061 Z-5.3
X0.293 Z-5.304
X0.302 Y14.507 Z-5.337
X0.301 Y15.562 Z-5.343
X0.303 Y15.597 Z-5.344
X-0.303 Z-5.347
X-0.301 Y15.562 Z-5.348
X-0.299 Y11.306 Z-5.374
X-0.294 Y9.061 Z-5.387
X0.293 Z-5.391
X0.302 Y14.507 Z-5.424
X0.301 Y15.562 Z-5.431
X0.303 Y15.597
X-0.303 Z-5.435
X-0.301 Y15.562
X-0.299 Y11.306 Z-5.461
X-0.294 Y9.061 Z-5.475
X0.293 Z-5.479
X0.302 Y14.507 Z-5.512
X0.301 Y15.562 Z-5.518
X0.303 Y15.597 Z-5.519
X-0.303 Z-5.522
X-0.301 Y15.562 Z-5.523
X-0.299 Y11.306 Z-5.549
X-0.294 Y9.061 Z-5.562
X0.293 Z-5.566
X0.302 Y14.507 Z-5.599
X0.301 Y15.562 Z-5.606
X0.303 Y15.597
X-0.303 Z-5.61
X-0.301 Y15.562
X-0.299 Y11.306 Z-5.636
X-0.294 Y9.061 Z-5.65
X0.293 Z-5.654
X0.302 Y14.507 Z-5.687
X0.301 Y15.562 Z-5.693
X0.303 Y15.597 Z-5.694
X-0.303 Z-5.697
X-0.301 Y15.562 Z-5.698
X-0.299 Y11.306 Z-5.724
X-0.294 Y9.061 Z-5.737
X0.293 Z-5.741
X0.302 Y14.507 Z-5.774
Y14.591 Z-5.775
X0.301 Y15.562 F30
X0.303 Y15.597
X-0.303
X-0.301 Y15.562
X-0.299 Y11.306
X-0.294 Y9.061
X0.293
X0.302 Y14.507
Y14.591
X0.298 Y14.625 Z-5.766
X0.285 Y14.657 Z-5.757
X0.271 Y14.678 Z-5.731
X0.253 Y14.696 Z-5.706
X0.239 Y14.707 Z-5.637
Z-1.975
X0.085 Y12.365
X-0.068 Y10.023 Z-4.25
Z-5.545 F10
Y10.016 Z-5.587
Y9.997 Z-5.626
X-0.069 Y9.967 Z-5.656
X-0.07 Y9.929 Z-5.676
Y9.887 Z-5.683
X-0.076 Y9.557 Z-5.687
Y9.509
X0.073 Z-5.689
X0.069 Y10.137 Z-5.696
X0.01 Y13.042 Z-5.729
X0 Y13.286 Z-5.732
X-0.02 Y12.752 Z-5.738
X-0.076 Y9.557 Z-5.774
Y9.509 Z-5.775
X0.073 Z-5.777
X0.069 Y10.137 Z-5.784
X0.01 Y13.042 Z-5.817
X0 Y13.286 Z-5.82
X-0.02 Y12.752 Z-5.826
X-0.076 Y9.557 Z-5.862
Y9.509
X-0.069 Z-5.863
X0.073 F30
X0.069 Y10.137
X0.01 Y13.042
X0 Y13.286
X-0.02 Y12.752
X-0.076 Y9.557
Y9.509
X-0.069
X-0.026 Z-5.856
X0.012 Z-5.836
X0.043 Z-5.806
X0.062 Z-5.767
X0.069 Z-5.725
Z3
M5
M30
