(1009countour)
(Machine)
(  vendor: Nikodem Bartnik)
(  model: Generic 3-axis Router)
(  description: This machine has XYZ axis on the Head)
(T1  D=3.175 CR=0 - ZMIN=-0.2 - flat end mill)
G90 G94
G17
G21
(When using Fusion 360 for Personal Use, the feedrate of)
(rapid moves is reduced to match the feedrate of cutting)
(moves, which can increase machining time. Unrestricted rapid)
(moves are available with a Fusion 360 Subscription.)

(2D Contour1)
T1
S5000 M3
G54
G0 X21.81 Y-1.63
Z26
G1 Z16 F50
Z15 F16.7
Z12.317
X21.804 Y-1.624 Z12.247 F20
X21.788 Y-1.607 Z12.18
X21.761 Y-1.581 Z12.12
X21.725 Y-1.545 Z12.069
X21.683 Y-1.502 Z12.031
X21.635 Y-1.455 Z12.008
X21.585 Y-1.405 Z12
X21.361 Y-1.18
X21.313 Y-1.141
X21.258 Y-1.112
X21.198 Y-1.094
X21.136 Y-1.087
X4.5 F50
G2 X-1.087 Y4.5 I0 J5.587
G1 Y16.5
G2 X4.5 Y22.087 I5.587 J0
G1 X21.5
G2 X27.087 Y16.5 I0 J-5.587
G1 Y4.5
G2 X21.5 Y-1.087 I-5.587 J0
G1 X21.136
X21.074 Y-1.094
X21.015 Y-1.112
X20.96 Y-1.141
X20.912 Y-1.18
X20.687 Y-1.405
X20.637 Y-1.455 Z12.008
X20.59 Y-1.502 Z12.031
X20.547 Y-1.545 Z12.069
X20.512 Y-1.581 Z12.12
X20.485 Y-1.607 Z12.18
X20.468 Y-1.624 Z12.247
X20.463 Y-1.63 Z12.317
Z16
X21.81
Z14 F16.7
Z11.317
X21.804 Y-1.624 Z11.247 F20
X21.788 Y-1.607 Z11.18
X21.761 Y-1.581 Z11.12
X21.725 Y-1.545 Z11.069
X21.683 Y-1.502 Z11.031
X21.635 Y-1.455 Z11.008
X21.585 Y-1.405 Z11
X21.361 Y-1.18
X21.313 Y-1.141
X21.258 Y-1.112
X21.198 Y-1.094
X21.136 Y-1.087
X4.5 F50
G2 X-1.087 Y4.5 I0 J5.587
G1 Y16.5
G2 X4.5 Y22.087 I5.587 J0
G1 X21.5
G2 X27.087 Y16.5 I0 J-5.587
G1 Y4.5
G2 X21.5 Y-1.087 I-5.587 J0
G1 X21.136
X21.074 Y-1.094
X21.015 Y-1.112
X20.96 Y-1.141
X20.912 Y-1.18
X20.687 Y-1.405
X20.637 Y-1.455 Z11.008
X20.59 Y-1.502 Z11.031
X20.547 Y-1.545 Z11.069
X20.512 Y-1.581 Z11.12
X20.485 Y-1.607 Z11.18
X20.468 Y-1.624 Z11.247
X20.463 Y-1.63 Z11.317
Z16
X21.81
Z13 F16.7
Z10.317
X21.804 Y-1.624 Z10.247 F20
X21.788 Y-1.607 Z10.18
X21.761 Y-1.581 Z10.12
X21.725 Y-1.545 Z10.069
X21.683 Y-1.502 Z10.031
X21.635 Y-1.455 Z10.008
X21.585 Y-1.405 Z10
X21.361 Y-1.18
X21.313 Y-1.141
X21.258 Y-1.112
X21.198 Y-1.094
X21.136 Y-1.087
X4.5 F50
G2 X-1.087 Y4.5 I0 J5.587
G1 Y16.5
G2 X4.5 Y22.087 I5.587 J0
G1 X21.5
G2 X27.087 Y16.5 I0 J-5.587
G1 Y4.5
G2 X21.5 Y-1.087 I-5.587 J0
G1 X21.136
X21.074 Y-1.094
X21.015 Y-1.112
X20.96 Y-1.141
X20.912 Y-1.18
X20.687 Y-1.405
X20.637 Y-1.455 Z10.008
X20.59 Y-1.502 Z10.031
X20.547 Y-1.545 Z10.069
X20.512 Y-1.581 Z10.12
X20.485 Y-1.607 Z10.18
X20.468 Y-1.624 Z10.247
X20.463 Y-1.63 Z10.317
Z16
X21.81
Z12 F16.7
Z9.317
X21.804 Y-1.624 Z9.247 F20
X21.788 Y-1.607 Z9.18
X21.761 Y-1.581 Z9.12
X21.725 Y-1.545 Z9.069
X21.683 Y-1.502 Z9.031
X21.635 Y-1.455 Z9.008
X21.585 Y-1.405 Z9
X21.361 Y-1.18
X21.313 Y-1.141
X21.258 Y-1.112
X21.198 Y-1.094
X21.136 Y-1.087
X4.5 F50
G2 X-1.087 Y4.5 I0 J5.587
G1 Y16.5
G2 X4.5 Y22.087 I5.587 J0
G1 X21.5
G2 X27.087 Y16.5 I0 J-5.587
G1 Y4.5
G2 X21.5 Y-1.087 I-5.587 J0
G1 X21.136
X21.074 Y-1.094
X21.015 Y-1.112
X20.96 Y-1.141
X20.912 Y-1.18
X20.687 Y-1.405
X20.637 Y-1.455 Z9.008
X20.59 Y-1.502 Z9.031
X20.547 Y-1.545 Z9.069
X20.512 Y-1.581 Z9.12
X20.485 Y-1.607 Z9.18
X20.468 Y-1.624 Z9.247
X20.463 Y-1.63 Z9.317
Z16
X21.81
Z11 F16.7
Z8.317
X21.804 Y-1.624 Z8.247 F20
X21.788 Y-1.607 Z8.18
X21.761 Y-1.581 Z8.12
X21.725 Y-1.545 Z8.069
X21.683 Y-1.502 Z8.031
X21.635 Y-1.455 Z8.008
X21.585 Y-1.405 Z8
X21.361 Y-1.18
X21.313 Y-1.141
X21.258 Y-1.112
X21.198 Y-1.094
X21.136 Y-1.087
X4.5 F50
G2 X-1.087 Y4.5 I0 J5.587
G1 Y16.5
G2 X4.5 Y22.087 I5.587 J0
G1 X21.5
G2 X27.087 Y16.5 I0 J-5.587
G1 Y4.5
G2 X21.5 Y-1.087 I-5.587 J0
G1 X21.136
X21.074 Y-1.094
X21.015 Y-1.112
X20.96 Y-1.141
X20.912 Y-1.18
X20.687 Y-1.405
X20.637 Y-1.455 Z8.008
X20.59 Y-1.502 Z8.031
X20.547 Y-1.545 Z8.069
X20.512 Y-1.581 Z8.12
X20.485 Y-1.607 Z8.18
X20.468 Y-1.624 Z8.247
X20.463 Y-1.63 Z8.317
Z16
X21.81
Z10 F16.7
Z7.317
X21.804 Y-1.624 Z7.247 F20
X21.788 Y-1.607 Z7.18
X21.761 Y-1.581 Z7.12
X21.725 Y-1.545 Z7.069
X21.683 Y-1.502 Z7.031
X21.635 Y-1.455 Z7.008
X21.585 Y-1.405 Z7
X21.361 Y-1.18
X21.313 Y-1.141
X21.258 Y-1.112
X21.198 Y-1.094
X21.136 Y-1.087
X4.5 F50
G2 X-1.087 Y4.5 I0 J5.587
G1 Y16.5
G2 X4.5 Y22.087 I5.587 J0
G1 X21.5
G2 X27.087 Y16.5 I0 J-5.587
G1 Y4.5
G2 X21.5 Y-1.087 I-5.587 J0
G1 X21.136
X21.074 Y-1.094
X21.015 Y-1.112
X20.96 Y-1.141
X20.912 Y-1.18
X20.687 Y-1.405
X20.637 Y-1.455 Z7.008
X20.59 Y-1.502 Z7.031
X20.547 Y-1.545 Z7.069
X20.512 Y-1.581 Z7.12
X20.485 Y-1.607 Z7.18
X20.468 Y-1.624 Z7.247
X20.463 Y-1.63 Z7.317
Z16
X21.81
Z9 F16.7
Z6.317
X21.804 Y-1.624 Z6.247 F20
X21.788 Y-1.607 Z6.18
X21.761 Y-1.581 Z6.12
X21.725 Y-1.545 Z6.069
X21.683 Y-1.502 Z6.031
X21.635 Y-1.455 Z6.008
X21.585 Y-1.405 Z6
X21.361 Y-1.18
X21.313 Y-1.141
X21.258 Y-1.112
X21.198 Y-1.094
X21.136 Y-1.087
X4.5 F50
G2 X-1.087 Y4.5 I0 J5.587
G1 Y16.5
G2 X4.5 Y22.087 I5.587 J0
G1 X21.5
G2 X27.087 Y16.5 I0 J-5.587
G1 Y4.5
G2 X21.5 Y-1.087 I-5.587 J0
G1 X21.136
X21.074 Y-1.094
X21.015 Y-1.112
X20.96 Y-1.141
X20.912 Y-1.18
X20.687 Y-1.405
X20.637 Y-1.455 Z6.008
X20.59 Y-1.502 Z6.031
X20.547 Y-1.545 Z6.069
X20.512 Y-1.581 Z6.12
X20.485 Y-1.607 Z6.18
X20.468 Y-1.624 Z6.247
X20.463 Y-1.63 Z6.317
Z16
X21.81
Z8 F16.7
Z5.317
X21.804 Y-1.624 Z5.247 F20
X21.788 Y-1.607 Z5.18
X21.761 Y-1.581 Z5.12
X21.725 Y-1.545 Z5.069
X21.683 Y-1.502 Z5.031
X21.635 Y-1.455 Z5.008
X21.585 Y-1.405 Z5
X21.361 Y-1.18
X21.313 Y-1.141
X21.258 Y-1.112
X21.198 Y-1.094
X21.136 Y-1.087
X4.5 F50
G2 X-1.087 Y4.5 I0 J5.587
G1 Y16.5
G2 X4.5 Y22.087 I5.587 J0
G1 X21.5
G2 X27.087 Y16.5 I0 J-5.587
G1 Y4.5
G2 X21.5 Y-1.087 I-5.587 J0
G1 X21.136
X21.074 Y-1.094
X21.015 Y-1.112
X20.96 Y-1.141
X20.912 Y-1.18
X20.687 Y-1.405
X20.637 Y-1.455 Z5.008
X20.59 Y-1.502 Z5.031
X20.547 Y-1.545 Z5.069
X20.512 Y-1.581 Z5.12
X20.485 Y-1.607 Z5.18
X20.468 Y-1.624 Z5.247
X20.463 Y-1.63 Z5.317
Z16
X21.81
Z7 F16.7
Z4.317
X21.804 Y-1.624 Z4.247 F20
X21.788 Y-1.607 Z4.18
X21.761 Y-1.581 Z4.12
X21.725 Y-1.545 Z4.069
X21.683 Y-1.502 Z4.031
X21.635 Y-1.455 Z4.008
X21.585 Y-1.405 Z4
X21.361 Y-1.18
X21.313 Y-1.141
X21.258 Y-1.112
X21.198 Y-1.094
X21.136 Y-1.087
X4.5 F50
G2 X-1.087 Y4.5 I0 J5.587
G1 Y16.5
G2 X4.5 Y22.087 I5.587 J0
G1 X21.5
G2 X27.087 Y16.5 I0 J-5.587
G1 Y4.5
G2 X21.5 Y-1.087 I-5.587 J0
G1 X21.136
X21.074 Y-1.094
X21.015 Y-1.112
X20.96 Y-1.141
X20.912 Y-1.18
X20.687 Y-1.405
X20.637 Y-1.455 Z4.008
X20.59 Y-1.502 Z4.031
X20.547 Y-1.545 Z4.069
X20.512 Y-1.581 Z4.12
X20.485 Y-1.607 Z4.18
X20.468 Y-1.624 Z4.247
X20.463 Y-1.63 Z4.317
Z16
X21.81
Z6 F16.7
Z3.317
X21.804 Y-1.624 Z3.247 F20
X21.788 Y-1.607 Z3.18
X21.761 Y-1.581 Z3.12
X21.725 Y-1.545 Z3.069
X21.683 Y-1.502 Z3.031
X21.635 Y-1.455 Z3.008
X21.585 Y-1.405 Z3
X21.361 Y-1.18
X21.313 Y-1.141
X21.258 Y-1.112
X21.198 Y-1.094
X21.136 Y-1.087
X4.5 F50
G2 X-1.087 Y4.5 I0 J5.587
G1 Y16.5
G2 X4.5 Y22.087 I5.587 J0
G1 X21.5
G2 X27.087 Y16.5 I0 J-5.587
G1 Y4.5
G2 X21.5 Y-1.087 I-5.587 J0
G1 X21.136
X21.074 Y-1.094
X21.015 Y-1.112
X20.96 Y-1.141
X20.912 Y-1.18
X20.687 Y-1.405
X20.637 Y-1.455 Z3.008
X20.59 Y-1.502 Z3.031
X20.547 Y-1.545 Z3.069
X20.512 Y-1.581 Z3.12
X20.485 Y-1.607 Z3.18
X20.468 Y-1.624 Z3.247
X20.463 Y-1.63 Z3.317
Z16
X21.81
Z5 F16.7
Z2.317
X21.804 Y-1.624 Z2.247 F20
X21.788 Y-1.607 Z2.18
X21.761 Y-1.581 Z2.12
X21.725 Y-1.545 Z2.069
X21.683 Y-1.502 Z2.031
X21.635 Y-1.455 Z2.008
X21.585 Y-1.405 Z2
X21.361 Y-1.18
X21.313 Y-1.141
X21.258 Y-1.112
X21.198 Y-1.094
X21.136 Y-1.087
X4.5 F50
G2 X-1.087 Y4.5 I0 J5.587
G1 Y16.5
G2 X4.5 Y22.087 I5.587 J0
G1 X21.5
G2 X27.087 Y16.5 I0 J-5.587
G1 Y4.5
G2 X21.5 Y-1.087 I-5.587 J0
G1 X21.136
X21.074 Y-1.094
X21.015 Y-1.112
X20.96 Y-1.141
X20.912 Y-1.18
X20.687 Y-1.405
X20.637 Y-1.455 Z2.008
X20.59 Y-1.502 Z2.031
X20.547 Y-1.545 Z2.069
X20.512 Y-1.581 Z2.12
X20.485 Y-1.607 Z2.18
X20.468 Y-1.624 Z2.247
X20.463 Y-1.63 Z2.317
Z16
X21.81
Z4 F16.7
Z1.317
X21.804 Y-1.624 Z1.247 F20
X21.788 Y-1.607 Z1.18
X21.761 Y-1.581 Z1.12
X21.725 Y-1.545 Z1.069
X21.683 Y-1.502 Z1.031
X21.635 Y-1.455 Z1.008
X21.585 Y-1.405 Z1
X21.361 Y-1.18
X21.313 Y-1.141
X21.258 Y-1.112
X21.198 Y-1.094
X21.136 Y-1.087
X4.5 F50
G2 X-1.087 Y4.5 I0 J5.587
G1 Y16.5
G2 X4.5 Y22.087 I5.587 J0
G1 X21.5
G2 X27.087 Y16.5 I0 J-5.587
G1 Y4.5
G2 X21.5 Y-1.087 I-5.587 J0
G1 X21.136
X21.074 Y-1.094
X21.015 Y-1.112
X20.96 Y-1.141
X20.912 Y-1.18
X20.687 Y-1.405
X20.637 Y-1.455 Z1.008
X20.59 Y-1.502 Z1.031
X20.547 Y-1.545 Z1.069
X20.512 Y-1.581 Z1.12
X20.485 Y-1.607 Z1.18
X20.468 Y-1.624 Z1.247
X20.463 Y-1.63 Z1.317
Z16
X21.81
Z3 F16.7
Z0.717
X21.804 Y-1.624 Z0.647 F20
X21.788 Y-1.607 Z0.58
X21.761 Y-1.581 Z0.52
X21.725 Y-1.545 Z0.469
X21.683 Y-1.502 Z0.431
X21.635 Y-1.455 Z0.408
X21.585 Y-1.405 Z0.4
X21.361 Y-1.18
X21.313 Y-1.141
X21.258 Y-1.112
X21.198 Y-1.094
X21.136 Y-1.087
X4.5 F50
G2 X-1.087 Y4.5 I0 J5.587
G1 Y16.5
G2 X4.5 Y22.087 I5.587 J0
G1 X21.5
G2 X27.087 Y16.5 I0 J-5.587
G1 Y4.5
G2 X21.5 Y-1.087 I-5.587 J0
G1 X21.136
X21.074 Y-1.094
X21.015 Y-1.112
X20.96 Y-1.141
X20.912 Y-1.18
X20.687 Y-1.405
X20.637 Y-1.455 Z0.408
X20.59 Y-1.502 Z0.431
X20.547 Y-1.545 Z0.469
X20.512 Y-1.581 Z0.52
X20.485 Y-1.607 Z0.58
X20.468 Y-1.624 Z0.647
X20.463 Y-1.63 Z0.717
Z16
X21.81
Z2.4 F16.7
Z0.117
X21.804 Y-1.624 Z0.047 F20
X21.788 Y-1.607 Z-0.02
X21.761 Y-1.581 Z-0.08
X21.725 Y-1.545 Z-0.131
X21.683 Y-1.502 Z-0.169
X21.635 Y-1.455 Z-0.192
X21.585 Y-1.405 Z-0.2
X21.361 Y-1.18
X21.313 Y-1.141
X21.258 Y-1.112
X21.198 Y-1.094
X21.136 Y-1.087
X4.5 F50
G2 X-1.087 Y4.5 I0 J5.587
G1 Y16.5
G2 X4.5 Y22.087 I5.587 J0
G1 X21.5
G2 X27.087 Y16.5 I0 J-5.587
G1 Y4.5
G2 X21.5 Y-1.087 I-5.587 J0
G1 X21.136
X21.074 Y-1.094
X21.015 Y-1.112
X20.96 Y-1.141
X20.912 Y-1.18
X20.687 Y-1.405
X20.637 Y-1.455 Z-0.192
X20.59 Y-1.502 Z-0.169
X20.547 Y-1.545 Z-0.131
X20.512 Y-1.581 Z-0.08
X20.485 Y-1.607 Z-0.02
X20.468 Y-1.624 Z0.047
X20.463 Y-1.63 Z0.117
Z26
M5
M30
