(1010)
(Machine)
(  vendor: Nikodem Bartnik)
(  model: Generic 3-axis Router)
(  description: This machine has XYZ axis on the Head)
(T1  D=3.175 CR=0 - ZMIN=-25.4 - flat end mill)
G90 G94
G17
G21
(When using Fusion 360 for Personal Use, the feedrate of)
(rapid moves is reduced to match the feedrate of cutting)
(moves, which can increase machining time. Unrestricted rapid)
(moves are available with a Fusion 360 Subscription.)

(Bore1)
T1
S5000 M3
G54
G0 X-0.43 Y-6.454
Z15
G1 Z-2.9 F50
Z-4.582 F10
X-0.437 Y-6.45 Z-4.653
X-0.459 Y-6.44 Z-4.72
X-0.493 Y-6.425 Z-4.78
X-0.539 Y-6.404 Z-4.831
X-0.594 Y-6.379 Z-4.869
X-0.655 Y-6.351 Z-4.892
X-0.719 Y-6.321 Z-4.9
X-0.863 Y-6.255
G3 X-1.284 Y-6.411 I-0.132 J-0.289
X1.284 Y-7.589 Z-5.005 I1.284 J-0.589 F50
X-1.284 Y-6.411 Z-5.11 I-1.284 J0.589
X1.284 Y-7.589 Z-5.214 I1.284 J-0.589
X-1.284 Y-6.411 Z-5.319 I-1.284 J0.589
X1.284 Y-7.589 Z-5.424 I1.284 J-0.589
X-1.284 Y-6.411 Z-5.529 I-1.284 J0.589
X1.284 Y-7.589 Z-5.633 I1.284 J-0.589
X-1.284 Y-6.411 Z-5.738 I-1.284 J0.589
X1.284 Y-7.589 Z-5.843 I1.284 J-0.589
X-1.284 Y-6.411 Z-5.948 I-1.284 J0.589
X1.284 Y-7.589 Z-6.052 I1.284 J-0.589
X-1.284 Y-6.411 Z-6.157 I-1.284 J0.589
X1.284 Y-7.589 Z-6.262 I1.284 J-0.589
X-1.284 Y-6.411 Z-6.367 I-1.284 J0.589
X1.284 Y-7.589 Z-6.471 I1.284 J-0.589
X-1.284 Y-6.411 Z-6.576 I-1.284 J0.589
X1.284 Y-7.589 Z-6.681 I1.284 J-0.589
X-1.284 Y-6.411 Z-6.786 I-1.284 J0.589
X1.284 Y-7.589 Z-6.89 I1.284 J-0.589
X-1.284 Y-6.411 Z-6.995 I-1.284 J0.589
X1.284 Y-7.589 Z-7.1 I1.284 J-0.589
X-1.284 Y-6.411 Z-7.205 I-1.284 J0.589
X1.284 Y-7.589 Z-7.31 I1.284 J-0.589
X-1.284 Y-6.411 Z-7.414 I-1.284 J0.589
X1.284 Y-7.589 Z-7.519 I1.284 J-0.589
X-1.284 Y-6.411 Z-7.624 I-1.284 J0.589
X1.284 Y-7.589 Z-7.729 I1.284 J-0.589
X-1.284 Y-6.411 Z-7.833 I-1.284 J0.589
X1.284 Y-7.589 Z-7.938 I1.284 J-0.589
X-1.284 Y-6.411 Z-8.043 I-1.284 J0.589
X1.284 Y-7.589 Z-8.148 I1.284 J-0.589
X-1.284 Y-6.411 Z-8.252 I-1.284 J0.589
X1.284 Y-7.589 Z-8.357 I1.284 J-0.589
X-1.284 Y-6.411 Z-8.462 I-1.284 J0.589
X1.284 Y-7.589 Z-8.567 I1.284 J-0.589
X-1.284 Y-6.411 Z-8.671 I-1.284 J0.589
X1.284 Y-7.589 Z-8.776 I1.284 J-0.589
X-1.284 Y-6.411 Z-8.881 I-1.284 J0.589
X1.284 Y-7.589 Z-8.986 I1.284 J-0.589
X-1.284 Y-6.411 Z-9.09 I-1.284 J0.589
X1.284 Y-7.589 Z-9.195 I1.284 J-0.589
X-1.284 Y-6.411 Z-9.3 I-1.284 J0.589
X1.284 Y-7.589 Z-9.405 I1.284 J-0.589
X-1.284 Y-6.411 Z-9.51 I-1.284 J0.589
X1.284 Y-7.589 Z-9.614 I1.284 J-0.589
X-1.284 Y-6.411 Z-9.719 I-1.284 J0.589
X1.284 Y-7.589 Z-9.824 I1.284 J-0.589
X-1.284 Y-6.411 Z-9.929 I-1.284 J0.589
X1.284 Y-7.589 Z-10.033 I1.284 J-0.589
X-1.284 Y-6.411 Z-10.138 I-1.284 J0.589
X1.284 Y-7.589 Z-10.243 I1.284 J-0.589
X-1.284 Y-6.411 Z-10.348 I-1.284 J0.589
X1.284 Y-7.589 Z-10.452 I1.284 J-0.589
X-1.284 Y-6.411 Z-10.557 I-1.284 J0.589
X1.284 Y-7.589 Z-10.662 I1.284 J-0.589
X-1.284 Y-6.411 Z-10.767 I-1.284 J0.589
X1.284 Y-7.589 Z-10.871 I1.284 J-0.589
X-1.284 Y-6.411 Z-10.976 I-1.284 J0.589
X1.284 Y-7.589 Z-11.081 I1.284 J-0.589
X-1.284 Y-6.411 Z-11.186 I-1.284 J0.589
X1.284 Y-7.589 Z-11.291 I1.284 J-0.589
X-1.284 Y-6.411 Z-11.395 I-1.284 J0.589
X1.284 Y-7.589 Z-11.5 I1.284 J-0.589
X-1.284 Y-6.411 Z-11.605 I-1.284 J0.589
X1.284 Y-7.589 Z-11.71 I1.284 J-0.589
X-1.284 Y-6.411 Z-11.814 I-1.284 J0.589
X1.284 Y-7.589 Z-11.919 I1.284 J-0.589
X-1.284 Y-6.411 Z-12.024 I-1.284 J0.589
X1.284 Y-7.589 Z-12.129 I1.284 J-0.589
X-1.284 Y-6.411 Z-12.233 I-1.284 J0.589
X1.284 Y-7.589 Z-12.338 I1.284 J-0.589
X-1.284 Y-6.411 Z-12.443 I-1.284 J0.589
X1.284 Y-7.589 Z-12.548 I1.284 J-0.589
X-1.284 Y-6.411 Z-12.652 I-1.284 J0.589
X1.284 Y-7.589 Z-12.757 I1.284 J-0.589
X-1.284 Y-6.411 Z-12.862 I-1.284 J0.589
X1.284 Y-7.589 Z-12.967 I1.284 J-0.589
X-1.284 Y-6.411 Z-13.071 I-1.284 J0.589
X1.284 Y-7.589 Z-13.176 I1.284 J-0.589
X-1.284 Y-6.411 Z-13.281 I-1.284 J0.589
X1.284 Y-7.589 Z-13.386 I1.284 J-0.589
X-1.284 Y-6.411 Z-13.491 I-1.284 J0.589
X1.284 Y-7.589 Z-13.595 I1.284 J-0.589
X-1.284 Y-6.411 Z-13.7 I-1.284 J0.589
X1.284 Y-7.589 Z-13.805 I1.284 J-0.589
X-1.284 Y-6.411 Z-13.91 I-1.284 J0.589
X1.284 Y-7.589 Z-14.014 I1.284 J-0.589
X-1.284 Y-6.411 Z-14.119 I-1.284 J0.589
X1.284 Y-7.589 Z-14.224 I1.284 J-0.589
X-1.284 Y-6.411 Z-14.329 I-1.284 J0.589
X1.284 Y-7.589 Z-14.433 I1.284 J-0.589
X-1.284 Y-6.411 Z-14.538 I-1.284 J0.589
X1.284 Y-7.589 Z-14.643 I1.284 J-0.589
X-1.284 Y-6.411 Z-14.748 I-1.284 J0.589
X1.284 Y-7.589 Z-14.852 I1.284 J-0.589
X-1.284 Y-6.411 Z-14.957 I-1.284 J0.589
X1.284 Y-7.589 Z-15.062 I1.284 J-0.589
X-1.284 Y-6.411 Z-15.167 I-1.284 J0.589
X1.284 Y-7.589 Z-15.271 I1.284 J-0.589
X-1.284 Y-6.411 Z-15.376 I-1.284 J0.589
X1.284 Y-7.589 Z-15.481 I1.284 J-0.589
X-1.284 Y-6.411 Z-15.586 I-1.284 J0.589
X1.284 Y-7.589 Z-15.691 I1.284 J-0.589
X-1.284 Y-6.411 Z-15.795 I-1.284 J0.589
X1.284 Y-7.589 Z-15.9 I1.284 J-0.589
X-1.284 Y-6.411 Z-16.005 I-1.284 J0.589
X1.284 Y-7.589 Z-16.11 I1.284 J-0.589
X-1.284 Y-6.411 Z-16.214 I-1.284 J0.589
X1.284 Y-7.589 Z-16.319 I1.284 J-0.589
X-1.284 Y-6.411 Z-16.424 I-1.284 J0.589
X1.284 Y-7.589 Z-16.529 I1.284 J-0.589
X-1.284 Y-6.411 Z-16.633 I-1.284 J0.589
X1.284 Y-7.589 Z-16.738 I1.284 J-0.589
X-1.284 Y-6.411 Z-16.843 I-1.284 J0.589
X1.284 Y-7.589 Z-16.948 I1.284 J-0.589
X-1.284 Y-6.411 Z-17.052 I-1.284 J0.589
X1.284 Y-7.589 Z-17.157 I1.284 J-0.589
X-1.284 Y-6.411 Z-17.262 I-1.284 J0.589
X1.284 Y-7.589 Z-17.367 I1.284 J-0.589
X-1.284 Y-6.411 Z-17.471 I-1.284 J0.589
X1.284 Y-7.589 Z-17.576 I1.284 J-0.589
X-1.284 Y-6.411 Z-17.681 I-1.284 J0.589
X1.284 Y-7.589 Z-17.786 I1.284 J-0.589
X-1.284 Y-6.411 Z-17.891 I-1.284 J0.589
X1.284 Y-7.589 Z-17.995 I1.284 J-0.589
X-1.284 Y-6.411 Z-18.1 I-1.284 J0.589
X1.284 Y-7.589 Z-18.205 I1.284 J-0.589
X-1.284 Y-6.411 Z-18.31 I-1.284 J0.589
X1.284 Y-7.589 Z-18.414 I1.284 J-0.589
X-1.284 Y-6.411 Z-18.519 I-1.284 J0.589
X1.284 Y-7.589 Z-18.624 I1.284 J-0.589
X-1.284 Y-6.411 Z-18.729 I-1.284 J0.589
X1.284 Y-7.589 Z-18.833 I1.284 J-0.589
X-1.284 Y-6.411 Z-18.938 I-1.284 J0.589
X1.284 Y-7.589 Z-19.043 I1.284 J-0.589
X-1.284 Y-6.411 Z-19.148 I-1.284 J0.589
X1.284 Y-7.589 Z-19.252 I1.284 J-0.589
X-1.284 Y-6.411 Z-19.357 I-1.284 J0.589
X1.284 Y-7.589 Z-19.462 I1.284 J-0.589
X-1.284 Y-6.411 Z-19.567 I-1.284 J0.589
X1.284 Y-7.589 Z-19.671 I1.284 J-0.589
X-1.284 Y-6.411 Z-19.776 I-1.284 J0.589
X1.284 Y-7.589 Z-19.881 I1.284 J-0.589
X-1.284 Y-6.411 Z-19.986 I-1.284 J0.589
X1.284 Y-7.589 Z-20.091 I1.284 J-0.589
X-1.284 Y-6.411 Z-20.195 I-1.284 J0.589
X1.284 Y-7.589 Z-20.3 I1.284 J-0.589
X-1.284 Y-6.411 Z-20.405 I-1.284 J0.589
X1.284 Y-7.589 Z-20.51 I1.284 J-0.589
X-1.284 Y-6.411 Z-20.614 I-1.284 J0.589
X1.284 Y-7.589 Z-20.719 I1.284 J-0.589
X-1.284 Y-6.411 Z-20.824 I-1.284 J0.589
X1.284 Y-7.589 Z-20.929 I1.284 J-0.589
X-1.284 Y-6.411 Z-21.033 I-1.284 J0.589
X1.284 Y-7.589 Z-21.138 I1.284 J-0.589
X-1.284 Y-6.411 Z-21.243 I-1.284 J0.589
X1.284 Y-7.589 Z-21.348 I1.284 J-0.589
X-1.284 Y-6.411 Z-21.452 I-1.284 J0.589
X1.284 Y-7.589 Z-21.557 I1.284 J-0.589
X-1.284 Y-6.411 Z-21.662 I-1.284 J0.589
X1.284 Y-7.589 Z-21.767 I1.284 J-0.589
X-1.284 Y-6.411 Z-21.871 I-1.284 J0.589
X1.284 Y-7.589 Z-21.976 I1.284 J-0.589
X-1.284 Y-6.411 Z-22.081 I-1.284 J0.589
X1.284 Y-7.589 Z-22.186 I1.284 J-0.589
X-1.284 Y-6.411 Z-22.291 I-1.284 J0.589
X1.284 Y-7.589 Z-22.395 I1.284 J-0.589
X-1.284 Y-6.411 Z-22.5 I-1.284 J0.589
X1.284 Y-7.589 Z-22.605 I1.284 J-0.589
X-1.284 Y-6.411 Z-22.71 I-1.284 J0.589
X1.284 Y-7.589 Z-22.814 I1.284 J-0.589
X-1.284 Y-6.411 Z-22.919 I-1.284 J0.589
X1.284 Y-7.589 Z-23.024 I1.284 J-0.589
X-1.284 Y-6.411 Z-23.129 I-1.284 J0.589
X1.284 Y-7.589 Z-23.233 I1.284 J-0.589
X-1.284 Y-6.411 Z-23.338 I-1.284 J0.589
X1.284 Y-7.589 Z-23.443 I1.284 J-0.589
X-1.284 Y-6.411 Z-23.548 I-1.284 J0.589
X1.284 Y-7.589 Z-23.652 I1.284 J-0.589
X-1.284 Y-6.411 Z-23.757 I-1.284 J0.589
X1.284 Y-7.589 Z-23.862 I1.284 J-0.589
X-1.284 Y-6.411 Z-23.967 I-1.284 J0.589
X1.284 Y-7.589 Z-24.072 I1.284 J-0.589
X-1.284 Y-6.411 Z-24.176 I-1.284 J0.589
X1.284 Y-7.589 Z-24.281 I1.284 J-0.589
X-1.284 Y-6.411 Z-24.386 I-1.284 J0.589
X1.284 Y-7.589 Z-24.491 I1.284 J-0.589
X-1.284 Y-6.411 Z-24.595 I-1.284 J0.589
X1.284 Y-7.589 Z-24.7 I1.284 J-0.589
X-1.284 Y-6.411 Z-24.805 I-1.284 J0.589
X1.284 Y-7.589 Z-24.91 I1.284 J-0.589
X-1.284 Y-6.411 Z-25.014 I-1.284 J0.589
X1.284 Y-7.589 Z-25.119 I1.284 J-0.589
X-1.284 Y-6.411 Z-25.224 I-1.284 J0.589
X1.284 Y-7.589 Z-25.329 I1.284 J-0.589
X-0.196 Y-5.601 Z-25.4 I-1.284 J0.589
X0.196 Y-8.399 I0.196 J-1.399
X-0.196 Y-5.601 I-0.196 J1.399
X-0.466 Y-5.96 I0.044 J-0.314
G1 X-0.444 Y-6.117
X-0.434 Y-6.187 Z-25.392
X-0.425 Y-6.253 Z-25.369
X-0.417 Y-6.313 Z-25.331
X-0.41 Y-6.363 Z-25.28
X-0.405 Y-6.4 Z-25.22
X-0.401 Y-6.423 Z-25.153
X-0.4 Y-6.431 Z-25.083
Z5
X0.119 Y-1.317
Z-2.9
Z-4.582 F10
G18 G2 X0.436 Z-4.9 I0.318 K0
G1 X0.595
G17 G3 X0.913 Y-1 I0 J0.317
X-0.913 Y-1 Z-4.987 I-0.913 J0 F50
X0.913 Y-1 Z-5.075 I0.913 J0
X-0.913 Y-1 Z-5.162 I-0.913 J0
X0.913 Y-1 Z-5.249 I0.913 J0
X-0.913 Y-1 Z-5.337 I-0.913 J0
X0.913 Y-1 Z-5.424 I0.913 J0
X-0.913 Y-1 Z-5.511 I-0.913 J0
X0.913 Y-1 Z-5.598 I0.913 J0
X-0.913 Y-1 Z-5.686 I-0.913 J0
X0.913 Y-1 Z-5.773 I0.913 J0
X-0.913 Y-1 Z-5.86 I-0.913 J0
X0.913 Y-1 Z-5.948 I0.913 J0
X-0.913 Y-1 Z-6.035 I-0.913 J0
X0.913 Y-1 Z-6.122 I0.913 J0
X-0.913 Y-1 Z-6.21 I-0.913 J0
X0.913 Y-1 Z-6.297 I0.913 J0
X-0.913 Y-1 Z-6.384 I-0.913 J0
X0.913 Y-1 Z-6.471 I0.913 J0
X-0.913 Y-1 Z-6.559 I-0.913 J0
X0.913 Y-1 Z-6.646 I0.913 J0
X-0.913 Y-1 Z-6.733 I-0.913 J0
X0.913 Y-1 Z-6.821 I0.913 J0
X-0.913 Y-1 Z-6.908 I-0.913 J0
X0.913 Y-1 Z-6.995 I0.913 J0
X-0.913 Y-1 Z-7.083 I-0.913 J0
X0.913 Y-1 Z-7.17 I0.913 J0
X-0.913 Y-1 Z-7.257 I-0.913 J0
X0.913 Y-1 Z-7.344 I0.913 J0
X-0.913 Y-1 Z-7.432 I-0.913 J0
X0.913 Y-1 Z-7.519 I0.913 J0
X-0.913 Y-1 Z-7.606 I-0.913 J0
X0.913 Y-1 Z-7.694 I0.913 J0
X-0.913 Y-1 Z-7.781 I-0.913 J0
X0.913 Y-1 Z-7.868 I0.913 J0
X-0.913 Y-1 Z-7.956 I-0.913 J0
X0.913 Y-1 Z-8.043 I0.913 J0
X-0.913 Y-1 Z-8.13 I-0.913 J0
X0.913 Y-1 Z-8.217 I0.913 J0
X-0.913 Y-1 Z-8.305 I-0.913 J0
X0.913 Y-1 Z-8.392 I0.913 J0
X-0.913 Y-1 Z-8.479 I-0.913 J0
X0.913 Y-1 Z-8.567 I0.913 J0
X-0.913 Y-1 Z-8.654 I-0.913 J0
X0.913 Y-1 Z-8.741 I0.913 J0
X-0.913 Y-1 Z-8.829 I-0.913 J0
X0.767 Y-1.494 Z-8.9 I0.913 J0
X-0.767 Y-0.506 I-0.767 J0.494
X0.767 Y-1.494 I0.767 J-0.494
X0.672 Y-1.055 I-0.267 J0.172
G1 X0.539 Y-0.969
X0.479 Y-0.931 Z-8.892
X0.423 Y-0.895 Z-8.869
X0.372 Y-0.862 Z-8.831
X0.33 Y-0.835 Z-8.78
X0.298 Y-0.814 Z-8.72
X0.278 Y-0.802 Z-8.653
X0.272 Y-0.797 Z-8.583
Z15
M5
M30
