(1023funnel)
(Machine)
(  vendor: Nikodem Bartnik)
(  model: Generic 3-axis Router)
(  description: This machine has XYZ axis on the Head)
(T1  D=1.55 CR=0 - ZMIN=0 - flat end mill)
G90 G94
G17
G21
(When using Fusion 360 for Personal Use, the feedrate of)
(rapid moves is reduced to match the feedrate of cutting)
(moves, which can increase machining time. Unrestricted rapid)
(moves are available with a Fusion 360 Subscription.)

(Pocket4)
T1
S5000 M3
G54
G0 X13.041 Y9.966
Z17
G1 Z14 F30
Z13.255 F10
X13.042 Y9.969 Z13.221
X13.045 Y9.98 Z13.189
X13.049 Y9.997 Z13.16
X13.053 Y10.02 Z13.136
X13.058 Y10.048 Z13.117
X13.062 Y10.08 Z13.105
X13.065 Y10.113 Z13.1
G3 X11.594 Y10.196 Z13.019 I-0.735 J0.041
X13.065 Y10.113 Z12.938 I0.735 J-0.041
X11.594 Y10.196 Z12.858 I-0.735 J0.041
X13.065 Y10.113 Z12.777 I0.735 J-0.041
X11.594 Y10.196 Z12.696 I-0.735 J0.041
X13.065 Y10.113 Z12.615 I0.735 J-0.041
X11.594 Y10.196 Z12.535 I-0.735 J0.041
X13.065 Y10.113 Z12.454 I0.735 J-0.041
X11.594 Y10.196 Z12.373 I-0.735 J0.041
X13.065 Y10.113 Z12.292 I0.735 J-0.041
X11.594 Y10.196 Z12.212 I-0.735 J0.041
X13.065 Y10.113 Z12.131 I0.735 J-0.041
X11.594 Y10.196 Z12.05 I-0.735 J0.041
X13.065 Y10.113 Z11.969 I0.735 J-0.041
X11.594 Y10.196 Z11.888 I-0.735 J0.041
X13.065 Y10.113 Z11.808 I0.735 J-0.041
X11.594 Y10.196 Z11.727 I-0.735 J0.041
X13.065 Y10.113 Z11.646 I0.735 J-0.041
X11.594 Y10.196 Z11.565 I-0.735 J0.041
X13.065 Y10.113 Z11.485 I0.735 J-0.041
X11.594 Y10.196 Z11.404 I-0.735 J0.041
X13.065 Y10.113 Z11.323 I0.735 J-0.041
X11.594 Y10.196 Z11.242 I-0.735 J0.041
X13.065 Y10.113 Z11.161 I0.735 J-0.041
X11.594 Y10.196 Z11.081 I-0.735 J0.041
X13.065 Y10.113 Z11 I0.735 J-0.041
X11.594 Y10.196 Z10.919 I-0.735 J0.041
X13.065 Y10.113 Z10.838 I0.735 J-0.041
X11.594 Y10.196 Z10.758 I-0.735 J0.041
X13.065 Y10.113 Z10.677 I0.735 J-0.041
X11.594 Y10.196 Z10.596 I-0.735 J0.041
X13.065 Y10.113 Z10.515 I0.735 J-0.041
X11.594 Y10.196 Z10.435 I-0.735 J0.041
X13.065 Y10.113 Z10.354 I0.735 J-0.041
X11.594 Y10.196 Z10.273 I-0.735 J0.041
X13.065 Y10.113 Z10.192 I0.735 J-0.041
X11.594 Y10.196 Z10.111 I-0.735 J0.041
X13.065 Y10.113 Z10.031 I0.735 J-0.041
X11.594 Y10.196 Z9.95 I-0.735 J0.041
X13.065 Y10.113 Z9.869 I0.735 J-0.041
X11.594 Y10.196 Z9.788 I-0.735 J0.041
X13.065 Y10.113 Z9.708 I0.735 J-0.041
X11.594 Y10.196 Z9.627 I-0.735 J0.041
X13.065 Y10.113 Z9.546 I0.735 J-0.041
X11.594 Y10.196 Z9.465 I-0.735 J0.041
X13.065 Y10.113 Z9.385 I0.735 J-0.041
X11.594 Y10.196 Z9.304 I-0.735 J0.041
X13.065 Y10.113 Z9.223 I0.735 J-0.041
X11.594 Y10.196 Z9.142 I-0.735 J0.041
X13.065 Y10.113 Z9.061 I0.735 J-0.041
X11.821 Y10.687 Z9 I-0.735 J0.041
G1 X11.795 Y10.659 F30
G3 X11.806 Y10.307 I0.194 J-0.17
G1 X11.853 Y10.269
X11.906 Y10.241
X11.963 Y10.224
X12.023 Y10.219
X12.083 Y10.227
X12.139 Y10.248
X12.19 Y10.281
X12.231 Y10.325
X12.263 Y10.374
X12.286 Y10.428
X12.321 Y10.539
G3 X12.116 Y10.805 I-0.205 J0.054
X11.821 Y10.687 I0 J-0.426
G2 X11.448 Y10.587 I-0.279 J0.292
G3 X11.166 Y10.322 I-0.054 J-0.225
X11.532 Y9.77 I0.813 J0.142
X12.878 Y10.346 I0.478 J0.743
G2 X14.007 Y11.278 I1.129 J-0.217
G1 X21.858 Y11.237
X21.892 Y11.243
X21.921 Y11.263
X21.94 Y11.291
X21.946 Y11.325
X21.94 Y11.359
X21.921 Y11.387
X21.892 Y11.407
X21.858 Y11.413
X12.048 Y11.371
G3 X11.207 Y10.759 I0.051 J-0.953
X11.166 Y10.322 I0.771 J-0.294
G2 X10.979 Y9.778 I-0.588 J-0.103
G3 X10.996 Y9.203 I0.255 J-0.28
G1 X11.103 Y9.116
X11.107 Y9.114
X11.147 Y9.092
X11.417 Y8.957
X11.421 Y8.955
X11.763 Y8.868
X11.774 Y8.867
X12.116 Y8.855
X12.465 Y8.918
X12.477 Y8.922
X12.792 Y9.053
X13.079 Y9.252
X13.08 Y9.253
X13.081 Y9.254
X13.302 Y9.491
X13.32 Y9.511
X13.325 Y9.519
X13.5 Y9.814
X13.505 Y9.826
X13.61 Y10.141
X13.614 Y10.159
X13.63 Y10.225
X13.658 Y10.288
X13.696 Y10.344
X13.706 Y10.357
G2 X14.007 Y10.5 I0.301 J-0.244
G1 X21.933
X22.185 Y10.522
X22.409 Y10.61
X22.416 Y10.614
X22.606 Y10.766
X22.611 Y10.773
X22.74 Y10.962
X22.741 Y10.964
X22.747 Y10.98
X22.815 Y11.202
X22.816 Y11.276
X22.815 Y11.444
X22.814 Y11.452
X22.744 Y11.68
X22.741 Y11.686
X22.739 Y11.689
X22.607 Y11.882
X22.606 Y11.884
X22.598 Y11.892
X22.419 Y12.034
X22.412 Y12.039
X22.406 Y12.042
X22.185 Y12.128
X21.933 Y12.15
X12.007
X11.651 Y12.112
X11.64 Y12.109
X11.317 Y12.001
X11.301 Y11.993
X11.017 Y11.824
X11.009 Y11.818
X10.757 Y11.584
X10.748 Y11.573
X10.554 Y11.293
X10.54 Y11.262
X10.419 Y10.968
X10.359 Y10.647
X10.355 Y10.621
Y10.607
X10.368 Y10.262
X10.454 Y9.924
X10.456 Y9.919
X10.613 Y9.608
X10.828 Y9.34
X10.836 Y9.332
X10.996 Y9.203
X11.026 Y9.188
X11.059 Y9.187
X11.089 Y9.199
X12.587 Y10.254
X12.601 Y10.266
X12.612 Y10.281
G3 X11.304 Y10.958 Z8.919 I-0.654 J0.338 F10
X12.612 Y10.281 Z8.838 I0.654 J-0.338
X11.304 Y10.958 Z8.758 I-0.654 J0.338
X12.612 Y10.281 Z8.677 I0.654 J-0.338
X11.304 Y10.958 Z8.596 I-0.654 J0.338
X12.612 Y10.281 Z8.515 I0.654 J-0.338
X11.304 Y10.958 Z8.435 I-0.654 J0.338
X12.612 Y10.281 Z8.354 I0.654 J-0.338
X11.304 Y10.958 Z8.273 I-0.654 J0.338
X12.612 Y10.281 Z8.192 I0.654 J-0.338
X11.304 Y10.958 Z8.112 I-0.654 J0.338
X12.612 Y10.281 Z8.031 I0.654 J-0.338
X11.304 Y10.958 Z7.95 I-0.654 J0.338
X12.612 Y10.281 Z7.869 I0.654 J-0.338
X11.304 Y10.958 Z7.788 I-0.654 J0.338
X12.612 Y10.281 Z7.708 I0.654 J-0.338
X11.304 Y10.958 Z7.627 I-0.654 J0.338
X12.612 Y10.281 Z7.546 I0.654 J-0.338
X11.304 Y10.958 Z7.465 I-0.654 J0.338
X12.612 Y10.281 Z7.385 I0.654 J-0.338
X11.304 Y10.958 Z7.304 I-0.654 J0.338
X12.612 Y10.281 Z7.223 I0.654 J-0.338
X11.304 Y10.958 Z7.142 I-0.654 J0.338
X12.612 Y10.281 Z7.061 I0.654 J-0.338
X11.71 Y11.313 Z7 I-0.654 J0.338
X11.37 Y10.596 I0.189 J-0.528
X12.087 Y10.257 I0.528 J0.189
X12.284 Y10.505 I-0.101 J0.282 F30
X12.007 Y10.784 I-0.25 J0.028
G1 X11.95 Y10.772
X11.896 Y10.751
X11.846 Y10.72
X11.803 Y10.68
X11.768 Y10.633
X11.745 Y10.579
X11.734 Y10.521
X11.735 Y10.462
G3 X12.029 Y10.242 I0.257 J0.037
G1 X12.087 Y10.257
G2 X12.484 Y10.191 I0.139 J-0.39
G3 X12.854 Y10.346 I0.142 J0.18
G1 X12.884 Y10.615
X12.892 Y10.659
X12.898 Y10.687
X12.906 Y10.716
X12.915 Y10.744
X12.925 Y10.773
X12.936 Y10.801
X12.949 Y10.83
X12.963 Y10.858
X12.984 Y10.895
X13.012 Y10.94
X13.042 Y10.98
X13.073 Y11.017
X13.105 Y11.051
X13.139 Y11.082
X13.179 Y11.115
X13.225 Y11.148
X13.269 Y11.175
X13.31 Y11.196
X13.355 Y11.216
X13.404 Y11.234
X13.454 Y11.249
X13.503 Y11.26
X13.545 Y11.268
X13.58 Y11.272
X13.624 Y11.274
X20.55 Y11.275
X20.626 Y11.278
X20.669 Y11.28
X20.696 Y11.282
X20.712 Y11.289
X20.721 Y11.296
X20.727 Y11.305
X20.732 Y11.318
Y11.333
X20.728 Y11.344
X20.722 Y11.353
X20.711 Y11.362
X20.696 Y11.368
X20.645 Y11.372
X20.627
X20.609
X20.548 Y11.375
X12.042
X11.815 Y11.351
X11.642 Y11.293
X11.478 Y11.197
X11.342 Y11.07
X11.236 Y10.917
X11.164 Y10.744
X11.132 Y10.562
X11.138 Y10.376
X11.177 Y10.227
X11.185 Y10.194
X11.269 Y10.028
X11.384 Y9.885
X11.53 Y9.767
X11.698 Y9.684
X11.876 Y9.638
X12.063 Y9.632
X12.242 Y9.664
X12.418 Y9.736
X12.568 Y9.841
X12.696 Y9.977
X12.792 Y10.138
X12.851 Y10.316
X12.854 Y10.346
X12.851 Y10.379
X12.833 Y10.408
X12.114 Y11.156
X12.086 Y11.175
X12.052 Y11.18
G3 X12.177 Y9.713 Z6.919 I0.063 J-0.734 F10
X12.052 Y11.18 Z6.838 I-0.063 J0.734
X12.177 Y9.713 Z6.758 I0.063 J-0.734
X12.052 Y11.18 Z6.677 I-0.063 J0.734
X12.177 Y9.713 Z6.596 I0.063 J-0.734
X12.052 Y11.18 Z6.515 I-0.063 J0.734
X12.177 Y9.713 Z6.435 I0.063 J-0.734
X12.052 Y11.18 Z6.354 I-0.063 J0.734
X12.177 Y9.713 Z6.273 I0.063 J-0.734
X12.052 Y11.18 Z6.192 I-0.063 J0.734
X12.177 Y9.713 Z6.112 I0.063 J-0.734
X12.052 Y11.18 Z6.031 I-0.063 J0.734
X12.177 Y9.713 Z5.95 I0.063 J-0.734
X12.052 Y11.18 Z5.869 I-0.063 J0.734
X12.177 Y9.713 Z5.788 I0.063 J-0.734
X12.052 Y11.18 Z5.708 I-0.063 J0.734
X12.177 Y9.713 Z5.627 I0.063 J-0.734
X12.781 Y10.133 Z5.6 I-0.063 J0.734
X11.765 Y10.611 I-0.508 J0.239
G1 X11.753 Y10.584 F30
G3 X11.858 Y10.279 I0.244 J-0.087
G1 X11.909 Y10.252
X11.965 Y10.237
X12.023 Y10.233
X12.08 Y10.241
X12.134 Y10.261
X12.183 Y10.293
X12.224 Y10.335
X12.254 Y10.384
X12.274 Y10.444
X12.284 Y10.505
G3 X12.007 Y10.784 I-0.25 J0.028
X11.765 Y10.611 I0.032 J-0.302
G2 X11.439 Y10.377 I-0.373 J0.176
G3 X11.287 Y10.006 I0.026 J-0.228
G1 X11.384 Y9.885
X11.53 Y9.767
X11.698 Y9.684
X11.876 Y9.638
X12.063 Y9.632
X12.242 Y9.664
X12.418 Y9.736
X12.568 Y9.841
X12.696 Y9.977
X12.792 Y10.138
X12.851 Y10.316
X12.884 Y10.615
X12.892 Y10.659
X12.898 Y10.687
X12.906 Y10.716
X12.915 Y10.744
X12.925 Y10.773
X12.936 Y10.801
X12.949 Y10.83
X12.963 Y10.858
X12.984 Y10.895
X13.012 Y10.94
X13.042 Y10.98
X13.073 Y11.017
X13.105 Y11.051
X13.139 Y11.082
X13.179 Y11.115
X13.225 Y11.148
X13.269 Y11.175
X13.31 Y11.196
X13.355 Y11.216
X13.404 Y11.234
X13.454 Y11.249
X13.503 Y11.26
X13.545 Y11.268
X13.58 Y11.272
X13.624 Y11.274
X19.577 Y11.275
X19.745 Y11.279
X19.768 Y11.28
X19.787 Y11.281
X19.801 Y11.287
X19.81 Y11.294
X19.819 Y11.306
X19.822 Y11.317
Y11.333
X19.819 Y11.343
X19.811 Y11.355
X19.799 Y11.364
X19.788 Y11.369
X19.758 Y11.371
X19.721
X19.709
X19.575 Y11.375
X12.042
X11.815 Y11.351
X11.642 Y11.293
X11.478 Y11.197
X11.342 Y11.07
X11.236 Y10.917
X11.164 Y10.744
X11.132 Y10.562
X11.138 Y10.376
X11.177 Y10.227
X11.185 Y10.194
X11.269 Y10.028
X11.287 Y10.006
X11.31 Y9.988
X11.338 Y9.982
X11.366 Y9.99
X11.387 Y10.009
X11.398 Y10.036
X11.395 Y10.065
X11.379 Y10.089
X11.31 Y10.158
X11.295 Y10.181
X11.292 Y10.209
X11.301 Y10.236
X11.321 Y10.256
X11.348 Y10.265
X11.376 Y10.261
X11.399 Y10.246
X11.413 Y10.221
G3 X12.816 Y10.671 Z5.519 I0.701 J0.225 F10
X11.413 Y10.221 Z5.438 I-0.701 J-0.225
X12.816 Y10.671 Z5.358 I0.701 J0.225
X11.413 Y10.221 Z5.277 I-0.701 J-0.225
X12.816 Y10.671 Z5.196 I0.701 J0.225
X11.413 Y10.221 Z5.115 I-0.701 J-0.225
X12.816 Y10.671 Z5.035 I0.701 J0.225
X11.413 Y10.221 Z4.954 I-0.701 J-0.225
X12.816 Y10.671 Z4.873 I0.701 J0.225
X11.413 Y10.221 Z4.792 I-0.701 J-0.225
X12.816 Y10.671 Z4.712 I0.701 J0.225
X11.413 Y10.221 Z4.631 I-0.701 J-0.225
X12.816 Y10.671 Z4.55 I0.701 J0.225
X11.413 Y10.221 Z4.469 I-0.701 J-0.225
X12.816 Y10.671 Z4.388 I0.701 J0.225
X11.413 Y10.221 Z4.308 I-0.701 J-0.225
X12.816 Y10.671 Z4.227 I0.701 J0.225
X11.413 Y10.221 Z4.146 I-0.701 J-0.225
X12.816 Y10.671 Z4.065 I0.701 J0.225
X11.413 Y10.221 Z3.985 I-0.701 J-0.225
X12.816 Y10.671 Z3.904 I0.701 J0.225
X11.413 Y10.221 Z3.823 I-0.701 J-0.225
X12.816 Y10.671 Z3.742 I0.701 J0.225
X11.413 Y10.221 Z3.661 I-0.701 J-0.225
X12.781 Y10.133 Z3.6 I0.701 J0.225
X11.765 Y10.611 I-0.508 J0.239
G1 X11.753 Y10.584 F30
G3 X11.858 Y10.279 I0.244 J-0.087
G1 X11.909 Y10.252
X11.965 Y10.237
X12.023 Y10.233
X12.08 Y10.241
X12.134 Y10.261
X12.183 Y10.293
X12.224 Y10.335
X12.254 Y10.384
X12.274 Y10.444
X12.284 Y10.505
G3 X12.007 Y10.784 I-0.25 J0.028
X11.765 Y10.611 I0.032 J-0.302
G2 X11.439 Y10.377 I-0.373 J0.176
G3 X11.287 Y10.006 I0.026 J-0.228
G1 X11.384 Y9.885
X11.53 Y9.767
X11.698 Y9.684
X11.876 Y9.638
X12.063 Y9.632
X12.242 Y9.664
X12.418 Y9.736
X12.568 Y9.841
X12.696 Y9.977
X12.792 Y10.138
X12.851 Y10.316
X12.884 Y10.615
X12.892 Y10.659
X12.898 Y10.687
X12.906 Y10.716
X12.915 Y10.744
X12.925 Y10.773
X12.936 Y10.801
X12.949 Y10.83
X12.963 Y10.858
X12.984 Y10.895
X13.012 Y10.94
X13.042 Y10.98
X13.073 Y11.017
X13.105 Y11.051
X13.139 Y11.082
X13.179 Y11.115
X13.225 Y11.148
X13.269 Y11.175
X13.31 Y11.196
X13.355 Y11.216
X13.404 Y11.234
X13.454 Y11.249
X13.503 Y11.26
X13.545 Y11.268
X13.58 Y11.272
X13.624 Y11.274
X18.271 Y11.275
X18.303 Y11.278
X18.344 Y11.281
X18.466
X18.482 Y11.285
X18.491 Y11.291
X18.498 Y11.299
X18.504 Y11.313
X18.506 Y11.325
X18.504 Y11.34
X18.499 Y11.349
X18.491 Y11.358
X18.478 Y11.367
X18.468 Y11.369
X18.344
X18.303 Y11.372
X18.271 Y11.375
X12.042
X11.815 Y11.351
X11.642 Y11.293
X11.478 Y11.197
X11.342 Y11.07
X11.236 Y10.917
X11.164 Y10.744
X11.132 Y10.562
X11.138 Y10.376
X11.177 Y10.227
X11.185 Y10.194
X11.269 Y10.028
X11.287 Y10.006
X11.314 Y9.984
X11.347 Y9.977
X11.381 Y9.984
X11.407 Y10.005
X11.423 Y10.036
X11.508 Y10.395
X11.509 Y10.428
X11.496 Y10.457
X11.473 Y10.48
X11.442 Y10.49
X11.409 Y10.487
X11.381 Y10.471
X11.362 Y10.445
X11.355 Y10.413
G3 X12.828 Y10.418 Z3.519 I0.736 J0.003 F10
X11.355 Y10.413 Z3.438 I-0.736 J-0.003
X12.828 Y10.418 Z3.358 I0.736 J0.003
X11.355 Y10.413 Z3.277 I-0.736 J-0.003
X12.828 Y10.418 Z3.196 I0.736 J0.003
X11.355 Y10.413 Z3.115 I-0.736 J-0.003
X12.828 Y10.418 Z3.035 I0.736 J0.003
X11.355 Y10.413 Z2.954 I-0.736 J-0.003
X12.828 Y10.418 Z2.873 I0.736 J0.003
X11.355 Y10.413 Z2.792 I-0.736 J-0.003
X12.828 Y10.418 Z2.712 I0.736 J0.003
X11.355 Y10.413 Z2.631 I-0.736 J-0.003
X12.828 Y10.418 Z2.55 I0.736 J0.003
X11.355 Y10.413 Z2.469 I-0.736 J-0.003
X12.828 Y10.418 Z2.388 I0.736 J0.003
X11.355 Y10.413 Z2.308 I-0.736 J-0.003
X12.828 Y10.418 Z2.227 I0.736 J0.003
X11.355 Y10.413 Z2.146 I-0.736 J-0.003
X12.828 Y10.418 Z2.065 I0.736 J0.003
X11.355 Y10.413 Z1.985 I-0.736 J-0.003
X12.828 Y10.418 Z1.904 I0.736 J0.003
X11.355 Y10.413 Z1.823 I-0.736 J-0.003
X12.828 Y10.418 Z1.742 I0.736 J0.003
X11.355 Y10.413 Z1.661 I-0.736 J-0.003
X12.632 Y9.915 Z1.6 I0.736 J0.003
X11.804 Y10.682 I-0.414 J0.383
G1 X11.803 Y10.68 F30
X11.768 Y10.633
X11.745 Y10.579
X11.734 Y10.521
X11.735 Y10.462
X11.749 Y10.407
X11.775 Y10.355
X11.81 Y10.31
X11.854 Y10.274
X11.905 Y10.247
X11.96 Y10.232
X12.017 Y10.229
X12.074 Y10.239
X12.129 Y10.262
X12.178 Y10.297
X12.219 Y10.341
X12.25 Y10.391
X12.272 Y10.447
X12.284 Y10.505
G3 X12.007 Y10.784 I-0.25 J0.028
G1 X11.95 Y10.772
X11.896 Y10.751
X11.847 Y10.721
X11.804 Y10.682
G2 X11.432 Y10.548 I-0.315 J0.292
G3 X11.17 Y10.252 I-0.031 J-0.236
G1 X11.177 Y10.227
X11.185 Y10.194
X11.269 Y10.028
X11.384 Y9.885
X11.53 Y9.767
X11.698 Y9.684
X11.876 Y9.638
X12.063 Y9.632
X12.242 Y9.664
X12.418 Y9.736
X12.568 Y9.841
X12.696 Y9.977
X12.792 Y10.138
X12.851 Y10.316
X12.884 Y10.615
X12.892 Y10.659
X12.898 Y10.687
X12.906 Y10.716
X12.915 Y10.744
X12.925 Y10.773
X12.936 Y10.801
X12.949 Y10.83
X12.963 Y10.858
X12.984 Y10.895
X13.012 Y10.94
X13.042 Y10.98
X13.073 Y11.017
X13.105 Y11.051
X13.139 Y11.082
X13.179 Y11.115
X13.225 Y11.148
X13.269 Y11.175
X13.31 Y11.196
X13.355 Y11.216
X13.404 Y11.234
X13.454 Y11.249
X13.503 Y11.26
X13.545 Y11.268
X13.58 Y11.272
X13.624 Y11.274
X16.922 Y11.275
X17.049 Y11.283
X17.073
X17.16
X17.168 Y11.286
X17.178 Y11.292
X17.186 Y11.301
X17.192 Y11.313
X17.194 Y11.325
X17.192 Y11.338
X17.187 Y11.348
X17.177 Y11.359
X17.168 Y11.364
X17.16 Y11.367
X17.073
X17.049
X16.922 Y11.375
X12.042
X11.815 Y11.351
X11.642 Y11.293
X11.478 Y11.197
X11.342 Y11.07
X11.236 Y10.917
X11.164 Y10.744
X11.132 Y10.562
X11.138 Y10.376
X11.17 Y10.252
X11.179 Y10.237
X11.196 Y10.229
X11.214 Y10.231
X11.349 Y10.291
X11.356 Y10.293
X12.612 Y10.524
X12.621 Y10.525
X12.802 Y10.519
X12.824 Y10.525
X12.838 Y10.541
X12.841 Y10.564
G3 X11.388 Y10.329 Z1.519 I-0.727 J-0.117 F10
X12.841 Y10.564 Z1.438 I0.727 J0.117
X11.388 Y10.329 Z1.358 I-0.727 J-0.117
X12.841 Y10.564 Z1.277 I0.727 J0.117
X11.388 Y10.329 Z1.196 I-0.727 J-0.117
X12.841 Y10.564 Z1.115 I0.727 J0.117
X11.388 Y10.329 Z1.035 I-0.727 J-0.117
X12.841 Y10.564 Z0.954 I0.727 J0.117
X11.388 Y10.329 Z0.873 I-0.727 J-0.117
X12.841 Y10.564 Z0.792 I0.727 J0.117
X11.388 Y10.329 Z0.712 I-0.727 J-0.117
X12.841 Y10.564 Z0.631 I0.727 J0.117
X11.388 Y10.329 Z0.55 I-0.727 J-0.117
X12.841 Y10.564 Z0.469 I0.727 J0.117
X11.388 Y10.329 Z0.388 I-0.727 J-0.117
X12.841 Y10.564 Z0.308 I0.727 J0.117
X11.388 Y10.329 Z0.227 I-0.727 J-0.117
X12.841 Y10.564 Z0.146 I0.727 J0.117
X11.388 Y10.329 Z0.065 I-0.727 J-0.117
X12.781 Y10.133 Z0 I0.727 J0.117
X11.765 Y10.611 I-0.508 J0.239
G1 X11.753 Y10.584 F30
G3 X11.858 Y10.279 I0.244 J-0.087
G1 X11.909 Y10.252
X11.965 Y10.237
X12.023 Y10.233
X12.08 Y10.241
X12.134 Y10.261
X12.183 Y10.293
X12.224 Y10.335
X12.254 Y10.384
X12.274 Y10.444
X12.284 Y10.505
G3 X12.007 Y10.784 I-0.25 J0.028
X11.765 Y10.611 I0.032 J-0.302
G2 X11.439 Y10.377 I-0.373 J0.176
G3 X11.287 Y10.006 I0.026 J-0.228
G1 X11.384 Y9.885
X11.53 Y9.767
X11.698 Y9.684
X11.876 Y9.638
X12.063 Y9.632
X12.242 Y9.664
X12.418 Y9.736
X12.568 Y9.841
X12.696 Y9.977
X12.792 Y10.138
X12.851 Y10.316
X12.884 Y10.615
X12.892 Y10.659
X12.898 Y10.687
X12.906 Y10.716
X12.915 Y10.744
X12.925 Y10.773
X12.936 Y10.801
X12.949 Y10.83
X12.963 Y10.858
X12.984 Y10.895
X13.012 Y10.94
X13.042 Y10.98
X13.073 Y11.017
X13.105 Y11.051
X13.139 Y11.082
X13.179 Y11.115
X13.225 Y11.148
X13.269 Y11.175
X13.31 Y11.196
X13.355 Y11.216
X13.404 Y11.234
X13.454 Y11.249
X13.503 Y11.26
X13.545 Y11.268
X13.58 Y11.272
X13.624 Y11.274
X15.805 Y11.275
X15.93 Y11.284
X15.958 Y11.285
X16.119
X16.125 Y11.287
X16.134 Y11.292
X16.144 Y11.303
X16.148 Y11.312
X16.15 Y11.326
X16.148 Y11.337
X16.143 Y11.348
X16.137 Y11.355
X16.123 Y11.364
X16.119 Y11.365
X15.958
X15.93 Y11.366
X15.805 Y11.375
X12.042
X11.815 Y11.351
X11.642 Y11.293
X11.478 Y11.197
X11.342 Y11.07
X11.236 Y10.917
X11.164 Y10.744
X11.132 Y10.562
X11.138 Y10.376
X11.177 Y10.227
X11.185 Y10.194
X11.269 Y10.028
X11.287 Y10.006
X11.311 Y9.981 Z0.004
X11.339 Y9.964 Z0.015
X11.366 Y9.953 Z0.034
X11.39 Y9.949 Z0.058
X11.409 Y9.948 Z0.088
X11.42 Z0.121
X11.424 Y9.949 Z0.155
Z17
M5
M30
