(1026parallel)
(Machine)
(  vendor: Nikodem Bartnik)
(  model: Generic 3-axis Router)
(  description: This machine has XYZ axis on the Head)
(T1  D=1.38 CR=0 - ZMIN=0 - flat end mill)
G90 G94
G17
G21
(When using Fusion 360 for Personal Use, the feedrate of)
(rapid moves is reduced to match the feedrate of cutting)
(moves, which can increase machining time. Unrestricted rapid)
(moves are available with a Fusion 360 Subscription.)

(Parallel2)
T1
S5000 M3
G54
G0 X21.29 Y11.468
Z19
G1 Z10.737 F30
Z8.082 F10
Y11.466 Z8.059
Y11.46 Z8.036
Y11.358 Z7.746 F30
Y11.222 Z7.814
Y11.19 Z8.036
X21.306 Y11.178 Z8.158
X21.35 Y11.169 Z8.273
X21.421 Y11.164 Z8.373
X21.515 Y11.163 Z8.453
X21.611 Y11.161 Z8.537
X21.683 Y11.156 Z8.642
X21.727 Y11.146 Z8.762
X21.738 Y11.133 Z8.888
X21.718 Y11.118 Z9.013
X21.666 Y11.101 Z9.128
X21.586 Y11.084 Z9.227
X21.484 Y11.067 Z9.302
X21.367 Y11.053 Z9.348
X21.24 Y11.041 Z9.363
X21.114 Y11.032 Z9.346
X20.996 Y11.028 Z9.297
X20.894 Z9.221
X20.815 Y11.033 Z9.121
X20.763 Y11.041 Z9.005
X20.742 Y11.053 Z8.879
X20.754 Y11.068 Z8.753
X20.798 Y11.085 Z8.634
X20.87 Y11.102 Z8.53
X20.966 Y11.119 Z8.449
X21.06 Y11.135 Z8.37
X21.131 Y11.151 Z8.271
X21.175 Y11.167 Z8.157
X21.19 Y11.182 Z8.035
Y11.19 Z7.962
Y11.223 Z7.661
Y11.378 Z7.6
Y11.46 Z8
X21.09
Y11.376 Z7.446
Y11.224 Z7.506
Y11.19 Z7.813
X20.99 Z7.664
Y11.224 Z7.35
Y11.375 Z7.293
Y11.46 Z8
X20.89
Y11.374 Z7.14
Y11.225 Z7.198
Y11.19 Z7.515
X20.79 Z7.366
Y11.254 Z7.012
Y11.418 Z7.037
Y11.46 Z8
X20.69
Y11.418 Z6.885
Y11.278 Z6.833
Y11.19 Z7.216
X20.59 Z7.067
Y11.277 Z6.683
Y11.418 Z6.733
Y11.46 Z8
X20.49
Y11.418 Z6.581
Y11.276 Z6.532
Y11.19 Z6.918
X20.39 Z6.769
Y11.275 Z6.381
Y11.418 Z6.429
Y11.46 Z8
X20.29
Y11.418 Z6.277
Y11.273 Z6.231
Y11.19 Z6.62
X20.19 Z6.471
Y11.287 Z6.066
Y11.418 Z6.125
Y11.46 Z8
X20.09
Y11.418 Z5.973
Y11.271 Z5.93
Y11.19 Z6.322
X19.99 Z6.173
Y11.27 Z5.779
Y11.418 Z5.821
Y11.46 Z8
X19.89
Y11.418 Z5.67
Y11.268 Z5.629
Y11.19 Z6.024
X19.791 Z5.874
Y11.289 Z5.454
Y11.418 Z5.519
Y11.46 Z8
X19.691
Y11.418 Z5.368
Y11.289 Z5.302
Y11.19 Z5.725
X19.591 Z5.576
Y11.289 Z5.149
Y11.418 Z5.217
Y11.46 Z8
X19.491
Y11.418 Z5.066
Y11.29 Z4.997
Y11.19 Z5.427
X19.391 Z5.278
Y11.29 Z4.845
Y11.418 Z4.915
Y11.46 Z8
X19.291
Y11.418 Z4.764
Y11.29 Z4.693
Y11.19 Z5.129
X19.191 Z4.98
Y11.29 Z4.541
Y11.418 Z4.613
Y11.46 Z8
X19.091
Y11.405 Z4.445
Y11.264 Z4.421
Y11.19 Z4.831
X18.991 Z4.681
Y11.264 Z4.27
Y11.405 Z4.294
Y11.46 Z8
X18.891
Y11.404 Z4.143
Y11.265 Z4.119
Y11.19 Z4.532
X18.791 Z4.383
Y11.29 Z3.935
Y11.417 Z4.007
Y11.46 Z8
X18.691
Y11.416 Z3.855
Y11.291 Z3.784
Y11.19 Z4.234
X18.591 Z4.085
Y11.291 Z3.633
Y11.416 Z3.704
Y11.46 Z8
X18.491
Y11.415 Z3.552
Y11.291 Z3.482
Y11.19 Z3.936
X18.391 Z3.787
Y11.291 Z3.331
Y11.415 Z3.4
Y11.46 Z8
X18.291
Y11.414 Z3.249
Y11.291 Z3.179
Y11.19 Z3.638
X18.191 Z3.488
Y11.291 Z3.028
Y11.414 Z3.097
Y11.46 Z8
X18.091
Y11.413 Z2.945
Y11.291 Z2.877
Y11.19 Z3.339
X17.991 Z3.19
Y11.292 Z2.726
Y11.413 Z2.794
Y11.46 Z8
X17.891
Y11.412 Z2.642
Y11.292 Z2.575
Y11.19 Z3.041
X17.791 Z2.892
Y11.292 Z2.424
Y11.412 Z2.491
Y11.46 Z8
X17.691
Y11.411 Z2.339
Y11.292 Z2.272
Y11.19 Z2.743
X17.591 Z2.594
Y11.292 Z2.121
Y11.411 Z2.187
Y11.46 Z8
X17.491
Y11.41 Z2.036
Y11.292 Z1.97
Y11.19 Z2.445
X17.391 Z2.296
Y11.292 Z1.819
Y11.41 Z1.884
Y11.46 Z8
X17.291
Y11.409 Z1.732
Y11.292 Z1.668
Y11.19 Z2.146
X17.191 Z1.997
Y11.293 Z1.516
Y11.409 Z1.581
Y11.46 Z8
X17.091
Y11.408 Z1.429
Y11.293 Z1.365
Y11.19 Z1.848
X16.991 Z1.699
Y11.293 Z1.214
Y11.408 Z1.278
Y11.46 Z8
X16.891
Y11.407 Z1.126
Y11.293 Z1.063
Y11.19 Z1.55
X16.791 Z1.401
Y11.293 Z0.912
Y11.407 Z0.974
Y11.46 Z8
X16.691
Y11.406 Z0.823
Y11.293 Z0.76
Y11.19 Z1.252
X16.591 Z1.103
Y11.239 Z0.712
Y11.331 Z0.609
Y11.412 Z0.72
Y11.46 Z8
X16.491
Y11.412 Z0.57
Y11.33 Z0.458
Y11.24 Z0.558
Y11.19 Z0.953
X16.391 Z0.804
Y11.24 Z0.405
Y11.33 Z0.307
Y11.412 Z0.42
Y11.46 Z8
X16.291
Y11.439 Z0.487
Y11.356 Z0.156
Y11.247 Z0.214
Y11.19 Z0.655
X16.191 Z0.506
Y11.248 Z0.063
Y11.356 Z0.004
Y11.439 Z0.339
Y11.46 Z8
X16.091
Y11.439 Z0.191
Y11.418 Z0.029
Y11.392 Z0.034
Y11.37 Z0.049
Y11.355 Z0.072
Y11.349 Z0.098
Z0.113
X16.097 Y11.348 Z0.195
X16.117 Y11.344 Z0.274
X16.149 Y11.337 Z0.35
X16.193 Y11.328 Z0.418
X16.247 Y11.317 Z0.479
X16.311 Y11.304 Z0.53
X16.377 Y11.29 Z0.584
X16.434 Y11.278 Z0.649
X16.479 Y11.269 Z0.724
X16.51 Y11.262 Z0.805
X16.527 Y11.259 Z0.89
X16.529 Y11.258 Z0.977
X16.517 Y11.261 Z1.063
X16.49 Y11.266 Z1.146
X16.449 Y11.275 Z1.223
X16.396 Y11.286 Z1.291
X16.332 Y11.299 Z1.349
X16.26 Y11.314 Z1.394
X16.18 Y11.331 Z1.426
X16.097 Y11.348 Z1.444
X16.011 Y11.366 Z1.446
X15.927 Y11.383 Z1.433
X15.846 Y11.4 Z1.406
X15.771 Y11.416 Z1.364
X15.708 Y11.429 Z1.314
X15.654 Y11.44 Z1.253
X15.61 Y11.449 Z1.184
X15.578 Y11.456 Z1.109
X15.558 Y11.46 Z1.029
X15.551 Y11.462 Z0.947
X15.558 Y11.46 Z0.865
X15.578 Y11.456 Z0.786
X15.61 Y11.449 Z0.71
X15.654 Y11.44 Z0.641
X15.708 Y11.429 Z0.581
X15.771 Y11.416 Z0.53
X15.834 Y11.403 Z0.479
X15.889 Y11.391 Z0.418
X15.932 Y11.382 Z0.35
X15.965 Y11.376 Z0.274
X15.984 Y11.372 Z0.195
X15.991 Y11.37 Z0.113
Y11.375 Z0.086 F10
Y11.39 Z0.064
Y11.413 Z0.049
Y11.439 Z0.044
Y11.46 Z8 F30
X15.891
Y11.455 Z0.018
Y11.412 Z0.024
Y11.374 Z0.044
Y11.343 Z0.075
Y11.324 Z0.113
Y11.317 Z0.156
Z14
X12.791 Y10.157
Z10.693
Z0.138 F10
Y10.15 Z0.095
Y10.13 Z0.057
Y10.1 Z0.026
Y10.061 Z0.007
Y10.019 Z0
Y10.018 Z8 F30
X12.778 Y10.01 Z8.079
X12.74 Y9.986 Z8.146
X12.683 Y9.95 Z8.191
X12.616 Y9.908 Z8.207
X12.266 Y9.686
X12.199 Y9.644 Z8.191
X12.142 Y9.608 Z8.146
X12.105 Y9.584 Z8.079
X12.091 Y9.576 Z8
Z0
Y9.602 Z0.005
Y9.624 Z0.02
Y9.639 Z0.043
Y9.645 Z0.069
Z8
X12.097 Y9.648 Z8.081
X12.114 Y9.658 Z8.16
X12.141 Y9.675 Z8.235
X12.179 Y9.698 Z8.303
X12.225 Y9.727 Z8.364
X12.279 Y9.76 Z8.415
X12.337 Y9.795 Z8.47
X12.386 Y9.825 Z8.535
X12.424 Y9.848 Z8.61
X12.451 Y9.865 Z8.691
X12.465 Y9.873 Z8.777
X12.467 Y9.874 Z8.864
X12.455 Y9.867 Z8.95
X12.431 Y9.852 Z9.032
X12.395 Y9.83 Z9.109
X12.348 Y9.802 Z9.177
X12.292 Y9.767 Z9.234
X12.228 Y9.729 Z9.279
X12.159 Y9.686 Z9.31
X12.086 Y9.641 Z9.327
X12.012 Y9.596 Z9.328
X11.938 Y9.551 Z9.315
X11.868 Y9.508 Z9.286
X11.803 Y9.468 Z9.244
X11.744 Y9.432 Z9.188
X11.695 Y9.402 Z9.121
X11.656 Y9.379 Z9.044
X11.63 Y9.362 Z8.961
X11.616 Y9.354 Z8.874
Z8.785
X11.63 Y9.362 Z8.698
X11.656 Y9.379 Z8.614
X11.695 Y9.402 Z8.538
X11.744 Y9.432 Z8.471
X11.803 Y9.468 Z8.415
X11.857 Y9.501 Z8.364
X11.904 Y9.53 Z8.303
X11.941 Y9.553 Z8.235
X11.969 Y9.57 Z8.16
X11.986 Y9.58 Z8.081
X11.991 Y9.583 Z8
Z0
Y9.61 Z0.005
Y9.632 Z0.02
Y9.647 Z0.043
Y9.652 Z0.069
Z8
X11.997 Y9.656 Z8.081
X12.014 Y9.666 Z8.16
X12.041 Y9.683 Z8.235
X12.079 Y9.706 Z8.303
X12.125 Y9.734 Z8.364
X12.18 Y9.768 Z8.415
X12.237 Y9.803 Z8.47
X12.286 Y9.833 Z8.535
X12.324 Y9.856 Z8.61
X12.351 Y9.873 Z8.691
X12.365 Y9.881 Z8.777
X12.367 Y9.882 Z8.864
X12.355 Y9.875 Z8.95
X12.331 Y9.86 Z9.032
X12.295 Y9.838 Z9.109
X12.248 Y9.81 Z9.177
X12.192 Y9.775 Z9.234
X12.128 Y9.736 Z9.279
X12.059 Y9.694 Z9.31
X11.986 Y9.649 Z9.327
X11.912 Y9.604 Z9.328
X11.838 Y9.559 Z9.315
X11.768 Y9.516 Z9.286
X11.703 Y9.476 Z9.244
X11.644 Y9.44 Z9.188
X11.595 Y9.41 Z9.121
X11.556 Y9.386 Z9.044
X11.53 Y9.37 Z8.961
X11.516 Y9.362 Z8.874
Z8.785
X11.53 Y9.37 Z8.698
X11.556 Y9.386 Z8.614
X11.595 Y9.41 Z8.538
X11.644 Y9.44 Z8.471
X11.703 Y9.476 Z8.415
X11.757 Y9.509 Z8.364
X11.804 Y9.538 Z8.303
X11.841 Y9.561 Z8.235
X11.869 Y9.578 Z8.16
X11.886 Y9.588 Z8.081
X11.891 Y9.591 Z8
Y9.592 Z0 F30
Y9.619 Z0.005
Y9.641 Z0.02
Y9.656 Z0.043
Y9.661 Z0.069
Z8
X11.897 Y9.665 Z8.081
X11.914 Y9.675 Z8.16
X11.941 Y9.692 Z8.235
X11.978 Y9.715 Z8.303
X12.025 Y9.744 Z8.364
X12.079 Y9.777 Z8.415
X12.136 Y9.813 Z8.469
X12.185 Y9.843 Z8.535
X12.223 Y9.867 Z8.61
X12.25 Y9.883 Z8.691
X12.264 Y9.892 Z8.777
X12.265 Y9.893 Z8.864
X12.254 Y9.886 Z8.95
X12.23 Y9.871 Z9.032
X12.194 Y9.849 Z9.109
X12.147 Y9.82 Z9.176
X12.091 Y9.785 Z9.234
X12.028 Y9.746 Z9.279
X11.959 Y9.703 Z9.31
X11.886 Y9.658 Z9.327
X11.812 Y9.612 Z9.328
X11.739 Y9.567 Z9.314
X11.669 Y9.523 Z9.286
X11.604 Y9.483 Z9.244
X11.545 Y9.447 Z9.188
X11.496 Y9.416 Z9.121
X11.458 Y9.392 Z9.044
X11.431 Y9.376 Z8.961
X11.418 Y9.368 Z8.874
Z8.785
X11.431 Y9.376 Z8.698
X11.458 Y9.392 Z8.614
X11.496 Y9.416 Z8.538
X11.545 Y9.447 Z8.471
X11.604 Y9.483 Z8.415
X11.658 Y9.516 Z8.364
X11.704 Y9.545 Z8.303
X11.741 Y9.568 Z8.235
X11.769 Y9.585 Z8.16
X11.786 Y9.596 Z8.081
X11.791 Y9.599 Z8
Y9.6 Z0
Y9.626 Z0.005
Y9.649 Z0.02
Y9.663 Z0.043
Y9.669 Z0.069
Z8
X11.797 Y9.672 Z8.081
X11.815 Y9.681 Z8.161
X11.844 Y9.696 Z8.235
X11.883 Y9.716 Z8.304
X11.931 Y9.742 Z8.365
X11.988 Y9.771 Z8.415
X12.048 Y9.802 Z8.47
X12.099 Y9.829 Z8.536
X12.139 Y9.85 Z8.61
X12.167 Y9.864 Z8.691
X12.182 Y9.872 Z8.777
X12.184 Y9.873 Z8.864
X12.172 Y9.867 Z8.95
X12.147 Y9.854 Z9.033
X12.11 Y9.834 Z9.109
X12.061 Y9.809 Z9.177
X12.003 Y9.779 Z9.234
X11.937 Y9.745 Z9.28
X11.865 Y9.707 Z9.311
X11.789 Y9.668 Z9.328
X11.712 Y9.627 Z9.33
X11.635 Y9.588 Z9.317
X11.562 Y9.55 Z9.288
X11.494 Y9.514 Z9.246
X11.433 Y9.482 Z9.19
X11.381 Y9.456 Z9.123
X11.341 Y9.435 Z9.047
X11.313 Y9.42 Z8.963
X11.299 Y9.413 Z8.875
Z8.786
X11.313 Y9.42 Z8.699
X11.341 Y9.435 Z8.615
X11.381 Y9.456 Z8.539
X11.433 Y9.482 Z8.471
X11.494 Y9.514 Z8.415
X11.551 Y9.544 Z8.365
X11.6 Y9.569 Z8.304
X11.639 Y9.59 Z8.235
X11.668 Y9.605 Z8.161
X11.685 Y9.614 Z8.081
X11.691 Y9.617 Z8
Z0
X11.591 Y9.678
Z8
X11.589 Y9.683 Z8.026
X11.582 Y9.696 Z8.049
X11.571 Y9.716 Z8.064
X11.559 Y9.739 Z8.069
X11.123 Y10.565
X11.111 Y10.588 Z8.064 F10
X11.101 Y10.608 Z8.049
X11.094 Y10.621 Z8.026
X11.091 Y10.626 Z8
Z0.069
Y10.631 Z0.043
Y10.646 Z0.02
Y10.668 Z0.005
Y10.695 Z0
Y10.696 Z8 F30
X11.191 Y10.936 Z0
Y10.937 Z8
X11.185 Y10.932 Z8.088
X11.168 Y10.917 Z8.173
X11.14 Y10.892 Z8.253
X11.101 Y10.858 Z8.325
X11.054 Y10.816 Z8.387
X11.007 Y10.775 Z8.448
X10.969 Y10.741 Z8.519
X10.94 Y10.716 Z8.597
X10.923 Y10.7 Z8.681
X10.916 Y10.695 Z8.768
X10.921 Y10.699 Z8.855
X10.937 Y10.713 Z8.939
X10.964 Y10.737 Z9.019
X11.001 Y10.769 Z9.091
X11.046 Y10.81 Z9.153
X11.1 Y10.856 Z9.204
X11.159 Y10.908 Z9.242
X11.222 Y10.964 Z9.265
X11.287 Y11.021 Z9.274
X11.352 Y11.078 Z9.267
X11.415 Y11.134 Z9.246
X11.475 Y11.187 Z9.21
X11.529 Y11.234 Z9.161
X11.576 Y11.276 Z9.099
X11.615 Y11.31 Z9.027
X11.643 Y11.335 Z8.947
X11.661 Y11.35 Z8.862
X11.667 Y11.355 Z8.774
X11.661 Y11.35 Z8.686
X11.643 Y11.335 Z8.601
X11.615 Y11.31 Z8.521
X11.576 Y11.276 Z8.449
X11.529 Y11.234 Z8.387
X11.481 Y11.193 Z8.325
X11.443 Y11.159 Z8.253
X11.415 Y11.134 Z8.173
X11.397 Y11.118 Z8.088
X11.391 Y11.113 Z8
Z0.069
Y11.118 Z0.043 F10
Y11.133 Z0.02
Y11.156 Z0.005
Y11.182 Z0
Y11.183 Z8 F30
X11.385 Y11.182 Z8.082
X11.365 Y11.178 Z8.162
X11.332 Y11.173 Z8.237
X11.288 Y11.166 Z8.306
X11.233 Y11.157 Z8.367
X11.169 Y11.147 Z8.417
X11.102 Y11.137 Z8.472
X11.045 Y11.127 Z8.537
X11 Y11.12 Z8.611
X10.968 Y11.115 Z8.692
X10.951 Y11.113 Z8.777
X10.948 Y11.112 Z8.865
X10.961 Y11.114 Z8.951
X10.988 Y11.118 Z9.033
X11.029 Y11.125 Z9.11
X11.083 Y11.134 Z9.178
X11.147 Y11.144 Z9.236
X11.22 Y11.155 Z9.282
X11.3 Y11.168 Z9.314
X11.385 Y11.182 Z9.331
X11.471 Y11.195 Z9.334
X11.556 Y11.209 Z9.321
X11.637 Y11.222 Z9.294
X11.713 Y11.234 Z9.252
X11.777 Y11.244 Z9.201
X11.832 Y11.253 Z9.141
X11.876 Y11.26 Z9.072
X11.909 Y11.265 Z8.996
X11.928 Y11.268 Z8.917
X11.935 Y11.269 Z8.835
X11.928 Y11.268 Z8.753
X11.909 Y11.265 Z8.673
X11.876 Y11.26 Z8.598
X11.832 Y11.253 Z8.529
X11.777 Y11.244 Z8.468
X11.713 Y11.234 Z8.417
X11.649 Y11.224 Z8.367
X11.594 Y11.215 Z8.306
X11.55 Y11.208 Z8.237
X11.518 Y11.203 Z8.162
X11.498 Y11.2 Z8.082
X11.491 Y11.199 Z8
Z0.069
Y11.204 Z0.043 F10
Y11.219 Z0.02
Y11.241 Z0.005
Y11.268 Z0
Z8 F30
X11.485 Z8.082
X11.464 Y11.267 Z8.162
X11.432 Y11.265 Z8.237
X11.387 Y11.263 Z8.306
X11.331 Y11.26 Z8.367
X11.267 Y11.257 Z8.418
X11.198 Y11.254 Z8.472
X11.14 Y11.251 Z8.537
X11.095 Y11.249 Z8.611
X11.063 Y11.247 Z8.692
X11.045 Z8.777
X11.043 Y11.246 Z8.865
X11.055 Y11.247 Z8.951
X11.083 Y11.248 Z9.033
X11.124 Y11.25 Z9.11
X11.178 Y11.253 Z9.179
X11.243 Y11.256 Z9.236
X11.317 Y11.26 Z9.282
X11.398 Y11.264 Z9.314
X11.484 Y11.268 Z9.332
X11.571 Y11.272 Z9.334
X11.657 Y11.276 Z9.322
X11.739 Y11.28 Z9.294
X11.816 Y11.284 Z9.253
X11.881 Y11.287 Z9.202
X11.936 Y11.289 Z9.141
X11.981 Y11.292 Z9.072
X12.014 Y11.293 Z8.997
X12.034 Y11.294 Z8.917
X12.041 Y11.295 Z8.835
X12.034 Y11.294 Z8.753
X12.014 Y11.293 Z8.673
X11.981 Y11.292 Z8.598
X11.936 Y11.289 Z8.529
X11.881 Y11.287 Z8.468
X11.816 Y11.284 Z8.418
X11.751 Y11.281 Z8.367
X11.696 Y11.278 Z8.306
X11.651 Y11.276 Z8.237
X11.618 Y11.274 Z8.162
X11.598 Y11.273 Z8.082
X11.591 Z8
Z0.069
Y11.278 Z0.043 F10
Y11.293 Z0.02
Y11.315 Z0.005
Y11.342 Z0
Z8 F30
X11.585 Y11.345 Z8.082
X11.567 Y11.353 Z8.161
X11.537 Y11.367 Z8.236
X11.497 Y11.385 Z8.305
X11.447 Y11.408 Z8.365
X11.389 Y11.434 Z8.416
X11.327 Y11.462 Z8.47
X11.274 Y11.486 Z8.536
X11.233 Y11.505 Z8.61
X11.204 Y11.518 Z8.692
X11.189 Y11.525 Z8.777
X11.187 Y11.526 Z8.864
X11.199 Y11.521 Z8.95
X11.224 Y11.509 Z9.033
X11.263 Y11.492 Z9.109
X11.312 Y11.469 Z9.177
X11.372 Y11.442 Z9.235
X11.44 Y11.411 Z9.28
X11.514 Y11.378 Z9.312
X11.591 Y11.342 Z9.329
X11.671 Y11.306 Z9.331
X11.749 Y11.271 Z9.318
X11.824 Y11.236 Z9.29
X11.894 Y11.205 Z9.248
X11.957 Y11.176 Z9.192
X12.01 Y11.152 Z9.125
X12.052 Y11.133 Z9.048
X12.08 Y11.12 Z8.964
X12.095 Y11.114 Z8.877
Z8.787
X12.08 Y11.12 Z8.7
X12.052 Y11.133 Z8.616
X12.01 Y11.152 Z8.539
X11.957 Y11.176 Z8.472
X11.894 Y11.205 Z8.416
X11.835 Y11.231 Z8.365
X11.785 Y11.254 Z8.305
X11.745 Y11.272 Z8.236
X11.715 Y11.286 Z8.161
X11.697 Y11.294 Z8.082
X11.691 Y11.297 Z8
Z0.069
Y11.302 Z0.043 F10
Y11.317 Z0.02
Y11.339 Z0.005
Y11.366 Z0
Z8 F30
Z14
X15.791 Y11.321
Z10.649
Z0.138 F10
Y11.328 Z0.095
Y11.348 Z0.057
Y11.378 Z0.026
Y11.417 Z0.007
Y11.459 Z0
Y11.46 Z8 F30
X15.691
Y11.459 Z0
X15.591
Y11.46 Z8
X15.491
Y11.459 Z0
X15.391
Y11.46 Z8
X15.291
Y11.459 Z0
X15.191
Y11.46 Z8
X15.091
Y11.459 Z0
X14.991
Y11.46 Z8
X14.891
Y11.459 Z0
X14.791
Y11.46 Z8
X14.691
Y11.459 Z0
X14.591
Y11.46 Z8
X14.491
Y11.459 Z0
X14.391
Y11.46 Z8
X14.291
Y11.459 Z0
X14.191
Y11.46 Z8
X14.091
Y11.459 Z0
X13.991
Y11.46 Z8
X13.891
Y11.459 Z0
X13.791
Y11.46 Z8
X13.691
Y11.459 Z0
X13.591
Y11.46 Z8
G19 G2 Y11.659 Z8.399 J0.5 K0
G3 Y11.057 Z9.198 J-0.301 K0.399
Y11.057 Z8.399 J0.301 K-0.399
G2 Y11.256 Z8 J-0.301 K-0.399
G1 Z0.069
Y11.251 Z0.043 F10
Y11.236 Z0.02
Y11.214 Z0.005
Y11.187 Z0
Y11.177 Z8.01 F30
X13.597 Y11.173 Z8.091
X13.613 Y11.163 Z8.17
X13.64 Y11.145 Z8.245
X13.677 Y11.122 Z8.313
X13.723 Y11.092 Z8.374
X13.777 Y11.058 Z8.425
X13.834 Y11.022 Z8.479
X13.882 Y10.991 Z8.545
X13.92 Y10.967 Z8.62
X13.946 Y10.95 Z8.701
X13.96 Y10.941 Z8.787
X13.962 Y10.94 Z8.874
X13.95 Y10.948 Z8.96
X13.926 Y10.963 Z9.042
X13.89 Y10.986 Z9.119
X13.844 Y11.015 Z9.186
X13.789 Y11.051 Z9.244
X13.726 Y11.091 Z9.288
X13.657 Y11.134 Z9.32
X13.585 Y11.18 Z9.336
X13.512 Y11.227 Z9.338
X13.439 Y11.274 Z9.324
X13.37 Y11.318 Z9.296
X13.305 Y11.359 Z9.254
X13.247 Y11.396 Z9.198
X13.198 Y11.427 Z9.13
X13.16 Y11.451 Z9.054
X13.134 Y11.468 Z8.971
X13.121 Y11.476 Z8.883
Z8.795
X13.134 Y11.468 Z8.707
X13.16 Y11.451 Z8.624
X13.198 Y11.427 Z8.548
X13.247 Y11.396 Z8.481
X13.305 Y11.359 Z8.425
X13.359 Y11.325 Z8.374
X13.405 Y11.296 Z8.313
X13.442 Y11.272 Z8.245
X13.469 Y11.255 Z8.17
X13.486 Y11.244 Z8.091
X13.491 Y11.24 Z8.01
Z0.069
Y11.235 Z0.043 F10
Y11.22 Z0.02
Y11.198 Z0.005
Y11.171 Z0
Y11.154 Z8.014 F30
G3 Y10.963 Z8.407 J-0.5 K0
G2 Y11.581 Z9.194 J0.309 K0.393
Y11.581 Z8.407 J-0.309 K-0.393
G3 Y11.39 Z8.014 J0.309 K-0.393
G1 Z0.069
Y11.396 Z0.043 F10
Y11.411 Z0.02
Y11.433 Z0.005
Y11.459 Z0
Y11.46 Z8 F30
X13.391
Y11.459 Z0
Y11.433 Z0.005
Y11.411 Z0.02
Y11.396 Z0.043
Y11.39 Z0.069
Y11.385 Z0.095
Y11.37 Z0.118
Y11.348 Z0.133
Y11.321 Z0.138
Y11.278
Y11.251 Z0.133 F10
Y11.229 Z0.118
Y11.214 Z0.095
Y11.209 Z0.069
Y11.203 Z0.043
Y11.188 Z0.02
Y11.166 Z0.005
Y11.14 Z0
Y11.131 Z8.006 F30
X13.398 Y11.13 Z8.088
X13.417 Y11.124 Z8.167
X13.449 Y11.116 Z8.243
X13.492 Y11.104 Z8.312
X13.545 Y11.09 Z8.372
X13.608 Y11.073 Z8.423
X13.673 Y11.055 Z8.477
X13.729 Y11.04 Z8.543
X13.773 Y11.029 Z8.617
X13.804 Y11.02 Z8.698
X13.821 Y11.016 Z8.783
X13.823 Y11.015 Z8.87
X13.811 Y11.019 Z8.957
X13.784 Y11.026 Z9.039
X13.744 Y11.037 Z9.116
X13.691 Y11.051 Z9.184
X13.628 Y11.068 Z9.242
X13.557 Y11.087 Z9.287
X13.478 Y11.108 Z9.319
X13.396 Y11.13 Z9.337
X13.312 Y11.153 Z9.339
X13.228 Y11.175 Z9.326
X13.149 Y11.197 Z9.299
X13.075 Y11.217 Z9.257
X13.012 Y11.233 Z9.206
X12.959 Y11.248 Z9.146
X12.916 Y11.259 Z9.077
X12.884 Y11.268 Z9.001
X12.865 Y11.273 Z8.922
X12.858 Y11.275 Z8.84
X12.865 Y11.273 Z8.758
X12.884 Y11.268 Z8.679
X12.916 Y11.259 Z8.603
X12.959 Y11.248 Z8.534
X13.012 Y11.233 Z8.474
X13.075 Y11.217 Z8.423
X13.137 Y11.2 Z8.372
X13.19 Y11.185 Z8.312
X13.234 Y11.174 Z8.243
X13.265 Y11.165 Z8.167
X13.285 Y11.16 Z8.088
X13.291 Y11.158 Z8.006
Z0.069
Y11.153 Z0.043 F10
Y11.138 Z0.02
Y11.116 Z0.005
Y11.089 Z0
Y11.074 Z8.01 F30
G3 Y10.921 Z8.37 J-0.5 K0
G2 Y11.614 Z9.091 J0.346 K0.36
Y11.614 Z8.37 J-0.346 K-0.36
G3 Y11.46 Z8.01 J0.346 K-0.36
G1 Z8
Y11.459 Z0
X13.191
Y11.46 Z8
G2 Y11.616 Z8.363 J0.5 K0
G3 Y10.928 Z9.089 J-0.344 K0.363
Y10.928 Z8.363 J0.344 K-0.363
G2 Y11.084 Z8 J-0.344 K-0.363
G1 Z0.069
Y11.079 Z0.043 F10
Y11.064 Z0.02
Y11.042 Z0.005
Y11.015 Z0
Y10.995 Z8.011 F30
X13.198 Y10.997 Z8.093
X13.217 Y11.001 Z8.173
X13.249 Y11.008 Z8.248
X13.293 Y11.017 Z8.317
X13.347 Y11.029 Z8.378
X13.411 Y11.042 Z8.428
X13.477 Y11.057 Z8.483
X13.534 Y11.069 Z8.548
X13.578 Y11.079 Z8.622
X13.61 Y11.085 Z8.703
X13.627 Y11.089 Z8.789
X13.629 Y11.09 Z8.876
X13.617 Y11.087 Z8.962
X13.59 Y11.081 Z9.045
X13.549 Y11.072 Z9.121
X13.496 Y11.061 Z9.19
X13.432 Y11.047 Z9.247
X13.36 Y11.031 Z9.293
X13.28 Y11.014 Z9.325
X13.197 Y10.996 Z9.342
X13.112 Y10.978 Z9.345
X13.027 Y10.96 Z9.332
X12.947 Y10.943 Z9.304
X12.872 Y10.926 Z9.263
X12.809 Y10.913 Z9.212
X12.754 Y10.901 Z9.151
X12.711 Y10.892 Z9.083
X12.679 Y10.885 Z9.007
X12.659 Y10.881 Z8.928
X12.652 Y10.879 Z8.846
X12.659 Y10.881 Z8.764
X12.679 Y10.885 Z8.684
X12.711 Y10.892 Z8.609
X12.754 Y10.901 Z8.54
X12.809 Y10.913 Z8.479
X12.872 Y10.926 Z8.428
X12.935 Y10.94 Z8.378
X12.989 Y10.952 Z8.317
X13.033 Y10.961 Z8.248
X13.065 Y10.968 Z8.173
X13.085 Y10.972 Z8.093
X13.091 Y10.974 Z8.011
Z0.069
Y10.968 Z0.043 F10
Y10.953 Z0.02
Y10.931 Z0.005
Y10.905 Z0
Y10.888 Z8.007 F30
G2 Y11.095 Z8.214 J0.207 K0
G1 Y11.253
G2 Y11.46 Z8.007 J0 K-0.207
G1 Z8
Y11.459 Z0
X12.991
Y11.46 Z8
Y11.455 Z8.026
Y11.44 Z8.049
Y11.417 Z8.064
Y11.391 Z8.069
Y10.844
Y10.817 Z8.064 F10
Y10.795 Z8.049
Y10.78 Z8.026
Y10.775 Z8
Z0.069
Y10.769 Z0.043
Y10.754 Z0.02
Y10.732 Z0.005
Y10.706 Z0
Y10.686 Z8.005 F30
X12.891 Y10.295 Z0
Z8
G2 Y10.502 Z8.207 J0.207 K0
G1 Y11.253
G2 Y11.46 Z8 J0 K-0.207
G1 Y11.459 Z0
X12.791
Y11.46 Z8
X12.691
Y11.459 Z0
X12.591
Y11.46 Z8
X12.491
Y11.459 Z0
X12.391
Y11.46 Z8
X12.291
Y11.459 Z0
X12.191
Y11.46 Z8
X12.091
Y11.459 Z0
Y11.433 Z0.005
Y11.411 Z0.02
Y11.396 Z0.043
Y11.39 Z0.069
Z8
X12.097 Y11.387 Z8.081
X12.115 Y11.379 Z8.161
X12.144 Y11.365 Z8.236
X12.184 Y11.346 Z8.304
X12.234 Y11.322 Z8.365
X12.292 Y11.294 Z8.416
X12.353 Y11.265 Z8.47
X12.405 Y11.24 Z8.536
X12.446 Y11.22 Z8.61
X12.474 Y11.207 Z8.692
X12.489 Y11.199 Z8.777
X12.491 Z8.864
X12.479 Y11.204 Z8.95
X12.454 Y11.216 Z9.033
X12.416 Y11.235 Z9.109
X12.367 Y11.258 Z9.177
X12.308 Y11.286 Z9.235
X12.241 Y11.319 Z9.28
X12.167 Y11.354 Z9.312
X12.09 Y11.391 Z9.329
X12.012 Y11.428 Z9.33
X11.934 Y11.466 Z9.317
X11.86 Y11.501 Z9.289
X11.791 Y11.534 Z9.247
X11.728 Y11.564 Z9.191
X11.676 Y11.59 Z9.124
X11.635 Y11.609 Z9.047
X11.606 Y11.623 Z8.964
X11.592 Y11.63 Z8.876
Z8.787
X11.606 Y11.623 Z8.699
X11.635 Y11.609 Z8.616
X11.676 Y11.59 Z8.539
X11.728 Y11.564 Z8.472
X11.791 Y11.534 Z8.416
X11.849 Y11.507 Z8.365
X11.898 Y11.483 Z8.304
X11.938 Y11.464 Z8.236
X11.967 Y11.45 Z8.161
X11.985 Y11.441 Z8.081
X11.991 Y11.438 Z8
Z0 F30
Y11.411 Z0.005
Y11.389 Z0.02
Y11.374 Z0.043
Y11.369 Z0.069
Z8
X11.997 Y11.366 Z8.082
X12.015 Y11.358 Z8.161
X12.045 Y11.344 Z8.236
X12.085 Y11.326 Z8.305
X12.135 Y11.303 Z8.365
X12.194 Y11.277 Z8.416
X12.256 Y11.249 Z8.47
X12.308 Y11.225 Z8.536
X12.349 Y11.206 Z8.61
X12.378 Y11.193 Z8.692
X12.394 Y11.186 Z8.777
X12.395 Y11.185 Z8.864
X12.383 Y11.191 Z8.95
X12.358 Y11.202 Z9.033
X12.32 Y11.22 Z9.109
X12.27 Y11.242 Z9.177
X12.211 Y11.269 Z9.235
X12.143 Y11.3 Z9.28
X12.069 Y11.334 Z9.312
X11.991 Y11.369 Z9.329
X11.912 Y11.405 Z9.331
X11.833 Y11.441 Z9.318
X11.758 Y11.475 Z9.29
X11.689 Y11.506 Z9.248
X11.625 Y11.535 Z9.192
X11.572 Y11.559 Z9.125
X11.531 Y11.578 Z9.048
X11.502 Y11.591 Z8.964
X11.488 Y11.598 Z8.877
Z8.787
X11.502 Y11.591 Z8.7
X11.531 Y11.578 Z8.616
X11.572 Y11.559 Z8.539
X11.625 Y11.535 Z8.472
X11.689 Y11.506 Z8.416
X11.747 Y11.48 Z8.365
X11.797 Y11.457 Z8.305
X11.837 Y11.439 Z8.236
X11.867 Y11.425 Z8.161
X11.885 Y11.417 Z8.082
X11.891 Y11.414 Z8
Z0 F30
Y11.387 Z0.005
Y11.365 Z0.02
Y11.35 Z0.043
Y11.345 Z0.069
Z8
X11.897 Y11.342 Z8.082
X11.915 Y11.334 Z8.161
X11.945 Y11.32 Z8.236
X11.985 Y11.302 Z8.305
X12.035 Y11.279 Z8.365
X12.094 Y11.253 Z8.416
X12.156 Y11.225 Z8.47
X12.208 Y11.201 Z8.536
X12.249 Y11.182 Z8.61
X12.278 Y11.169 Z8.692
X12.294 Y11.162 Z8.777
X12.296 Y11.161 Z8.864
X12.283 Y11.167 Z8.95
X12.258 Y11.178 Z9.033
X12.22 Y11.196 Z9.109
X12.17 Y11.218 Z9.177
X12.111 Y11.245 Z9.235
X12.043 Y11.276 Z9.28
X11.969 Y11.31 Z9.312
X11.891 Y11.345 Z9.329
X11.812 Y11.381 Z9.331
X11.733 Y11.417 Z9.318
X11.658 Y11.451 Z9.29
X11.589 Y11.482 Z9.248
X11.525 Y11.511 Z9.192
X11.472 Y11.535 Z9.125
X11.431 Y11.554 Z9.048
X11.402 Y11.567 Z8.964
X11.388 Y11.574 Z8.877
Z8.787
X11.402 Y11.567 Z8.7
X11.431 Y11.554 Z8.616
X11.472 Y11.535 Z8.539
X11.525 Y11.511 Z8.472
X11.589 Y11.482 Z8.416
X11.647 Y11.456 Z8.365
X11.697 Y11.433 Z8.305
X11.737 Y11.415 Z8.236
X11.767 Y11.401 Z8.161
X11.785 Y11.393 Z8.082
X11.791 Y11.39 Z8
Z0 F30
Y11.347 Z0.007
Y11.309 Z0.026
Y11.278 Z0.057
Y11.259 Z0.095
Y11.252 Z0.138
Z19
G17
M5
M30
