(1029Adaptive)
(Machine)
(  vendor: Nikodem Bartnik)
(  model: Generic 3-axis Router)
(  description: This machine has XYZ axis on the Head)
(T1  D=3.175 CR=0 - ZMIN=-0.2 - flat end mill)
G90 G94
G17
G21
(When using Fusion 360 for Personal Use, the feedrate of)
(rapid moves is reduced to match the feedrate of cutting)
(moves, which can increase machining time. Unrestricted rapid)
(moves are available with a Fusion 360 Subscription.)

(2D Adaptive2)
T1
S5000 M3
G54
G0 X5.8 Y5.058
Z26
G1 Z16 F50
Z10.1
G3 X4.267 Y5.143 Z9.976 I-0.799 J-0.558 F30
X4.551 Y3.638 Z9.853 I0.731 J-0.641
X5.941 Y4.271 Z9.729 I0.447 J0.861
X4.996 Y5.467 Z9.606 I-0.941 J0.228
X4.062 Y4.267 Z9.482 I0.004 J-0.966
X5.448 Y3.649 Z9.359 I0.935 J0.234
X5.717 Y5.139 Z9.235 I-0.45 J0.85
X4.209 Y5.043 Z9.112 I-0.716 J-0.639
X4.661 Y3.605 Z8.988 I0.79 J-0.542
X5.946 Y4.386 Z8.865 I0.337 J0.894
X4.883 Y5.445 Z8.741 I-0.947 J0.113
X4.111 Y4.163 Z8.618 I0.116 J-0.944
X5.538 Y3.72 Z8.494 I0.887 J0.338
X5.626 Y5.208 Z8.371 I-0.539 J0.779
X4.163 Y4.939 Z8.247 I-0.626 J-0.708
X4.773 Y3.586 Z8.124 I0.835 J-0.437
X5.938 Y4.499 Z8 I0.225 J0.913
X4.057 Y4.499 I-0.94 J0
X5.938 Y4.499 I0.94 J0
G1 X5.955 Y4.826 F50
X5.956 Y4.976
X5.878 Y5.159
X5.76 Y5.319
X5.608 Y5.447
X5.43 Y5.536
X5.341 Y5.569
X5.261 Y5.594
X5.195 Y5.615
X5.158 Y5.62
X5.122 Y5.621
X4.903
X4.83 Y5.619
X4.794 Y5.613
X4.757 Y5.604
X4.611 Y5.551
X4.465 Y5.497
X4.43 Y5.479
X4.32 Y5.392
X4.174 Y5.269
X4.133 Y5.228
X4.103 Y5.188
X4.019 Y5.042
X3.94 Y4.897
X3.927 Y4.86
X3.919 Y4.824
X3.874 Y4.566
X3.869 Y4.533
X3.868 Y4.496
X3.87 Y4.46
X3.895 Y4.315
X3.92 Y4.169
X3.929 Y4.133
X3.942 Y4.096
X3.981 Y4.023
X4.089 Y3.838
X4.108 Y3.805
X4.135 Y3.769
X4.174 Y3.73
X4.345 Y3.587
X4.405 Y3.538
X4.435 Y3.519
X4.465 Y3.503
X4.632 Y3.441
X4.757 Y3.396
X4.794 Y3.387
X4.83 Y3.381
X4.903 Y3.379
X5.122
X5.158 Y3.38
X5.195 Y3.385
X5.341 Y3.431
X5.487 Y3.485
X5.56 Y3.515
X5.596 Y3.538
X5.655 Y3.587
X5.829 Y3.732
X5.861 Y3.764
X5.885 Y3.796
X5.935 Y3.878
X6.036 Y4.053
X6.049 Y4.078
X6.07 Y4.132
X6.08 Y4.169
X6.13 Y4.46
X6.132 Y4.496
X6.131 Y4.533
X6.119 Y4.606
X6.094 Y4.751
X6.07 Y4.869
X6.06 Y4.897
X5.981 Y5.042
X5.897 Y5.188
X5.876 Y5.218
X5.849 Y5.249
X5.75 Y5.333
X5.633 Y5.432
X5.569 Y5.479
X5.528 Y5.5
X5.43 Y5.536
G3 X5.041 Y5.361 I-0.098 J-0.302
G1 X5.027 Y5.296 Z8.007
X5.015 Y5.234 Z8.028
X5.027 Y5.187 Z8.056
X5.037 Y5.145 Z8.093
X5.046 Y5.11 Z8.136
X5.053 Y5.082 Z8.185
X5.064 Y5.064 Z8.25
X5.068 Y5.058 Z8.317
Z16
X5.798 Y17.061
Z10.1
G3 X4.265 Y17.141 Z9.976 I-0.798 J-0.561 F30
X4.553 Y15.637 Z9.853 I0.733 J-0.639
X5.942 Y16.274 Z9.729 I0.445 J0.863
X4.993 Y17.467 Z9.606 I-0.942 J0.225
X4.063 Y16.264 Z9.482 I0.006 J-0.966
X5.45 Y15.649 Z9.359 I0.935 J0.236
X5.715 Y17.14 Z9.235 I-0.452 J0.849
X4.208 Y17.042 Z9.112 I-0.715 J-0.64
X4.662 Y15.605 Z8.988 I0.791 J-0.54
X5.947 Y16.388 Z8.865 I0.335 J0.895
X4.882 Y17.445 Z8.741 I-0.947 J0.112
X4.111 Y16.162 Z8.618 I0.118 J-0.944
X5.538 Y15.721 Z8.494 I0.887 J0.339
X5.625 Y17.208 Z8.371 I-0.539 J0.778
X4.163 Y16.939 Z8.247 I-0.625 J-0.708
X4.773 Y15.586 Z8.124 I0.835 J-0.437
X5.938 Y16.499 Z8 I0.225 J0.913
X4.057 Y16.499 I-0.94 J0
X5.938 Y16.499 I0.94 J0
G1 X5.955 Y16.825 F50
X5.956 Y16.975
X5.878 Y17.159
X5.76 Y17.319
X5.608 Y17.447
X5.43 Y17.536
X5.341 Y17.569
X5.261 Y17.594
X5.195 Y17.615
X5.158 Y17.62
X5.122 Y17.621
X4.903
X4.83 Y17.619
X4.794 Y17.613
X4.757 Y17.604
X4.611 Y17.551
X4.465 Y17.497
X4.435 Y17.481
X4.405 Y17.462
X4.32 Y17.392
X4.171 Y17.268
X4.135 Y17.231
X4.108 Y17.195
X4.028 Y17.058
X3.981 Y16.977
X3.942 Y16.904
X3.929 Y16.867
X3.92 Y16.831
X3.875 Y16.573
X3.87 Y16.54
X3.868 Y16.503
X3.869 Y16.467
X3.882 Y16.387
X3.919 Y16.176
X3.927 Y16.14
X3.94 Y16.103
X4.028 Y15.942
X4.103 Y15.812
X4.133 Y15.772
X4.174 Y15.731
X4.32 Y15.608
X4.38 Y15.56
X4.408 Y15.539
X4.43 Y15.523
X4.465 Y15.503
X4.515 Y15.494
X4.565 Y15.498
X4.613 Y15.515
X4.654 Y15.544
X4.686 Y15.583
X4.7 Y15.611
X4.709 Y15.641
G3 X4.346 Y15.72 I-0.181 J0.04 F20
X4.408 Y15.539 I0.181 J-0.04
G1 X4.43 Y15.521 F50
X4.465 Y15.503
X4.611 Y15.449
X4.692 Y15.42
X4.757 Y15.396
X4.794 Y15.387
X4.83 Y15.381
X4.903 Y15.379
X5.122
X5.158 Y15.38
X5.195 Y15.385
X5.341 Y15.431
X5.528 Y15.5
X5.569 Y15.521
X5.633 Y15.568
X5.778 Y15.69
X5.8 Y15.709
X5.852 Y15.764
X5.899 Y15.823
X5.94 Y15.887
G3 X5.809 Y16.317 Z8.2 I-0.28 J0.149
X5.404 Y16.225 I-0.149 J-0.28
G1 X5.345 Y16.144
X5.316 Y16.096
X5.296 Y16.044
X5.285 Y15.989
Y15.927 F20
X5.296 Y15.866
X5.32 Y15.809
X5.354 Y15.757
G3 X5.8 Y15.709 Z8 I0.247 J0.199
G1 X5.849 Y15.751 F50
X5.876 Y15.782
X5.897 Y15.812
X5.981 Y15.958
X6.025 Y16.038
X6.06 Y16.103
X6.07 Y16.131
X6.094 Y16.249
X6.119 Y16.394
X6.131 Y16.467
X6.132 Y16.503
X6.13 Y16.54
X6.08 Y16.831
X6.07 Y16.868
X6.049 Y16.922
X6.019 Y16.977
X5.924 Y17.14
X5.885 Y17.204
X5.861 Y17.236
X5.829 Y17.268
X5.633 Y17.432
X5.596 Y17.462
X5.56 Y17.485
X5.487 Y17.516
X5.43 Y17.536
G3 X5.041 Y17.361 I-0.098 J-0.302
G1 X5.027 Y17.296 Z8.007
X5.014 Y17.234 Z8.028
X5.027 Y17.187 Z8.056
X5.037 Y17.145 Z8.093
X5.046 Y17.11 Z8.136
X5.053 Y17.083 Z8.185
X5.064 Y17.064 Z8.25
X5.068 Y17.058 Z8.317
Z16
X18.144 Y5.854
Z10.1
G3 X16.976 Y7.189 Z9.96 I-1.18 J0.146 F30
X15.783 Y5.881 Z9.82 I-0.012 J-1.187
X17.215 Y4.846 Z9.68 I1.178 J0.121
X18.081 Y6.381 Z9.54 I-0.253 J1.154
X16.46 Y7.067 Z9.4 I-1.116 J-0.38
X15.963 Y5.383 Z9.26 I0.503 J-1.064
X17.688 Y5.079 Z9.12 I0.999 J0.618
X17.796 Y6.824 Z8.98 I-0.725 J0.921
X16.053 Y6.735 Z8.84 I-0.831 J-0.823
X16.338 Y5.017 Z8.7 I0.909 J-0.732
X18.009 Y5.493 Z8.56 I0.623 J0.984
X17.35 Y7.096 Z8.42 I-1.046 J0.507
X15.834 Y6.262 Z8.28 I-0.385 J-1.094
X16.831 Y4.853 Z8.14 I1.128 J-0.259
X18.116 Y6 Z8 I0.13 J1.148
X15.807 Y6 I-1.155 J0
X18.116 Y6 I1.155 J0
G1 X18.141 Y6.374 F50
X18.144 Y6.524
X18.11 Y6.67
X18.05 Y6.807
X18.001 Y6.883
X17.968 Y6.928
X17.932 Y6.972
X17.908 Y7.001
X17.887 Y7.025
X17.857 Y7.056
X17.826 Y7.08
X17.741 Y7.129
X17.575 Y7.225
X17.44 Y7.291
X17.403 Y7.305
X17.365 Y7.316
X17.326 Y7.324
G3 X16.967 Y7.054 Z8.2 I-0.044 J-0.314
X17.157 Y6.718 I0.314 J-0.044
G1 X17.282 Y6.664
X17.346 Y6.644
X17.413 Y6.639
X17.48 Y6.647
X17.538 Y6.667 F20
X17.592 Y6.698
X17.639 Y6.739
X17.676 Y6.788
G3 X17.575 Y7.225 Z8 I-0.269 J0.168
G1 X17.45 Y7.294 F50
X17.413 Y7.307
X17.377 Y7.315
X17.105 Y7.363
X17.061 Y7.371
X17.012 Y7.379
X16.947 Y7.382
G3 X16.683 Y7.033 Z8.2 I0.014 J-0.285
X17.059 Y6.829 I0.278 J0.064
G1 X17.114 Y6.856 F20
X17.163 Y6.895
X17.202 Y6.943
X17.229 Y6.998
G3 X17.102 Y7.345 Z8.039 I-0.268 J0.099
G1 X17.058 Y7.366 Z8.019
X17.012 Y7.379 Z8
X16.976 Y7.383 F50
X16.939 Y7.382
X16.866 Y7.371
X16.64 Y7.331
X16.604 Y7.325
X16.574 Y7.319
X16.47 Y7.291
G3 X16.237 Y6.887 Z8.2 I0.16 J-0.361
G1 X16.249 Y6.824
G3 X17.017 Y6.857 I0.38 J0.105
G1 X17.023 Y6.918 F20
X17.02 Y6.98
X17.007 Y7.041
X16.985 Y7.099
G3 X16.574 Y7.319 Z8 I-0.356 J-0.17
G1 X16.501 Y7.303 F50
X16.465 Y7.288
X16.428 Y7.269
X16.202 Y7.139
X16.137 Y7.101
X16.103 Y7.08
X16.071 Y7.054
X16.039 Y7.023
X15.845 Y6.793
X15.841 Y6.789
X15.756 Y6.67
G3 X15.924 Y6.254 Z8.2 I0.292 J-0.124
X16.277 Y6.326 I0.124 J0.292
G1 X16.306 Y6.356
G3 X16.394 Y6.594 I-0.228 J0.221
G1 X16.385 Y6.655 F20
X16.363 Y6.714
X16.331 Y6.767
X16.29 Y6.812
G3 X15.841 Y6.789 Z8 I-0.212 J-0.236
G1 X15.783 Y6.716 F50
X15.76 Y6.68
X15.743 Y6.643
X15.648 Y6.382
X15.637 Y6.352
X15.623 Y6.312
X15.609 Y6.257
X15.601 Y6.201
X15.598 Y6.144
G3 X15.923 Y5.835 Z8.2 I0.317 J0.009
X16.232 Y6.129 I-0.008 J0.317
G1 X16.235 Y6.171
X16.234 Y6.222
X16.226 Y6.273
X16.209 Y6.322
X16.179 Y6.376 F20
X16.139 Y6.423
X16.09 Y6.461
X16.035 Y6.49
G3 X15.623 Y6.312 Z8 I-0.117 J-0.295
G1 X15.611 Y6.279 F50
X15.602 Y6.243
X15.598 Y6.207
X15.597 Y6.061
Y5.915
X15.598 Y5.871
X15.599 Y5.841
X15.606 Y5.742
X15.62 Y5.711 F20
X15.643 Y5.687
X15.674 Y5.674
X15.707 Y5.673
X15.739 Y5.684
X15.765 Y5.706
X15.78 Y5.735
X15.784 Y5.768
X15.78 Y5.846
X15.771 Y5.879
X15.75 Y5.907
X15.721 Y5.925
X15.687 Y5.93
X15.653 Y5.923
X15.625 Y5.903
X15.606 Y5.875
X15.599 Y5.841
X15.6 Y5.77 F50
X15.608 Y5.734
X15.619 Y5.697
X15.715 Y5.435
X15.727 Y5.404
X15.741 Y5.365
X15.762 Y5.316
G3 X16.091 Y5.209 I0.225 J0.132
X16.223 Y5.56 I-0.103 J0.239
X15.741 Y5.365 I-0.235 J-0.112 F20
G1 X15.753 Y5.333 F50
X15.77 Y5.302
X15.792 Y5.27
X15.983 Y5.042
X15.991 Y5.033
X16.013 Y5.009
X16.093 Y4.928
G3 X16.538 Y4.986 Z8.2 I0.193 J0.252
X16.52 Y5.394 I-0.252 J0.193
G1 X16.491 Y5.427
X16.447 Y5.466
X16.397 Y5.497
X16.341 Y5.518
X16.283 Y5.529
X16.221 Y5.528 F20
X16.161 Y5.515
X16.104 Y5.491
X16.053 Y5.456
G3 X16.013 Y5.009 Z8 I0.204 J-0.243
G1 X16.064 Y4.952 F50
X16.1 Y4.922
X16.141 Y4.897
X16.343 Y4.78
X16.371 Y4.764
X16.393 Y4.751
X16.491 Y4.701
X16.525 Y4.696 F20
X16.558 Y4.703
X16.586 Y4.722
X16.605 Y4.75
X16.612 Y4.783
X16.607 Y4.816
X16.59 Y4.846
X16.563 Y4.866
X16.483 Y4.908
X16.45 Y4.918
X16.415 Y4.915
X16.385 Y4.899
X16.362 Y4.873
X16.351 Y4.84
X16.353 Y4.806
X16.368 Y4.775
X16.393 Y4.751
X16.428 Y4.731 F50
X16.465 Y4.711
X16.501 Y4.697
X16.574 Y4.681
X16.8 Y4.641
X16.837 Y4.634
X16.866 Y4.629
X16.978 Y4.618
G3 X17.288 Y4.936 Z8.192 I-0.047 J0.356
G1 X17.289 Y4.956 Z8.2
G3 X16.686 Y5.216 I-0.35 J0.017
G1 X16.648 Y5.168 F20
X16.618 Y5.113
X16.598 Y5.055
X16.589 Y4.993
G3 X16.866 Y4.629 Z8 I0.35 J-0.021
G1 X16.939 Y4.618 F50
X16.975 Y4.617
X17.012 Y4.621
X17.304 Y4.672
X17.344 Y4.679
X17.377 Y4.685
X17.439 Y4.702
G3 X17.59 Y5.116 Z8.2 I-0.106 J0.273
X17.134 Y5.191 I-0.258 J-0.14
G1 X17.093 Y5.144 F20
X17.063 Y5.09
X17.045 Y5.031
X17.04 Y4.969
G3 X17.289 Y4.685 Z8.035 I0.293 J0.006
G1 X17.333 Y4.682 Z8.018
X17.377 Y4.685 Z8
X17.413 Y4.693 F50
X17.45 Y4.706
X17.535 Y4.751
X17.741 Y4.871
X17.787 Y4.897
X17.837 Y4.93
X17.862 Y4.95
X17.887 Y4.974
X18.067 Y5.188
X18.085 Y5.21
X18.159 Y5.308
G3 X18.023 Y5.736 Z8.2 I-0.282 J0.146
X17.64 Y5.665 I-0.146 J-0.282
G1 X17.612 Y5.634
X17.576 Y5.583
X17.549 Y5.527
X17.535 Y5.466
X17.532 Y5.404
X17.542 Y5.343 F20
X17.563 Y5.285
X17.595 Y5.232
X17.637 Y5.186
G3 X18.085 Y5.21 Z8 I0.212 J0.236
G1 X18.128 Y5.261 F50
X18.153 Y5.297
X18.174 Y5.333
X18.179 Y5.345
X18.282 Y5.624
X18.325 Y5.761
X18.327 Y5.77
X18.331 Y5.915
X18.33 Y6.207
X18.325 Y6.243
X18.29 Y6.352
X18.184 Y6.643
X18.179 Y6.656
X18.162 Y6.689
X18.14 Y6.722
X18.086 Y6.789
X17.932 Y6.972
G3 X17.508 Y7.014 I-0.235 J-0.213
G1 X17.473 Y6.972 Z8.005
X17.44 Y6.931 Z8.019
X17.409 Y6.892 Z8.042
X17.399 Y6.85 Z8.073
X17.391 Y6.812 Z8.111
X17.385 Y6.782 Z8.154
X17.38 Y6.759 Z8.202
Y6.743 Z8.259
Y6.737 Z8.317
Z16
X21.8 Y17.056
Z10.1
G3 X20.268 Y17.145 Z9.976 I-0.801 J-0.556 F30
X20.549 Y15.639 Z9.853 I0.73 J-0.643
X21.94 Y16.27 Z9.729 I0.449 J0.86
X20.997 Y17.468 Z9.606 I-0.941 J0.229
X20.062 Y16.268 Z9.482 I0.002 J-0.966
X21.447 Y15.648 Z9.359 I0.935 J0.233
X21.717 Y17.138 Z9.235 I-0.449 J0.851
X20.209 Y17.044 Z9.112 I-0.717 J-0.638
X20.66 Y15.606 Z8.988 I0.789 J-0.543
X21.946 Y16.386 Z8.865 I0.338 J0.894
X20.884 Y17.446 Z8.741 I-0.946 J0.114
X20.11 Y16.164 Z8.618 I0.116 J-0.944
X21.537 Y15.72 Z8.494 I0.887 J0.337
X21.626 Y17.208 Z8.371 I-0.538 J0.779
X20.163 Y16.939 Z8.247 I-0.626 J-0.707
X20.773 Y15.587 Z8.124 I0.835 J-0.438
X21.938 Y16.5 Z8 I0.225 J0.913
X20.057 Y16.5 I-0.94 J0
X21.938 Y16.5 I0.94 J0
G1 X21.954 Y16.826 F50
X21.955 Y16.976
X21.878 Y17.157
X21.762 Y17.316
X21.611 Y17.444
X21.436 Y17.534
X21.299 Y17.583
X21.243 Y17.604
X21.206 Y17.613
X21.17 Y17.619
X21.097 Y17.621
X20.878
X20.842 Y17.62
X20.805 Y17.615
X20.659 Y17.569
X20.513 Y17.516
X20.44 Y17.485
X20.404 Y17.462
X20.345 Y17.413
X20.171 Y17.268
X20.139 Y17.236
X20.115 Y17.204
X20.065 Y17.122
X19.964 Y16.947
X19.951 Y16.922
X19.93 Y16.868
X19.92 Y16.831
X19.87 Y16.54
X19.868 Y16.503
X19.869 Y16.467
X19.881 Y16.394
X19.906 Y16.249
X19.93 Y16.131
X19.94 Y16.103
X20.019 Y15.958
X20.103 Y15.812
X20.124 Y15.782
X20.151 Y15.751
X20.25 Y15.667
X20.367 Y15.568
X20.431 Y15.521
X20.472 Y15.5
X20.659 Y15.431
X20.739 Y15.406
X20.776 Y15.394
X20.817 Y15.383
X20.867 Y15.386
X20.915 Y15.402
X20.956 Y15.431
X20.988 Y15.47
X21.008 Y15.516
X21.013 Y15.554
G3 X20.658 Y15.57 I-0.178 J0.008 F20
X20.776 Y15.394 I0.178 J-0.008
G1 X20.805 Y15.385 F50
X20.842 Y15.38
X20.878 Y15.379
X21.097
X21.17 Y15.381
X21.206 Y15.387
X21.243 Y15.396
X21.389 Y15.449
X21.469 Y15.479
X21.505 Y15.492
X21.545 Y15.512
X21.584 Y15.535
X21.621 Y15.561
G3 X21.658 Y16.008 Z8.2 I-0.205 J0.242
X21.201 Y16.037 I-0.243 J-0.205
G1 X21.19 Y16.027
X21.151 Y15.984
X21.12 Y15.934
X21.098 Y15.876 F20
X21.088 Y15.815
X21.09 Y15.753
X21.104 Y15.693
G3 X21.505 Y15.492 Z8 I0.301 J0.1
G1 X21.535 Y15.503 F50
X21.57 Y15.521
X21.68 Y15.608
X21.792 Y15.702
X21.826 Y15.731
X21.867 Y15.772
X21.897 Y15.812
X21.981 Y15.958
X22.06 Y16.103
X22.073 Y16.14
X22.081 Y16.176
X22.119 Y16.394
X22.131 Y16.467
X22.132 Y16.503
X22.13 Y16.54
X22.105 Y16.685
X22.08 Y16.831
X22.071 Y16.867
X22.058 Y16.904
X22.019 Y16.977
X21.935 Y17.122
X21.892 Y17.195
X21.865 Y17.231
X21.826 Y17.27
X21.655 Y17.413
X21.595 Y17.462
X21.565 Y17.481
X21.535 Y17.497
X21.436 Y17.534
G3 X21.046 Y17.361 I-0.1 J-0.301
G1 X21.032 Y17.296 Z8.007
X21.018 Y17.233 Z8.029
Y17.232
X21.03 Y17.184 Z8.058
X21.041 Y17.142 Z8.095
X21.05 Y17.107 Z8.14
X21.057 Y17.081 Z8.19
X21.067 Y17.064 Z8.253
X21.07 Y17.058 Z8.317
Z16
X5.8 Y5.058
Z8.1
G3 X4.267 Y5.143 Z7.976 I-0.799 J-0.558 F30
X4.551 Y3.638 Z7.853 I0.731 J-0.641
X5.941 Y4.271 Z7.729 I0.447 J0.861
X4.996 Y5.467 Z7.606 I-0.941 J0.228
X4.062 Y4.267 Z7.482 I0.004 J-0.966
X5.448 Y3.649 Z7.359 I0.935 J0.234
X5.717 Y5.139 Z7.235 I-0.45 J0.85
X4.209 Y5.043 Z7.112 I-0.716 J-0.639
X4.661 Y3.605 Z6.988 I0.79 J-0.542
X5.946 Y4.386 Z6.865 I0.337 J0.894
X4.883 Y5.445 Z6.741 I-0.947 J0.113
X4.111 Y4.163 Z6.618 I0.116 J-0.944
X5.538 Y3.72 Z6.494 I0.887 J0.338
X5.626 Y5.208 Z6.371 I-0.539 J0.779
X4.163 Y4.939 Z6.247 I-0.626 J-0.708
X4.773 Y3.586 Z6.124 I0.835 J-0.437
X5.938 Y4.499 Z6 I0.225 J0.913
X4.057 Y4.499 I-0.94 J0
X5.938 Y4.499 I0.94 J0
G1 X5.955 Y4.826 F50
X5.956 Y4.976
X5.878 Y5.159
X5.76 Y5.319
X5.608 Y5.447
X5.43 Y5.536
X5.341 Y5.569
X5.261 Y5.594
X5.195 Y5.615
X5.158 Y5.62
X5.122 Y5.621
X4.903
X4.83 Y5.619
X4.794 Y5.613
X4.757 Y5.604
X4.611 Y5.551
X4.465 Y5.497
X4.43 Y5.479
X4.32 Y5.392
X4.174 Y5.269
X4.133 Y5.228
X4.103 Y5.188
X4.019 Y5.042
X3.94 Y4.897
X3.927 Y4.86
X3.919 Y4.824
X3.874 Y4.566
X3.869 Y4.533
X3.868 Y4.496
X3.87 Y4.46
X3.895 Y4.315
X3.92 Y4.169
X3.929 Y4.133
X3.942 Y4.096
X3.981 Y4.023
X4.089 Y3.838
X4.108 Y3.805
X4.135 Y3.769
X4.174 Y3.73
X4.345 Y3.587
X4.405 Y3.538
X4.435 Y3.519
X4.465 Y3.503
X4.632 Y3.441
X4.757 Y3.396
X4.794 Y3.387
X4.83 Y3.381
X4.903 Y3.379
X5.122
X5.158 Y3.38
X5.195 Y3.385
X5.341 Y3.431
X5.487 Y3.485
X5.56 Y3.515
X5.596 Y3.538
X5.655 Y3.587
X5.829 Y3.732
X5.861 Y3.764
X5.885 Y3.796
X5.935 Y3.878
X6.036 Y4.053
X6.049 Y4.078
X6.07 Y4.132
X6.08 Y4.169
X6.13 Y4.46
X6.132 Y4.496
X6.131 Y4.533
X6.119 Y4.606
X6.094 Y4.751
X6.07 Y4.869
X6.06 Y4.897
X5.981 Y5.042
X5.897 Y5.188
X5.876 Y5.218
X5.849 Y5.249
X5.75 Y5.333
X5.633 Y5.432
X5.569 Y5.479
X5.528 Y5.5
X5.43 Y5.536
G3 X5.041 Y5.361 I-0.098 J-0.302
G1 X5.027 Y5.296 Z6.007
X5.015 Y5.234 Z6.028
X5.027 Y5.187 Z6.056
X5.037 Y5.145 Z6.093
X5.046 Y5.11 Z6.136
X5.053 Y5.082 Z6.185
X5.064 Y5.064 Z6.25
X5.068 Y5.058 Z6.317
Z16
X5.798 Y17.061
Z8.1
G3 X4.265 Y17.141 Z7.976 I-0.798 J-0.561 F30
X4.553 Y15.637 Z7.853 I0.733 J-0.639
X5.942 Y16.274 Z7.729 I0.445 J0.863
X4.993 Y17.467 Z7.606 I-0.942 J0.225
X4.063 Y16.264 Z7.482 I0.006 J-0.966
X5.45 Y15.649 Z7.359 I0.935 J0.236
X5.715 Y17.14 Z7.235 I-0.452 J0.849
X4.208 Y17.042 Z7.112 I-0.715 J-0.64
X4.662 Y15.605 Z6.988 I0.791 J-0.54
X5.947 Y16.388 Z6.865 I0.335 J0.895
X4.882 Y17.445 Z6.741 I-0.947 J0.112
X4.111 Y16.162 Z6.618 I0.118 J-0.944
X5.538 Y15.721 Z6.494 I0.887 J0.339
X5.625 Y17.208 Z6.371 I-0.539 J0.778
X4.163 Y16.939 Z6.247 I-0.625 J-0.708
X4.773 Y15.586 Z6.124 I0.835 J-0.437
X5.938 Y16.499 Z6 I0.225 J0.913
X4.057 Y16.499 I-0.94 J0
X5.938 Y16.499 I0.94 J0
G1 X5.955 Y16.825 F50
X5.956 Y16.975
X5.878 Y17.159
X5.76 Y17.319
X5.608 Y17.447
X5.43 Y17.536
X5.341 Y17.569
X5.261 Y17.594
X5.195 Y17.615
X5.158 Y17.62
X5.122 Y17.621
X4.903
X4.83 Y17.619
X4.794 Y17.613
X4.757 Y17.604
X4.611 Y17.551
X4.465 Y17.497
X4.435 Y17.481
X4.405 Y17.462
X4.32 Y17.392
X4.171 Y17.268
X4.135 Y17.231
X4.108 Y17.195
X4.028 Y17.058
X3.981 Y16.977
X3.942 Y16.904
X3.929 Y16.867
X3.92 Y16.831
X3.875 Y16.573
X3.87 Y16.54
X3.868 Y16.503
X3.869 Y16.467
X3.882 Y16.387
X3.919 Y16.176
X3.927 Y16.14
X3.94 Y16.103
X4.028 Y15.942
X4.103 Y15.812
X4.133 Y15.772
X4.174 Y15.731
X4.32 Y15.608
X4.38 Y15.56
X4.408 Y15.539
X4.43 Y15.523
X4.465 Y15.503
X4.515 Y15.494
X4.565 Y15.498
X4.613 Y15.515
X4.654 Y15.544
X4.686 Y15.583
X4.7 Y15.611
X4.709 Y15.641
G3 X4.346 Y15.72 I-0.181 J0.04 F20
X4.408 Y15.539 I0.181 J-0.04
G1 X4.43 Y15.521 F50
X4.465 Y15.503
X4.611 Y15.449
X4.692 Y15.42
X4.757 Y15.396
X4.794 Y15.387
X4.83 Y15.381
X4.903 Y15.379
X5.122
X5.158 Y15.38
X5.195 Y15.385
X5.341 Y15.431
X5.528 Y15.5
X5.569 Y15.521
X5.633 Y15.568
X5.778 Y15.69
X5.8 Y15.709
X5.852 Y15.764
X5.899 Y15.823
X5.94 Y15.887
G3 X5.809 Y16.317 Z6.2 I-0.28 J0.149
X5.404 Y16.225 I-0.149 J-0.28
G1 X5.345 Y16.144
X5.316 Y16.096
X5.296 Y16.044
X5.285 Y15.989
Y15.927 F20
X5.296 Y15.866
X5.32 Y15.809
X5.354 Y15.757
G3 X5.8 Y15.709 Z6 I0.247 J0.199
G1 X5.849 Y15.751 F50
X5.876 Y15.782
X5.897 Y15.812
X5.981 Y15.958
X6.025 Y16.038
X6.06 Y16.103
X6.07 Y16.131
X6.094 Y16.249
X6.119 Y16.394
X6.131 Y16.467
X6.132 Y16.503
X6.13 Y16.54
X6.08 Y16.831
X6.07 Y16.868
X6.049 Y16.922
X6.019 Y16.977
X5.924 Y17.14
X5.885 Y17.204
X5.861 Y17.236
X5.829 Y17.268
X5.633 Y17.432
X5.596 Y17.462
X5.56 Y17.485
X5.487 Y17.516
X5.43 Y17.536
G3 X5.041 Y17.361 I-0.098 J-0.302
G1 X5.027 Y17.296 Z6.007
X5.014 Y17.234 Z6.028
X5.027 Y17.187 Z6.056
X5.037 Y17.145 Z6.093
X5.046 Y17.11 Z6.136
X5.053 Y17.083 Z6.185
X5.064 Y17.064 Z6.25
X5.068 Y17.058 Z6.317
Z16
X18.144 Y5.854
Z8.1
G3 X16.976 Y7.189 Z7.96 I-1.18 J0.146 F30
X15.783 Y5.881 Z7.82 I-0.012 J-1.187
X17.215 Y4.846 Z7.68 I1.178 J0.121
X18.081 Y6.381 Z7.54 I-0.253 J1.154
X16.46 Y7.067 Z7.4 I-1.116 J-0.38
X15.963 Y5.383 Z7.26 I0.503 J-1.064
X17.688 Y5.079 Z7.12 I0.999 J0.618
X17.796 Y6.824 Z6.98 I-0.725 J0.921
X16.053 Y6.735 Z6.84 I-0.831 J-0.823
X16.338 Y5.017 Z6.7 I0.909 J-0.732
X18.009 Y5.493 Z6.56 I0.623 J0.984
X17.35 Y7.096 Z6.42 I-1.046 J0.507
X15.834 Y6.262 Z6.28 I-0.385 J-1.094
X16.831 Y4.853 Z6.14 I1.128 J-0.259
X18.116 Y6 Z6 I0.13 J1.148
X15.807 Y6 I-1.155 J0
X18.116 Y6 I1.155 J0
G1 X18.141 Y6.374 F50
X18.144 Y6.524
X18.11 Y6.67
X18.05 Y6.807
X18.001 Y6.883
X17.968 Y6.928
X17.932 Y6.972
X17.908 Y7.001
X17.887 Y7.025
X17.857 Y7.056
X17.826 Y7.08
X17.741 Y7.129
X17.575 Y7.225
X17.44 Y7.291
X17.403 Y7.305
X17.365 Y7.316
X17.326 Y7.324
G3 X16.967 Y7.054 Z6.2 I-0.044 J-0.314
X17.157 Y6.718 I0.314 J-0.044
G1 X17.282 Y6.664
X17.346 Y6.644
X17.413 Y6.639
X17.48 Y6.647
X17.538 Y6.667 F20
X17.592 Y6.698
X17.639 Y6.739
X17.676 Y6.788
G3 X17.575 Y7.225 Z6 I-0.269 J0.168
G1 X17.45 Y7.294 F50
X17.413 Y7.307
X17.377 Y7.315
X17.105 Y7.363
X17.061 Y7.371
X17.012 Y7.379
X16.947 Y7.382
G3 X16.683 Y7.033 Z6.2 I0.014 J-0.285
X17.059 Y6.829 I0.278 J0.064
G1 X17.114 Y6.856 F20
X17.163 Y6.895
X17.202 Y6.943
X17.229 Y6.998
G3 X17.102 Y7.345 Z6.039 I-0.268 J0.099
G1 X17.058 Y7.366 Z6.019
X17.012 Y7.379 Z6
X16.976 Y7.383 F50
X16.939 Y7.382
X16.866 Y7.371
X16.64 Y7.331
X16.604 Y7.325
X16.574 Y7.319
X16.47 Y7.291
G3 X16.237 Y6.887 Z6.2 I0.16 J-0.361
G1 X16.249 Y6.824
G3 X17.017 Y6.857 I0.38 J0.105
G1 X17.023 Y6.918 F20
X17.02 Y6.98
X17.007 Y7.041
X16.985 Y7.099
G3 X16.574 Y7.319 Z6 I-0.356 J-0.17
G1 X16.501 Y7.303 F50
X16.465 Y7.288
X16.428 Y7.269
X16.202 Y7.139
X16.137 Y7.101
X16.103 Y7.08
X16.071 Y7.054
X16.039 Y7.023
X15.845 Y6.793
X15.841 Y6.789
X15.756 Y6.67
G3 X15.924 Y6.254 Z6.2 I0.292 J-0.124
X16.277 Y6.326 I0.124 J0.292
G1 X16.306 Y6.356
G3 X16.394 Y6.594 I-0.228 J0.221
G1 X16.385 Y6.655 F20
X16.363 Y6.714
X16.331 Y6.767
X16.29 Y6.812
G3 X15.841 Y6.789 Z6 I-0.212 J-0.236
G1 X15.783 Y6.716 F50
X15.76 Y6.68
X15.743 Y6.643
X15.648 Y6.382
X15.637 Y6.352
X15.623 Y6.312
X15.609 Y6.257
X15.601 Y6.201
X15.598 Y6.144
G3 X15.923 Y5.835 Z6.2 I0.317 J0.009
X16.232 Y6.129 I-0.008 J0.317
G1 X16.235 Y6.171
X16.234 Y6.222
X16.226 Y6.273
X16.209 Y6.322
X16.179 Y6.376 F20
X16.139 Y6.423
X16.09 Y6.461
X16.035 Y6.49
G3 X15.623 Y6.312 Z6 I-0.117 J-0.295
G1 X15.611 Y6.279 F50
X15.602 Y6.243
X15.598 Y6.207
X15.597 Y6.061
Y5.915
X15.598 Y5.871
X15.599 Y5.841
X15.606 Y5.742
X15.62 Y5.711 F20
X15.643 Y5.687
X15.674 Y5.674
X15.707 Y5.673
X15.739 Y5.684
X15.765 Y5.706
X15.78 Y5.735
X15.784 Y5.768
X15.78 Y5.846
X15.771 Y5.879
X15.75 Y5.907
X15.721 Y5.925
X15.687 Y5.93
X15.653 Y5.923
X15.625 Y5.903
X15.606 Y5.875
X15.599 Y5.841
X15.6 Y5.77 F50
X15.608 Y5.734
X15.619 Y5.697
X15.715 Y5.435
X15.727 Y5.404
X15.741 Y5.365
X15.762 Y5.316
G3 X16.091 Y5.209 I0.225 J0.132
X16.223 Y5.56 I-0.103 J0.239
X15.741 Y5.365 I-0.235 J-0.112 F20
G1 X15.753 Y5.333 F50
X15.77 Y5.302
X15.792 Y5.27
X15.983 Y5.042
X15.991 Y5.033
X16.013 Y5.009
X16.093 Y4.928
G3 X16.538 Y4.986 Z6.2 I0.193 J0.252
X16.52 Y5.394 I-0.252 J0.193
G1 X16.491 Y5.427
X16.447 Y5.466
X16.397 Y5.497
X16.341 Y5.518
X16.283 Y5.529
X16.221 Y5.528 F20
X16.161 Y5.515
X16.104 Y5.491
X16.053 Y5.456
G3 X16.013 Y5.009 Z6 I0.204 J-0.243
G1 X16.064 Y4.952 F50
X16.1 Y4.922
X16.141 Y4.897
X16.343 Y4.78
X16.371 Y4.764
X16.393 Y4.751
X16.491 Y4.701
X16.525 Y4.696 F20
X16.558 Y4.703
X16.586 Y4.722
X16.605 Y4.75
X16.612 Y4.783
X16.607 Y4.816
X16.59 Y4.846
X16.563 Y4.866
X16.483 Y4.908
X16.45 Y4.918
X16.415 Y4.915
X16.385 Y4.899
X16.362 Y4.873
X16.351 Y4.84
X16.353 Y4.806
X16.368 Y4.775
X16.393 Y4.751
X16.428 Y4.731 F50
X16.465 Y4.711
X16.501 Y4.697
X16.574 Y4.681
X16.8 Y4.641
X16.837 Y4.634
X16.866 Y4.629
X16.978 Y4.618
G3 X17.288 Y4.936 Z6.192 I-0.047 J0.356
G1 X17.289 Y4.956 Z6.2
G3 X16.686 Y5.216 I-0.35 J0.017
G1 X16.648 Y5.168 F20
X16.618 Y5.113
X16.598 Y5.055
X16.589 Y4.993
G3 X16.866 Y4.629 Z6 I0.35 J-0.021
G1 X16.939 Y4.618 F50
X16.975 Y4.617
X17.012 Y4.621
X17.304 Y4.672
X17.344 Y4.679
X17.377 Y4.685
X17.439 Y4.702
G3 X17.59 Y5.116 Z6.2 I-0.106 J0.273
X17.134 Y5.191 I-0.258 J-0.14
G1 X17.093 Y5.144 F20
X17.063 Y5.09
X17.045 Y5.031
X17.04 Y4.969
G3 X17.289 Y4.685 Z6.035 I0.293 J0.006
G1 X17.333 Y4.682 Z6.018
X17.377 Y4.685 Z6
X17.413 Y4.693 F50
X17.45 Y4.706
X17.535 Y4.751
X17.741 Y4.871
X17.787 Y4.897
X17.837 Y4.93
X17.862 Y4.95
X17.887 Y4.974
X18.067 Y5.188
X18.085 Y5.21
X18.159 Y5.308
G3 X18.023 Y5.736 Z6.2 I-0.282 J0.146
X17.64 Y5.665 I-0.146 J-0.282
G1 X17.612 Y5.634
X17.576 Y5.583
X17.549 Y5.527
X17.535 Y5.466
X17.532 Y5.404
X17.542 Y5.343 F20
X17.563 Y5.285
X17.595 Y5.232
X17.637 Y5.186
G3 X18.085 Y5.21 Z6 I0.212 J0.236
G1 X18.128 Y5.261 F50
X18.153 Y5.297
X18.174 Y5.333
X18.179 Y5.345
X18.282 Y5.624
X18.325 Y5.761
X18.327 Y5.77
X18.331 Y5.915
X18.33 Y6.207
X18.325 Y6.243
X18.29 Y6.352
X18.184 Y6.643
X18.179 Y6.656
X18.162 Y6.689
X18.14 Y6.722
X18.086 Y6.789
X17.932 Y6.972
G3 X17.508 Y7.014 I-0.235 J-0.213
G1 X17.473 Y6.972 Z6.005
X17.44 Y6.931 Z6.019
X17.409 Y6.892 Z6.042
X17.399 Y6.85 Z6.073
X17.391 Y6.812 Z6.111
X17.385 Y6.782 Z6.154
X17.38 Y6.759 Z6.202
Y6.743 Z6.259
Y6.737 Z6.317
Z16
X21.8 Y17.056
Z8.1
G3 X20.268 Y17.145 Z7.976 I-0.801 J-0.556 F30
X20.549 Y15.639 Z7.853 I0.73 J-0.643
X21.94 Y16.27 Z7.729 I0.449 J0.86
X20.997 Y17.468 Z7.606 I-0.941 J0.229
X20.062 Y16.268 Z7.482 I0.002 J-0.966
X21.447 Y15.648 Z7.359 I0.935 J0.233
X21.717 Y17.138 Z7.235 I-0.449 J0.851
X20.209 Y17.044 Z7.112 I-0.717 J-0.638
X20.66 Y15.606 Z6.988 I0.789 J-0.543
X21.946 Y16.386 Z6.865 I0.338 J0.894
X20.884 Y17.446 Z6.741 I-0.946 J0.114
X20.11 Y16.164 Z6.618 I0.116 J-0.944
X21.537 Y15.72 Z6.494 I0.887 J0.337
X21.626 Y17.208 Z6.371 I-0.538 J0.779
X20.163 Y16.939 Z6.247 I-0.626 J-0.707
X20.773 Y15.587 Z6.124 I0.835 J-0.438
X21.938 Y16.5 Z6 I0.225 J0.913
X20.057 Y16.5 I-0.94 J0
X21.938 Y16.5 I0.94 J0
G1 X21.954 Y16.826 F50
X21.955 Y16.976
X21.878 Y17.157
X21.762 Y17.316
X21.611 Y17.444
X21.436 Y17.534
X21.299 Y17.583
X21.243 Y17.604
X21.206 Y17.613
X21.17 Y17.619
X21.097 Y17.621
X20.878
X20.842 Y17.62
X20.805 Y17.615
X20.659 Y17.569
X20.513 Y17.516
X20.44 Y17.485
X20.404 Y17.462
X20.345 Y17.413
X20.171 Y17.268
X20.139 Y17.236
X20.115 Y17.204
X20.065 Y17.122
X19.964 Y16.947
X19.951 Y16.922
X19.93 Y16.868
X19.92 Y16.831
X19.87 Y16.54
X19.868 Y16.503
X19.869 Y16.467
X19.881 Y16.394
X19.906 Y16.249
X19.93 Y16.131
X19.94 Y16.103
X20.019 Y15.958
X20.103 Y15.812
X20.124 Y15.782
X20.151 Y15.751
X20.25 Y15.667
X20.367 Y15.568
X20.431 Y15.521
X20.472 Y15.5
X20.659 Y15.431
X20.739 Y15.406
X20.776 Y15.394
X20.817 Y15.383
X20.867 Y15.386
X20.915 Y15.402
X20.956 Y15.431
X20.988 Y15.47
X21.008 Y15.516
X21.013 Y15.554
G3 X20.658 Y15.57 I-0.178 J0.008 F20
X20.776 Y15.394 I0.178 J-0.008
G1 X20.805 Y15.385 F50
X20.842 Y15.38
X20.878 Y15.379
X21.097
X21.17 Y15.381
X21.206 Y15.387
X21.243 Y15.396
X21.389 Y15.449
X21.469 Y15.479
X21.505 Y15.492
X21.545 Y15.512
X21.584 Y15.535
X21.621 Y15.561
G3 X21.658 Y16.008 Z6.2 I-0.205 J0.242
X21.201 Y16.037 I-0.243 J-0.205
G1 X21.19 Y16.027
X21.151 Y15.984
X21.12 Y15.934
X21.098 Y15.876 F20
X21.088 Y15.815
X21.09 Y15.753
X21.104 Y15.693
G3 X21.505 Y15.492 Z6 I0.301 J0.1
G1 X21.535 Y15.503 F50
X21.57 Y15.521
X21.68 Y15.608
X21.792 Y15.702
X21.826 Y15.731
X21.867 Y15.772
X21.897 Y15.812
X21.981 Y15.958
X22.06 Y16.103
X22.073 Y16.14
X22.081 Y16.176
X22.119 Y16.394
X22.131 Y16.467
X22.132 Y16.503
X22.13 Y16.54
X22.105 Y16.685
X22.08 Y16.831
X22.071 Y16.867
X22.058 Y16.904
X22.019 Y16.977
X21.935 Y17.122
X21.892 Y17.195
X21.865 Y17.231
X21.826 Y17.27
X21.655 Y17.413
X21.595 Y17.462
X21.565 Y17.481
X21.535 Y17.497
X21.436 Y17.534
G3 X21.046 Y17.361 I-0.1 J-0.301
G1 X21.032 Y17.296 Z6.007
X21.018 Y17.233 Z6.029
Y17.232
X21.03 Y17.184 Z6.058
X21.041 Y17.142 Z6.095
X21.05 Y17.107 Z6.14
X21.057 Y17.081 Z6.19
X21.067 Y17.064 Z6.253
X21.07 Y17.058 Z6.317
Z16
X5.8 Y5.058
Z6.1
G3 X4.267 Y5.143 Z5.976 I-0.799 J-0.558 F30
X4.551 Y3.638 Z5.853 I0.731 J-0.641
X5.941 Y4.271 Z5.729 I0.447 J0.861
X4.996 Y5.467 Z5.606 I-0.941 J0.228
X4.062 Y4.267 Z5.482 I0.004 J-0.966
X5.448 Y3.649 Z5.359 I0.935 J0.234
X5.717 Y5.139 Z5.235 I-0.45 J0.85
X4.209 Y5.043 Z5.112 I-0.716 J-0.639
X4.661 Y3.605 Z4.988 I0.79 J-0.542
X5.946 Y4.386 Z4.865 I0.337 J0.894
X4.883 Y5.445 Z4.741 I-0.947 J0.113
X4.111 Y4.163 Z4.618 I0.116 J-0.944
X5.538 Y3.72 Z4.494 I0.887 J0.338
X5.626 Y5.208 Z4.371 I-0.539 J0.779
X4.163 Y4.939 Z4.247 I-0.626 J-0.708
X4.773 Y3.586 Z4.124 I0.835 J-0.437
X5.938 Y4.499 Z4 I0.225 J0.913
X4.057 Y4.499 I-0.94 J0
X5.938 Y4.499 I0.94 J0
G1 X5.955 Y4.826 F50
X5.956 Y4.976
X5.878 Y5.159
X5.76 Y5.319
X5.608 Y5.447
X5.43 Y5.536
X5.341 Y5.569
X5.261 Y5.594
X5.195 Y5.615
X5.158 Y5.62
X5.122 Y5.621
X4.903
X4.83 Y5.619
X4.794 Y5.613
X4.757 Y5.604
X4.611 Y5.551
X4.465 Y5.497
X4.43 Y5.479
X4.32 Y5.392
X4.174 Y5.269
X4.133 Y5.228
X4.103 Y5.188
X4.019 Y5.042
X3.94 Y4.897
X3.927 Y4.86
X3.919 Y4.824
X3.874 Y4.566
X3.869 Y4.533
X3.868 Y4.496
X3.87 Y4.46
X3.895 Y4.315
X3.92 Y4.169
X3.929 Y4.133
X3.942 Y4.096
X3.981 Y4.023
X4.089 Y3.838
X4.108 Y3.805
X4.135 Y3.769
X4.174 Y3.73
X4.345 Y3.587
X4.405 Y3.538
X4.435 Y3.519
X4.465 Y3.503
X4.632 Y3.441
X4.757 Y3.396
X4.794 Y3.387
X4.83 Y3.381
X4.903 Y3.379
X5.122
X5.158 Y3.38
X5.195 Y3.385
X5.341 Y3.431
X5.487 Y3.485
X5.56 Y3.515
X5.596 Y3.538
X5.655 Y3.587
X5.829 Y3.732
X5.861 Y3.764
X5.885 Y3.796
X5.935 Y3.878
X6.036 Y4.053
X6.049 Y4.078
X6.07 Y4.132
X6.08 Y4.169
X6.13 Y4.46
X6.132 Y4.496
X6.131 Y4.533
X6.119 Y4.606
X6.094 Y4.751
X6.07 Y4.869
X6.06 Y4.897
X5.981 Y5.042
X5.897 Y5.188
X5.876 Y5.218
X5.849 Y5.249
X5.75 Y5.333
X5.633 Y5.432
X5.569 Y5.479
X5.528 Y5.5
X5.43 Y5.536
G3 X5.041 Y5.361 I-0.098 J-0.302
G1 X5.027 Y5.296 Z4.007
X5.015 Y5.234 Z4.028
X5.027 Y5.187 Z4.056
X5.037 Y5.145 Z4.093
X5.046 Y5.11 Z4.136
X5.053 Y5.082 Z4.185
X5.064 Y5.064 Z4.25
X5.068 Y5.058 Z4.317
Z16
X5.798 Y17.061
Z6.1
G3 X4.265 Y17.141 Z5.976 I-0.798 J-0.561 F30
X4.553 Y15.637 Z5.853 I0.733 J-0.639
X5.942 Y16.274 Z5.729 I0.445 J0.863
X4.993 Y17.467 Z5.606 I-0.942 J0.225
X4.063 Y16.264 Z5.482 I0.006 J-0.966
X5.45 Y15.649 Z5.359 I0.935 J0.236
X5.715 Y17.14 Z5.235 I-0.452 J0.849
X4.208 Y17.042 Z5.112 I-0.715 J-0.64
X4.662 Y15.605 Z4.988 I0.791 J-0.54
X5.947 Y16.388 Z4.865 I0.335 J0.895
X4.882 Y17.445 Z4.741 I-0.947 J0.112
X4.111 Y16.162 Z4.618 I0.118 J-0.944
X5.538 Y15.721 Z4.494 I0.887 J0.339
X5.625 Y17.208 Z4.371 I-0.539 J0.778
X4.163 Y16.939 Z4.247 I-0.625 J-0.708
X4.773 Y15.586 Z4.124 I0.835 J-0.437
X5.938 Y16.499 Z4 I0.225 J0.913
X4.057 Y16.499 I-0.94 J0
X5.938 Y16.499 I0.94 J0
G1 X5.955 Y16.825 F50
X5.956 Y16.975
X5.878 Y17.159
X5.76 Y17.319
X5.608 Y17.447
X5.43 Y17.536
X5.341 Y17.569
X5.261 Y17.594
X5.195 Y17.615
X5.158 Y17.62
X5.122 Y17.621
X4.903
X4.83 Y17.619
X4.794 Y17.613
X4.757 Y17.604
X4.611 Y17.551
X4.465 Y17.497
X4.435 Y17.481
X4.405 Y17.462
X4.32 Y17.392
X4.171 Y17.268
X4.135 Y17.231
X4.108 Y17.195
X4.028 Y17.058
X3.981 Y16.977
X3.942 Y16.904
X3.929 Y16.867
X3.92 Y16.831
X3.875 Y16.573
X3.87 Y16.54
X3.868 Y16.503
X3.869 Y16.467
X3.882 Y16.387
X3.919 Y16.176
X3.927 Y16.14
X3.94 Y16.103
X4.028 Y15.942
X4.103 Y15.812
X4.133 Y15.772
X4.174 Y15.731
X4.32 Y15.608
X4.38 Y15.56
X4.408 Y15.539
X4.43 Y15.523
X4.465 Y15.503
X4.515 Y15.494
X4.565 Y15.498
X4.613 Y15.515
X4.654 Y15.544
X4.686 Y15.583
X4.7 Y15.611
X4.709 Y15.641
G3 X4.346 Y15.72 I-0.181 J0.04 F20
X4.408 Y15.539 I0.181 J-0.04
G1 X4.43 Y15.521 F50
X4.465 Y15.503
X4.611 Y15.449
X4.692 Y15.42
X4.757 Y15.396
X4.794 Y15.387
X4.83 Y15.381
X4.903 Y15.379
X5.122
X5.158 Y15.38
X5.195 Y15.385
X5.341 Y15.431
X5.528 Y15.5
X5.569 Y15.521
X5.633 Y15.568
X5.778 Y15.69
X5.8 Y15.709
X5.852 Y15.764
X5.899 Y15.823
X5.94 Y15.887
G3 X5.809 Y16.317 Z4.2 I-0.28 J0.149
X5.404 Y16.225 I-0.149 J-0.28
G1 X5.345 Y16.144
X5.316 Y16.096
X5.296 Y16.044
X5.285 Y15.989
Y15.927 F20
X5.296 Y15.866
X5.32 Y15.809
X5.354 Y15.757
G3 X5.8 Y15.709 Z4 I0.247 J0.199
G1 X5.849 Y15.751 F50
X5.876 Y15.782
X5.897 Y15.812
X5.981 Y15.958
X6.025 Y16.038
X6.06 Y16.103
X6.07 Y16.131
X6.094 Y16.249
X6.119 Y16.394
X6.131 Y16.467
X6.132 Y16.503
X6.13 Y16.54
X6.08 Y16.831
X6.07 Y16.868
X6.049 Y16.922
X6.019 Y16.977
X5.924 Y17.14
X5.885 Y17.204
X5.861 Y17.236
X5.829 Y17.268
X5.633 Y17.432
X5.596 Y17.462
X5.56 Y17.485
X5.487 Y17.516
X5.43 Y17.536
G3 X5.041 Y17.361 I-0.098 J-0.302
G1 X5.027 Y17.296 Z4.007
X5.014 Y17.234 Z4.028
X5.027 Y17.187 Z4.056
X5.037 Y17.145 Z4.093
X5.046 Y17.11 Z4.136
X5.053 Y17.083 Z4.185
X5.064 Y17.064 Z4.25
X5.068 Y17.058 Z4.317
Z16
X18.144 Y5.854
Z6.1
G3 X16.976 Y7.189 Z5.96 I-1.18 J0.146 F30
X15.783 Y5.881 Z5.82 I-0.012 J-1.187
X17.215 Y4.846 Z5.68 I1.178 J0.121
X18.081 Y6.381 Z5.54 I-0.253 J1.154
X16.46 Y7.067 Z5.4 I-1.116 J-0.38
X15.963 Y5.383 Z5.26 I0.503 J-1.064
X17.688 Y5.079 Z5.12 I0.999 J0.618
X17.796 Y6.824 Z4.98 I-0.725 J0.921
X16.053 Y6.735 Z4.84 I-0.831 J-0.823
X16.338 Y5.017 Z4.7 I0.909 J-0.732
X18.009 Y5.493 Z4.56 I0.623 J0.984
X17.35 Y7.096 Z4.42 I-1.046 J0.507
X15.834 Y6.262 Z4.28 I-0.385 J-1.094
X16.831 Y4.853 Z4.14 I1.128 J-0.259
X18.116 Y6 Z4 I0.13 J1.148
X15.807 Y6 I-1.155 J0
X18.116 Y6 I1.155 J0
G1 X18.141 Y6.374 F50
X18.144 Y6.524
X18.11 Y6.67
X18.05 Y6.807
X18.001 Y6.883
X17.968 Y6.928
X17.932 Y6.972
X17.908 Y7.001
X17.887 Y7.025
X17.857 Y7.056
X17.826 Y7.08
X17.741 Y7.129
X17.575 Y7.225
X17.44 Y7.291
X17.403 Y7.305
X17.365 Y7.316
X17.326 Y7.324
G3 X16.967 Y7.054 Z4.2 I-0.044 J-0.314
X17.157 Y6.718 I0.314 J-0.044
G1 X17.282 Y6.664
X17.346 Y6.644
X17.413 Y6.639
X17.48 Y6.647
X17.538 Y6.667 F20
X17.592 Y6.698
X17.639 Y6.739
X17.676 Y6.788
G3 X17.575 Y7.225 Z4 I-0.269 J0.168
G1 X17.45 Y7.294 F50
X17.413 Y7.307
X17.377 Y7.315
X17.105 Y7.363
X17.061 Y7.371
X17.012 Y7.379
X16.947 Y7.382
G3 X16.683 Y7.033 Z4.2 I0.014 J-0.285
X17.059 Y6.829 I0.278 J0.064
G1 X17.114 Y6.856 F20
X17.163 Y6.895
X17.202 Y6.943
X17.229 Y6.998
G3 X17.102 Y7.345 Z4.039 I-0.268 J0.099
G1 X17.058 Y7.366 Z4.019
X17.012 Y7.379 Z4
X16.976 Y7.383 F50
X16.939 Y7.382
X16.866 Y7.371
X16.64 Y7.331
X16.604 Y7.325
X16.574 Y7.319
X16.47 Y7.291
G3 X16.237 Y6.887 Z4.2 I0.16 J-0.361
G1 X16.249 Y6.824
G3 X17.017 Y6.857 I0.38 J0.105
G1 X17.023 Y6.918 F20
X17.02 Y6.98
X17.007 Y7.041
X16.985 Y7.099
G3 X16.574 Y7.319 Z4 I-0.356 J-0.17
G1 X16.501 Y7.303 F50
X16.465 Y7.288
X16.428 Y7.269
X16.202 Y7.139
X16.137 Y7.101
X16.103 Y7.08
X16.071 Y7.054
X16.039 Y7.023
X15.845 Y6.793
X15.841 Y6.789
X15.756 Y6.67
G3 X15.924 Y6.254 Z4.2 I0.292 J-0.124
X16.277 Y6.326 I0.124 J0.292
G1 X16.306 Y6.356
G3 X16.394 Y6.594 I-0.228 J0.221
G1 X16.385 Y6.655 F20
X16.363 Y6.714
X16.331 Y6.767
X16.29 Y6.812
G3 X15.841 Y6.789 Z4 I-0.212 J-0.236
G1 X15.783 Y6.716 F50
X15.76 Y6.68
X15.743 Y6.643
X15.648 Y6.382
X15.637 Y6.352
X15.623 Y6.312
X15.609 Y6.257
X15.601 Y6.201
X15.598 Y6.144
G3 X15.923 Y5.835 Z4.2 I0.317 J0.009
X16.232 Y6.129 I-0.008 J0.317
G1 X16.235 Y6.171
X16.234 Y6.222
X16.226 Y6.273
X16.209 Y6.322
X16.179 Y6.376 F20
X16.139 Y6.423
X16.09 Y6.461
X16.035 Y6.49
G3 X15.623 Y6.312 Z4 I-0.117 J-0.295
G1 X15.611 Y6.279 F50
X15.602 Y6.243
X15.598 Y6.207
X15.597 Y6.061
Y5.915
X15.598 Y5.871
X15.599 Y5.841
X15.606 Y5.742
X15.62 Y5.711 F20
X15.643 Y5.687
X15.674 Y5.674
X15.707 Y5.673
X15.739 Y5.684
X15.765 Y5.706
X15.78 Y5.735
X15.784 Y5.768
X15.78 Y5.846
X15.771 Y5.879
X15.75 Y5.907
X15.721 Y5.925
X15.687 Y5.93
X15.653 Y5.923
X15.625 Y5.903
X15.606 Y5.875
X15.599 Y5.841
X15.6 Y5.77 F50
X15.608 Y5.734
X15.619 Y5.697
X15.715 Y5.435
X15.727 Y5.404
X15.741 Y5.365
X15.762 Y5.316
G3 X16.091 Y5.209 I0.225 J0.132
X16.223 Y5.56 I-0.103 J0.239
X15.741 Y5.365 I-0.235 J-0.112 F20
G1 X15.753 Y5.333 F50
X15.77 Y5.302
X15.792 Y5.27
X15.983 Y5.042
X15.991 Y5.033
X16.013 Y5.009
X16.093 Y4.928
G3 X16.538 Y4.986 Z4.2 I0.193 J0.252
X16.52 Y5.394 I-0.252 J0.193
G1 X16.491 Y5.427
X16.447 Y5.466
X16.397 Y5.497
X16.341 Y5.518
X16.283 Y5.529
X16.221 Y5.528 F20
X16.161 Y5.515
X16.104 Y5.491
X16.053 Y5.456
G3 X16.013 Y5.009 Z4 I0.204 J-0.243
G1 X16.064 Y4.952 F50
X16.1 Y4.922
X16.141 Y4.897
X16.343 Y4.78
X16.371 Y4.764
X16.393 Y4.751
X16.491 Y4.701
X16.525 Y4.696 F20
X16.558 Y4.703
X16.586 Y4.722
X16.605 Y4.75
X16.612 Y4.783
X16.607 Y4.816
X16.59 Y4.846
X16.563 Y4.866
X16.483 Y4.908
X16.45 Y4.918
X16.415 Y4.915
X16.385 Y4.899
X16.362 Y4.873
X16.351 Y4.84
X16.353 Y4.806
X16.368 Y4.775
X16.393 Y4.751
X16.428 Y4.731 F50
X16.465 Y4.711
X16.501 Y4.697
X16.574 Y4.681
X16.8 Y4.641
X16.837 Y4.634
X16.866 Y4.629
X16.978 Y4.618
G3 X17.288 Y4.936 Z4.192 I-0.047 J0.356
G1 X17.289 Y4.956 Z4.2
G3 X16.686 Y5.216 I-0.35 J0.017
G1 X16.648 Y5.168 F20
X16.618 Y5.113
X16.598 Y5.055
X16.589 Y4.993
G3 X16.866 Y4.629 Z4 I0.35 J-0.021
G1 X16.939 Y4.618 F50
X16.975 Y4.617
X17.012 Y4.621
X17.304 Y4.672
X17.344 Y4.679
X17.377 Y4.685
X17.439 Y4.702
G3 X17.59 Y5.116 Z4.2 I-0.106 J0.273
X17.134 Y5.191 I-0.258 J-0.14
G1 X17.093 Y5.144 F20
X17.063 Y5.09
X17.045 Y5.031
X17.04 Y4.969
G3 X17.289 Y4.685 Z4.035 I0.293 J0.006
G1 X17.333 Y4.682 Z4.018
X17.377 Y4.685 Z4
X17.413 Y4.693 F50
X17.45 Y4.706
X17.535 Y4.751
X17.741 Y4.871
X17.787 Y4.897
X17.837 Y4.93
X17.862 Y4.95
X17.887 Y4.974
X18.067 Y5.188
X18.085 Y5.21
X18.159 Y5.308
G3 X18.023 Y5.736 Z4.2 I-0.282 J0.146
X17.64 Y5.665 I-0.146 J-0.282
G1 X17.612 Y5.634
X17.576 Y5.583
X17.549 Y5.527
X17.535 Y5.466
X17.532 Y5.404
X17.542 Y5.343 F20
X17.563 Y5.285
X17.595 Y5.232
X17.637 Y5.186
G3 X18.085 Y5.21 Z4 I0.212 J0.236
G1 X18.128 Y5.261 F50
X18.153 Y5.297
X18.174 Y5.333
X18.179 Y5.345
X18.282 Y5.624
X18.325 Y5.761
X18.327 Y5.77
X18.331 Y5.915
X18.33 Y6.207
X18.325 Y6.243
X18.29 Y6.352
X18.184 Y6.643
X18.179 Y6.656
X18.162 Y6.689
X18.14 Y6.722
X18.086 Y6.789
X17.932 Y6.972
G3 X17.508 Y7.014 I-0.235 J-0.213
G1 X17.473 Y6.972 Z4.005
X17.44 Y6.931 Z4.019
X17.409 Y6.892 Z4.042
X17.399 Y6.85 Z4.073
X17.391 Y6.812 Z4.111
X17.385 Y6.782 Z4.154
X17.38 Y6.759 Z4.202
Y6.743 Z4.259
Y6.737 Z4.317
Z16
X21.8 Y17.056
Z6.1
G3 X20.268 Y17.145 Z5.976 I-0.801 J-0.556 F30
X20.549 Y15.639 Z5.853 I0.73 J-0.643
X21.94 Y16.27 Z5.729 I0.449 J0.86
X20.997 Y17.468 Z5.606 I-0.941 J0.229
X20.062 Y16.268 Z5.482 I0.002 J-0.966
X21.447 Y15.648 Z5.359 I0.935 J0.233
X21.717 Y17.138 Z5.235 I-0.449 J0.851
X20.209 Y17.044 Z5.112 I-0.717 J-0.638
X20.66 Y15.606 Z4.988 I0.789 J-0.543
X21.946 Y16.386 Z4.865 I0.338 J0.894
X20.884 Y17.446 Z4.741 I-0.946 J0.114
X20.11 Y16.164 Z4.618 I0.116 J-0.944
X21.537 Y15.72 Z4.494 I0.887 J0.337
X21.626 Y17.208 Z4.371 I-0.538 J0.779
X20.163 Y16.939 Z4.247 I-0.626 J-0.707
X20.773 Y15.587 Z4.124 I0.835 J-0.438
X21.938 Y16.5 Z4 I0.225 J0.913
X20.057 Y16.5 I-0.94 J0
X21.938 Y16.5 I0.94 J0
G1 X21.954 Y16.826 F50
X21.955 Y16.976
X21.878 Y17.157
X21.762 Y17.316
X21.611 Y17.444
X21.436 Y17.534
X21.299 Y17.583
X21.243 Y17.604
X21.206 Y17.613
X21.17 Y17.619
X21.097 Y17.621
X20.878
X20.842 Y17.62
X20.805 Y17.615
X20.659 Y17.569
X20.513 Y17.516
X20.44 Y17.485
X20.404 Y17.462
X20.345 Y17.413
X20.171 Y17.268
X20.139 Y17.236
X20.115 Y17.204
X20.065 Y17.122
X19.964 Y16.947
X19.951 Y16.922
X19.93 Y16.868
X19.92 Y16.831
X19.87 Y16.54
X19.868 Y16.503
X19.869 Y16.467
X19.881 Y16.394
X19.906 Y16.249
X19.93 Y16.131
X19.94 Y16.103
X20.019 Y15.958
X20.103 Y15.812
X20.124 Y15.782
X20.151 Y15.751
X20.25 Y15.667
X20.367 Y15.568
X20.431 Y15.521
X20.472 Y15.5
X20.659 Y15.431
X20.739 Y15.406
X20.776 Y15.394
X20.817 Y15.383
X20.867 Y15.386
X20.915 Y15.402
X20.956 Y15.431
X20.988 Y15.47
X21.008 Y15.516
X21.013 Y15.554
G3 X20.658 Y15.57 I-0.178 J0.008 F20
X20.776 Y15.394 I0.178 J-0.008
G1 X20.805 Y15.385 F50
X20.842 Y15.38
X20.878 Y15.379
X21.097
X21.17 Y15.381
X21.206 Y15.387
X21.243 Y15.396
X21.389 Y15.449
X21.469 Y15.479
X21.505 Y15.492
X21.545 Y15.512
X21.584 Y15.535
X21.621 Y15.561
G3 X21.658 Y16.008 Z4.2 I-0.205 J0.242
X21.201 Y16.037 I-0.243 J-0.205
G1 X21.19 Y16.027
X21.151 Y15.984
X21.12 Y15.934
X21.098 Y15.876 F20
X21.088 Y15.815
X21.09 Y15.753
X21.104 Y15.693
G3 X21.505 Y15.492 Z4 I0.301 J0.1
G1 X21.535 Y15.503 F50
X21.57 Y15.521
X21.68 Y15.608
X21.792 Y15.702
X21.826 Y15.731
X21.867 Y15.772
X21.897 Y15.812
X21.981 Y15.958
X22.06 Y16.103
X22.073 Y16.14
X22.081 Y16.176
X22.119 Y16.394
X22.131 Y16.467
X22.132 Y16.503
X22.13 Y16.54
X22.105 Y16.685
X22.08 Y16.831
X22.071 Y16.867
X22.058 Y16.904
X22.019 Y16.977
X21.935 Y17.122
X21.892 Y17.195
X21.865 Y17.231
X21.826 Y17.27
X21.655 Y17.413
X21.595 Y17.462
X21.565 Y17.481
X21.535 Y17.497
X21.436 Y17.534
G3 X21.046 Y17.361 I-0.1 J-0.301
G1 X21.032 Y17.296 Z4.007
X21.018 Y17.233 Z4.029
Y17.232
X21.03 Y17.184 Z4.058
X21.041 Y17.142 Z4.095
X21.05 Y17.107 Z4.14
X21.057 Y17.081 Z4.19
X21.067 Y17.064 Z4.253
X21.07 Y17.058 Z4.317
Z16
X5.8 Y5.058
Z4.1
G3 X4.267 Y5.143 Z3.976 I-0.799 J-0.558 F30
X4.551 Y3.638 Z3.853 I0.731 J-0.641
X5.941 Y4.271 Z3.729 I0.447 J0.861
X4.996 Y5.467 Z3.606 I-0.941 J0.228
X4.062 Y4.267 Z3.482 I0.004 J-0.966
X5.448 Y3.649 Z3.359 I0.935 J0.234
X5.717 Y5.139 Z3.235 I-0.45 J0.85
X4.209 Y5.043 Z3.112 I-0.716 J-0.639
X4.661 Y3.605 Z2.988 I0.79 J-0.542
X5.946 Y4.386 Z2.865 I0.337 J0.894
X4.883 Y5.445 Z2.741 I-0.947 J0.113
X4.111 Y4.163 Z2.618 I0.116 J-0.944
X5.538 Y3.72 Z2.494 I0.887 J0.338
X5.626 Y5.208 Z2.371 I-0.539 J0.779
X4.163 Y4.939 Z2.247 I-0.626 J-0.708
X4.773 Y3.586 Z2.124 I0.835 J-0.437
X5.938 Y4.499 Z2 I0.225 J0.913
X4.057 Y4.499 I-0.94 J0
X5.938 Y4.499 I0.94 J0
G1 X5.955 Y4.826 F50
X5.956 Y4.976
X5.878 Y5.159
X5.76 Y5.319
X5.608 Y5.447
X5.43 Y5.536
X5.341 Y5.569
X5.261 Y5.594
X5.195 Y5.615
X5.158 Y5.62
X5.122 Y5.621
X4.903
X4.83 Y5.619
X4.794 Y5.613
X4.757 Y5.604
X4.611 Y5.551
X4.465 Y5.497
X4.43 Y5.479
X4.32 Y5.392
X4.174 Y5.269
X4.133 Y5.228
X4.103 Y5.188
X4.019 Y5.042
X3.94 Y4.897
X3.927 Y4.86
X3.919 Y4.824
X3.874 Y4.566
X3.869 Y4.533
X3.868 Y4.496
X3.87 Y4.46
X3.895 Y4.315
X3.92 Y4.169
X3.929 Y4.133
X3.942 Y4.096
X3.981 Y4.023
X4.089 Y3.838
X4.108 Y3.805
X4.135 Y3.769
X4.174 Y3.73
X4.345 Y3.587
X4.405 Y3.538
X4.435 Y3.519
X4.465 Y3.503
X4.632 Y3.441
X4.757 Y3.396
X4.794 Y3.387
X4.83 Y3.381
X4.903 Y3.379
X5.122
X5.158 Y3.38
X5.195 Y3.385
X5.341 Y3.431
X5.487 Y3.485
X5.56 Y3.515
X5.596 Y3.538
X5.655 Y3.587
X5.829 Y3.732
X5.861 Y3.764
X5.885 Y3.796
X5.935 Y3.878
X6.036 Y4.053
X6.049 Y4.078
X6.07 Y4.132
X6.08 Y4.169
X6.13 Y4.46
X6.132 Y4.496
X6.131 Y4.533
X6.119 Y4.606
X6.094 Y4.751
X6.07 Y4.869
X6.06 Y4.897
X5.981 Y5.042
X5.897 Y5.188
X5.876 Y5.218
X5.849 Y5.249
X5.75 Y5.333
X5.633 Y5.432
X5.569 Y5.479
X5.528 Y5.5
X5.43 Y5.536
G3 X5.041 Y5.361 I-0.098 J-0.302
G1 X5.027 Y5.296 Z2.007
X5.015 Y5.234 Z2.028
X5.027 Y5.187 Z2.056
X5.037 Y5.145 Z2.093
X5.046 Y5.11 Z2.136
X5.053 Y5.082 Z2.185
X5.064 Y5.064 Z2.25
X5.068 Y5.058 Z2.317
Z16
X5.798 Y17.061
Z4.1
G3 X4.265 Y17.141 Z3.976 I-0.798 J-0.561 F30
X4.553 Y15.637 Z3.853 I0.733 J-0.639
X5.942 Y16.274 Z3.729 I0.445 J0.863
X4.993 Y17.467 Z3.606 I-0.942 J0.225
X4.063 Y16.264 Z3.482 I0.006 J-0.966
X5.45 Y15.649 Z3.359 I0.935 J0.236
X5.715 Y17.14 Z3.235 I-0.452 J0.849
X4.208 Y17.042 Z3.112 I-0.715 J-0.64
X4.662 Y15.605 Z2.988 I0.791 J-0.54
X5.947 Y16.388 Z2.865 I0.335 J0.895
X4.882 Y17.445 Z2.741 I-0.947 J0.112
X4.111 Y16.162 Z2.618 I0.118 J-0.944
X5.538 Y15.721 Z2.494 I0.887 J0.339
X5.625 Y17.208 Z2.371 I-0.539 J0.778
X4.163 Y16.939 Z2.247 I-0.625 J-0.708
X4.773 Y15.586 Z2.124 I0.835 J-0.437
X5.938 Y16.499 Z2 I0.225 J0.913
X4.057 Y16.499 I-0.94 J0
X5.938 Y16.499 I0.94 J0
G1 X5.955 Y16.825 F50
X5.956 Y16.975
X5.878 Y17.159
X5.76 Y17.319
X5.608 Y17.447
X5.43 Y17.536
X5.341 Y17.569
X5.261 Y17.594
X5.195 Y17.615
X5.158 Y17.62
X5.122 Y17.621
X4.903
X4.83 Y17.619
X4.794 Y17.613
X4.757 Y17.604
X4.611 Y17.551
X4.465 Y17.497
X4.435 Y17.481
X4.405 Y17.462
X4.32 Y17.392
X4.171 Y17.268
X4.135 Y17.231
X4.108 Y17.195
X4.028 Y17.058
X3.981 Y16.977
X3.942 Y16.904
X3.929 Y16.867
X3.92 Y16.831
X3.875 Y16.573
X3.87 Y16.54
X3.868 Y16.503
X3.869 Y16.467
X3.882 Y16.387
X3.919 Y16.176
X3.927 Y16.14
X3.94 Y16.103
X4.028 Y15.942
X4.103 Y15.812
X4.133 Y15.772
X4.174 Y15.731
X4.32 Y15.608
X4.38 Y15.56
X4.408 Y15.539
X4.43 Y15.523
X4.465 Y15.503
X4.515 Y15.494
X4.565 Y15.498
X4.613 Y15.515
X4.654 Y15.544
X4.686 Y15.583
X4.7 Y15.611
X4.709 Y15.641
G3 X4.346 Y15.72 I-0.181 J0.04 F20
X4.408 Y15.539 I0.181 J-0.04
G1 X4.43 Y15.521 F50
X4.465 Y15.503
X4.611 Y15.449
X4.692 Y15.42
X4.757 Y15.396
X4.794 Y15.387
X4.83 Y15.381
X4.903 Y15.379
X5.122
X5.158 Y15.38
X5.195 Y15.385
X5.341 Y15.431
X5.528 Y15.5
X5.569 Y15.521
X5.633 Y15.568
X5.778 Y15.69
X5.8 Y15.709
X5.852 Y15.764
X5.899 Y15.823
X5.94 Y15.887
G3 X5.809 Y16.317 Z2.2 I-0.28 J0.149
X5.404 Y16.225 I-0.149 J-0.28
G1 X5.345 Y16.144
X5.316 Y16.096
X5.296 Y16.044
X5.285 Y15.989
Y15.927 F20
X5.296 Y15.866
X5.32 Y15.809
X5.354 Y15.757
G3 X5.8 Y15.709 Z2 I0.247 J0.199
G1 X5.849 Y15.751 F50
X5.876 Y15.782
X5.897 Y15.812
X5.981 Y15.958
X6.025 Y16.038
X6.06 Y16.103
X6.07 Y16.131
X6.094 Y16.249
X6.119 Y16.394
X6.131 Y16.467
X6.132 Y16.503
X6.13 Y16.54
X6.08 Y16.831
X6.07 Y16.868
X6.049 Y16.922
X6.019 Y16.977
X5.924 Y17.14
X5.885 Y17.204
X5.861 Y17.236
X5.829 Y17.268
X5.633 Y17.432
X5.596 Y17.462
X5.56 Y17.485
X5.487 Y17.516
X5.43 Y17.536
G3 X5.041 Y17.361 I-0.098 J-0.302
G1 X5.027 Y17.296 Z2.007
X5.014 Y17.234 Z2.028
X5.027 Y17.187 Z2.056
X5.037 Y17.145 Z2.093
X5.046 Y17.11 Z2.136
X5.053 Y17.083 Z2.185
X5.064 Y17.064 Z2.25
X5.068 Y17.058 Z2.317
Z16
X18.144 Y5.854
Z4.1
G3 X16.976 Y7.189 Z3.96 I-1.18 J0.146 F30
X15.783 Y5.881 Z3.82 I-0.012 J-1.187
X17.215 Y4.846 Z3.68 I1.178 J0.121
X18.081 Y6.381 Z3.54 I-0.253 J1.154
X16.46 Y7.067 Z3.4 I-1.116 J-0.38
X15.963 Y5.383 Z3.26 I0.503 J-1.064
X17.688 Y5.079 Z3.12 I0.999 J0.618
X17.796 Y6.824 Z2.98 I-0.725 J0.921
X16.053 Y6.735 Z2.84 I-0.831 J-0.823
X16.338 Y5.017 Z2.7 I0.909 J-0.732
X18.009 Y5.493 Z2.56 I0.623 J0.984
X17.35 Y7.096 Z2.42 I-1.046 J0.507
X15.834 Y6.262 Z2.28 I-0.385 J-1.094
X16.831 Y4.853 Z2.14 I1.128 J-0.259
X18.116 Y6 Z2 I0.13 J1.148
X15.807 Y6 I-1.155 J0
X18.116 Y6 I1.155 J0
G1 X18.141 Y6.374 F50
X18.144 Y6.524
X18.11 Y6.67
X18.05 Y6.807
X18.001 Y6.883
X17.968 Y6.928
X17.932 Y6.972
X17.908 Y7.001
X17.887 Y7.025
X17.857 Y7.056
X17.826 Y7.08
X17.741 Y7.129
X17.575 Y7.225
X17.44 Y7.291
X17.403 Y7.305
X17.365 Y7.316
X17.326 Y7.324
G3 X16.967 Y7.054 Z2.2 I-0.044 J-0.314
X17.157 Y6.718 I0.314 J-0.044
G1 X17.282 Y6.664
X17.346 Y6.644
X17.413 Y6.639
X17.48 Y6.647
X17.538 Y6.667 F20
X17.592 Y6.698
X17.639 Y6.739
X17.676 Y6.788
G3 X17.575 Y7.225 Z2 I-0.269 J0.168
G1 X17.45 Y7.294 F50
X17.413 Y7.307
X17.377 Y7.315
X17.105 Y7.363
X17.061 Y7.371
X17.012 Y7.379
X16.947 Y7.382
G3 X16.683 Y7.033 Z2.2 I0.014 J-0.285
X17.059 Y6.829 I0.278 J0.064
G1 X17.114 Y6.856 F20
X17.163 Y6.895
X17.202 Y6.943
X17.229 Y6.998
G3 X17.102 Y7.345 Z2.039 I-0.268 J0.099
G1 X17.058 Y7.366 Z2.019
X17.012 Y7.379 Z2
X16.976 Y7.383 F50
X16.939 Y7.382
X16.866 Y7.371
X16.64 Y7.331
X16.604 Y7.325
X16.574 Y7.319
X16.47 Y7.291
G3 X16.237 Y6.887 Z2.2 I0.16 J-0.361
G1 X16.249 Y6.824
G3 X17.017 Y6.857 I0.38 J0.105
G1 X17.023 Y6.918 F20
X17.02 Y6.98
X17.007 Y7.041
X16.985 Y7.099
G3 X16.574 Y7.319 Z2 I-0.356 J-0.17
G1 X16.501 Y7.303 F50
X16.465 Y7.288
X16.428 Y7.269
X16.202 Y7.139
X16.137 Y7.101
X16.103 Y7.08
X16.071 Y7.054
X16.039 Y7.023
X15.845 Y6.793
X15.841 Y6.789
X15.756 Y6.67
G3 X15.924 Y6.254 Z2.2 I0.292 J-0.124
X16.277 Y6.326 I0.124 J0.292
G1 X16.306 Y6.356
G3 X16.394 Y6.594 I-0.228 J0.221
G1 X16.385 Y6.655 F20
X16.363 Y6.714
X16.331 Y6.767
X16.29 Y6.812
G3 X15.841 Y6.789 Z2 I-0.212 J-0.236
G1 X15.783 Y6.716 F50
X15.76 Y6.68
X15.743 Y6.643
X15.648 Y6.382
X15.637 Y6.352
X15.623 Y6.312
X15.609 Y6.257
X15.601 Y6.201
X15.598 Y6.144
G3 X15.923 Y5.835 Z2.2 I0.317 J0.009
X16.232 Y6.129 I-0.008 J0.317
G1 X16.235 Y6.171
X16.234 Y6.222
X16.226 Y6.273
X16.209 Y6.322
X16.179 Y6.376 F20
X16.139 Y6.423
X16.09 Y6.461
X16.035 Y6.49
G3 X15.623 Y6.312 Z2 I-0.117 J-0.295
G1 X15.611 Y6.279 F50
X15.602 Y6.243
X15.598 Y6.207
X15.597 Y6.061
Y5.915
X15.598 Y5.871
X15.599 Y5.841
X15.606 Y5.742
X15.62 Y5.711 F20
X15.643 Y5.687
X15.674 Y5.674
X15.707 Y5.673
X15.739 Y5.684
X15.765 Y5.706
X15.78 Y5.735
X15.784 Y5.768
X15.78 Y5.846
X15.771 Y5.879
X15.75 Y5.907
X15.721 Y5.925
X15.687 Y5.93
X15.653 Y5.923
X15.625 Y5.903
X15.606 Y5.875
X15.599 Y5.841
X15.6 Y5.77 F50
X15.608 Y5.734
X15.619 Y5.697
X15.715 Y5.435
X15.727 Y5.404
X15.741 Y5.365
X15.762 Y5.316
G3 X16.091 Y5.209 I0.225 J0.132
X16.223 Y5.56 I-0.103 J0.239
X15.741 Y5.365 I-0.235 J-0.112 F20
G1 X15.753 Y5.333 F50
X15.77 Y5.302
X15.792 Y5.27
X15.983 Y5.042
X15.991 Y5.033
X16.013 Y5.009
X16.093 Y4.928
G3 X16.538 Y4.986 Z2.2 I0.193 J0.252
X16.52 Y5.394 I-0.252 J0.193
G1 X16.491 Y5.427
X16.447 Y5.466
X16.397 Y5.497
X16.341 Y5.518
X16.283 Y5.529
X16.221 Y5.528 F20
X16.161 Y5.515
X16.104 Y5.491
X16.053 Y5.456
G3 X16.013 Y5.009 Z2 I0.204 J-0.243
G1 X16.064 Y4.952 F50
X16.1 Y4.922
X16.141 Y4.897
X16.343 Y4.78
X16.371 Y4.764
X16.393 Y4.751
X16.491 Y4.701
X16.525 Y4.696 F20
X16.558 Y4.703
X16.586 Y4.722
X16.605 Y4.75
X16.612 Y4.783
X16.607 Y4.816
X16.59 Y4.846
X16.563 Y4.866
X16.483 Y4.908
X16.45 Y4.918
X16.415 Y4.915
X16.385 Y4.899
X16.362 Y4.873
X16.351 Y4.84
X16.353 Y4.806
X16.368 Y4.775
X16.393 Y4.751
X16.428 Y4.731 F50
X16.465 Y4.711
X16.501 Y4.697
X16.574 Y4.681
X16.8 Y4.641
X16.837 Y4.634
X16.866 Y4.629
X16.978 Y4.618
G3 X17.288 Y4.936 Z2.192 I-0.047 J0.356
G1 X17.289 Y4.956 Z2.2
G3 X16.686 Y5.216 I-0.35 J0.017
G1 X16.648 Y5.168 F20
X16.618 Y5.113
X16.598 Y5.055
X16.589 Y4.993
G3 X16.866 Y4.629 Z2 I0.35 J-0.021
G1 X16.939 Y4.618 F50
X16.975 Y4.617
X17.012 Y4.621
X17.304 Y4.672
X17.344 Y4.679
X17.377 Y4.685
X17.439 Y4.702
G3 X17.59 Y5.116 Z2.2 I-0.106 J0.273
X17.134 Y5.191 I-0.258 J-0.14
G1 X17.093 Y5.144 F20
X17.063 Y5.09
X17.045 Y5.031
X17.04 Y4.969
G3 X17.289 Y4.685 Z2.035 I0.293 J0.006
G1 X17.333 Y4.682 Z2.018
X17.377 Y4.685 Z2
X17.413 Y4.693 F50
X17.45 Y4.706
X17.535 Y4.751
X17.741 Y4.871
X17.787 Y4.897
X17.837 Y4.93
X17.862 Y4.95
X17.887 Y4.974
X18.067 Y5.188
X18.085 Y5.21
X18.159 Y5.308
G3 X18.023 Y5.736 Z2.2 I-0.282 J0.146
X17.64 Y5.665 I-0.146 J-0.282
G1 X17.612 Y5.634
X17.576 Y5.583
X17.549 Y5.527
X17.535 Y5.466
X17.532 Y5.404
X17.542 Y5.343 F20
X17.563 Y5.285
X17.595 Y5.232
X17.637 Y5.186
G3 X18.085 Y5.21 Z2 I0.212 J0.236
G1 X18.128 Y5.261 F50
X18.153 Y5.297
X18.174 Y5.333
X18.179 Y5.345
X18.282 Y5.624
X18.325 Y5.761
X18.327 Y5.77
X18.331 Y5.915
X18.33 Y6.207
X18.325 Y6.243
X18.29 Y6.352
X18.184 Y6.643
X18.179 Y6.656
X18.162 Y6.689
X18.14 Y6.722
X18.086 Y6.789
X17.932 Y6.972
G3 X17.508 Y7.014 I-0.235 J-0.213
G1 X17.473 Y6.972 Z2.005
X17.44 Y6.931 Z2.019
X17.409 Y6.892 Z2.042
X17.399 Y6.85 Z2.073
X17.391 Y6.812 Z2.111
X17.385 Y6.782 Z2.154
X17.38 Y6.759 Z2.202
Y6.743 Z2.259
Y6.737 Z2.317
Z16
X21.8 Y17.056
Z4.1
G3 X20.268 Y17.145 Z3.976 I-0.801 J-0.556 F30
X20.549 Y15.639 Z3.853 I0.73 J-0.643
X21.94 Y16.27 Z3.729 I0.449 J0.86
X20.997 Y17.468 Z3.606 I-0.941 J0.229
X20.062 Y16.268 Z3.482 I0.002 J-0.966
X21.447 Y15.648 Z3.359 I0.935 J0.233
X21.717 Y17.138 Z3.235 I-0.449 J0.851
X20.209 Y17.044 Z3.112 I-0.717 J-0.638
X20.66 Y15.606 Z2.988 I0.789 J-0.543
X21.946 Y16.386 Z2.865 I0.338 J0.894
X20.884 Y17.446 Z2.741 I-0.946 J0.114
X20.11 Y16.164 Z2.618 I0.116 J-0.944
X21.537 Y15.72 Z2.494 I0.887 J0.337
X21.626 Y17.208 Z2.371 I-0.538 J0.779
X20.163 Y16.939 Z2.247 I-0.626 J-0.707
X20.773 Y15.587 Z2.124 I0.835 J-0.438
X21.938 Y16.5 Z2 I0.225 J0.913
X20.057 Y16.5 I-0.94 J0
X21.938 Y16.5 I0.94 J0
G1 X21.954 Y16.826 F50
X21.955 Y16.976
X21.878 Y17.157
X21.762 Y17.316
X21.611 Y17.444
X21.436 Y17.534
X21.299 Y17.583
X21.243 Y17.604
X21.206 Y17.613
X21.17 Y17.619
X21.097 Y17.621
X20.878
X20.842 Y17.62
X20.805 Y17.615
X20.659 Y17.569
X20.513 Y17.516
X20.44 Y17.485
X20.404 Y17.462
X20.345 Y17.413
X20.171 Y17.268
X20.139 Y17.236
X20.115 Y17.204
X20.065 Y17.122
X19.964 Y16.947
X19.951 Y16.922
X19.93 Y16.868
X19.92 Y16.831
X19.87 Y16.54
X19.868 Y16.503
X19.869 Y16.467
X19.881 Y16.394
X19.906 Y16.249
X19.93 Y16.131
X19.94 Y16.103
X20.019 Y15.958
X20.103 Y15.812
X20.124 Y15.782
X20.151 Y15.751
X20.25 Y15.667
X20.367 Y15.568
X20.431 Y15.521
X20.472 Y15.5
X20.659 Y15.431
X20.739 Y15.406
X20.776 Y15.394
X20.817 Y15.383
X20.867 Y15.386
X20.915 Y15.402
X20.956 Y15.431
X20.988 Y15.47
X21.008 Y15.516
X21.013 Y15.554
G3 X20.658 Y15.57 I-0.178 J0.008 F20
X20.776 Y15.394 I0.178 J-0.008
G1 X20.805 Y15.385 F50
X20.842 Y15.38
X20.878 Y15.379
X21.097
X21.17 Y15.381
X21.206 Y15.387
X21.243 Y15.396
X21.389 Y15.449
X21.469 Y15.479
X21.505 Y15.492
X21.545 Y15.512
X21.584 Y15.535
X21.621 Y15.561
G3 X21.658 Y16.008 Z2.2 I-0.205 J0.242
X21.201 Y16.037 I-0.243 J-0.205
G1 X21.19 Y16.027
X21.151 Y15.984
X21.12 Y15.934
X21.098 Y15.876 F20
X21.088 Y15.815
X21.09 Y15.753
X21.104 Y15.693
G3 X21.505 Y15.492 Z2 I0.301 J0.1
G1 X21.535 Y15.503 F50
X21.57 Y15.521
X21.68 Y15.608
X21.792 Y15.702
X21.826 Y15.731
X21.867 Y15.772
X21.897 Y15.812
X21.981 Y15.958
X22.06 Y16.103
X22.073 Y16.14
X22.081 Y16.176
X22.119 Y16.394
X22.131 Y16.467
X22.132 Y16.503
X22.13 Y16.54
X22.105 Y16.685
X22.08 Y16.831
X22.071 Y16.867
X22.058 Y16.904
X22.019 Y16.977
X21.935 Y17.122
X21.892 Y17.195
X21.865 Y17.231
X21.826 Y17.27
X21.655 Y17.413
X21.595 Y17.462
X21.565 Y17.481
X21.535 Y17.497
X21.436 Y17.534
G3 X21.046 Y17.361 I-0.1 J-0.301
G1 X21.032 Y17.296 Z2.007
X21.018 Y17.233 Z2.029
Y17.232
X21.03 Y17.184 Z2.058
X21.041 Y17.142 Z2.095
X21.05 Y17.107 Z2.14
X21.057 Y17.081 Z2.19
X21.067 Y17.064 Z2.253
X21.07 Y17.058 Z2.317
Z16
X5.8 Y5.058
Z2.1
G3 X4.267 Y5.143 Z1.976 I-0.799 J-0.558 F30
X4.551 Y3.638 Z1.853 I0.731 J-0.641
X5.941 Y4.271 Z1.729 I0.447 J0.861
X4.996 Y5.467 Z1.606 I-0.941 J0.228
X4.062 Y4.267 Z1.482 I0.004 J-0.966
X5.448 Y3.649 Z1.359 I0.935 J0.234
X5.717 Y5.139 Z1.235 I-0.45 J0.85
X4.209 Y5.043 Z1.112 I-0.716 J-0.639
X4.661 Y3.605 Z0.988 I0.79 J-0.542
X5.946 Y4.386 Z0.865 I0.337 J0.894
X4.883 Y5.445 Z0.741 I-0.947 J0.113
X4.111 Y4.163 Z0.618 I0.116 J-0.944
X5.538 Y3.72 Z0.494 I0.887 J0.338
X5.626 Y5.208 Z0.371 I-0.539 J0.779
X4.163 Y4.939 Z0.247 I-0.626 J-0.708
X4.773 Y3.586 Z0.124 I0.835 J-0.437
X5.938 Y4.499 Z0 I0.225 J0.913
X4.057 Y4.499 I-0.94 J0
X5.938 Y4.499 I0.94 J0
G1 X5.955 Y4.826 F50
X5.956 Y4.976
X5.878 Y5.159
X5.76 Y5.319
X5.608 Y5.447
X5.43 Y5.536
X5.341 Y5.569
X5.261 Y5.594
X5.195 Y5.615
X5.158 Y5.62
X5.122 Y5.621
X4.903
X4.83 Y5.619
X4.794 Y5.613
X4.757 Y5.604
X4.611 Y5.551
X4.465 Y5.497
X4.43 Y5.479
X4.32 Y5.392
X4.174 Y5.269
X4.133 Y5.228
X4.103 Y5.188
X4.019 Y5.042
X3.94 Y4.897
X3.927 Y4.86
X3.919 Y4.824
X3.874 Y4.566
X3.869 Y4.533
X3.868 Y4.496
X3.87 Y4.46
X3.895 Y4.315
X3.92 Y4.169
X3.929 Y4.133
X3.942 Y4.096
X3.981 Y4.023
X4.089 Y3.838
X4.108 Y3.805
X4.135 Y3.769
X4.174 Y3.73
X4.345 Y3.587
X4.405 Y3.538
X4.435 Y3.519
X4.465 Y3.503
X4.632 Y3.441
X4.757 Y3.396
X4.794 Y3.387
X4.83 Y3.381
X4.903 Y3.379
X5.122
X5.158 Y3.38
X5.195 Y3.385
X5.341 Y3.431
X5.487 Y3.485
X5.56 Y3.515
X5.596 Y3.538
X5.655 Y3.587
X5.829 Y3.732
X5.861 Y3.764
X5.885 Y3.796
X5.935 Y3.878
X6.036 Y4.053
X6.049 Y4.078
X6.07 Y4.132
X6.08 Y4.169
X6.13 Y4.46
X6.132 Y4.496
X6.131 Y4.533
X6.119 Y4.606
X6.094 Y4.751
X6.07 Y4.869
X6.06 Y4.897
X5.981 Y5.042
X5.897 Y5.188
X5.876 Y5.218
X5.849 Y5.249
X5.75 Y5.333
X5.633 Y5.432
X5.569 Y5.479
X5.528 Y5.5
X5.43 Y5.536
G3 X5.041 Y5.361 I-0.098 J-0.302
G1 X5.027 Y5.296 Z0.007
X5.015 Y5.234 Z0.028
X5.027 Y5.187 Z0.056
X5.037 Y5.145 Z0.093
X5.046 Y5.11 Z0.136
X5.053 Y5.082 Z0.185
X5.064 Y5.064 Z0.25
X5.068 Y5.058 Z0.317
Z16
X5.798 Y17.061
Z2.1
G3 X4.265 Y17.141 Z1.976 I-0.798 J-0.561 F30
X4.553 Y15.637 Z1.853 I0.733 J-0.639
X5.942 Y16.274 Z1.729 I0.445 J0.863
X4.993 Y17.467 Z1.606 I-0.942 J0.225
X4.063 Y16.264 Z1.482 I0.006 J-0.966
X5.45 Y15.649 Z1.359 I0.935 J0.236
X5.715 Y17.14 Z1.235 I-0.452 J0.849
X4.208 Y17.042 Z1.112 I-0.715 J-0.64
X4.662 Y15.605 Z0.988 I0.791 J-0.54
X5.947 Y16.388 Z0.865 I0.335 J0.895
X4.882 Y17.445 Z0.741 I-0.947 J0.112
X4.111 Y16.162 Z0.618 I0.118 J-0.944
X5.538 Y15.721 Z0.494 I0.887 J0.339
X5.625 Y17.208 Z0.371 I-0.539 J0.778
X4.163 Y16.939 Z0.247 I-0.625 J-0.708
X4.773 Y15.586 Z0.124 I0.835 J-0.437
X5.938 Y16.499 Z0 I0.225 J0.913
X4.057 Y16.499 I-0.94 J0
X5.938 Y16.499 I0.94 J0
G1 X5.955 Y16.825 F50
X5.956 Y16.975
X5.878 Y17.159
X5.76 Y17.319
X5.608 Y17.447
X5.43 Y17.536
X5.341 Y17.569
X5.261 Y17.594
X5.195 Y17.615
X5.158 Y17.62
X5.122 Y17.621
X4.903
X4.83 Y17.619
X4.794 Y17.613
X4.757 Y17.604
X4.611 Y17.551
X4.465 Y17.497
X4.435 Y17.481
X4.405 Y17.462
X4.32 Y17.392
X4.171 Y17.268
X4.135 Y17.231
X4.108 Y17.195
X4.028 Y17.058
X3.981 Y16.977
X3.942 Y16.904
X3.929 Y16.867
X3.92 Y16.831
X3.875 Y16.573
X3.87 Y16.54
X3.868 Y16.503
X3.869 Y16.467
X3.882 Y16.387
X3.919 Y16.176
X3.927 Y16.14
X3.94 Y16.103
X4.028 Y15.942
X4.103 Y15.812
X4.133 Y15.772
X4.174 Y15.731
X4.32 Y15.608
X4.38 Y15.56
X4.408 Y15.539
X4.43 Y15.523
X4.465 Y15.503
X4.515 Y15.494
X4.565 Y15.498
X4.613 Y15.515
X4.654 Y15.544
X4.686 Y15.583
X4.7 Y15.611
X4.709 Y15.641
G3 X4.346 Y15.72 I-0.181 J0.04 F20
X4.408 Y15.539 I0.181 J-0.04
G1 X4.43 Y15.521 F50
X4.465 Y15.503
X4.611 Y15.449
X4.692 Y15.42
X4.757 Y15.396
X4.794 Y15.387
X4.83 Y15.381
X4.903 Y15.379
X5.122
X5.158 Y15.38
X5.195 Y15.385
X5.341 Y15.431
X5.528 Y15.5
X5.569 Y15.521
X5.633 Y15.568
X5.778 Y15.69
X5.8 Y15.709
X5.852 Y15.764
X5.899 Y15.823
X5.94 Y15.887
G3 X5.809 Y16.317 Z0.2 I-0.28 J0.149
X5.404 Y16.225 I-0.149 J-0.28
G1 X5.345 Y16.144
X5.316 Y16.096
X5.296 Y16.044
X5.285 Y15.989
Y15.927 F20
X5.296 Y15.866
X5.32 Y15.809
X5.354 Y15.757
G3 X5.8 Y15.709 Z0 I0.247 J0.199
G1 X5.849 Y15.751 F50
X5.876 Y15.782
X5.897 Y15.812
X5.981 Y15.958
X6.025 Y16.038
X6.06 Y16.103
X6.07 Y16.131
X6.094 Y16.249
X6.119 Y16.394
X6.131 Y16.467
X6.132 Y16.503
X6.13 Y16.54
X6.08 Y16.831
X6.07 Y16.868
X6.049 Y16.922
X6.019 Y16.977
X5.924 Y17.14
X5.885 Y17.204
X5.861 Y17.236
X5.829 Y17.268
X5.633 Y17.432
X5.596 Y17.462
X5.56 Y17.485
X5.487 Y17.516
X5.43 Y17.536
G3 X5.041 Y17.361 I-0.098 J-0.302
G1 X5.027 Y17.296 Z0.007
X5.014 Y17.234 Z0.028
X5.027 Y17.187 Z0.056
X5.037 Y17.145 Z0.093
X5.046 Y17.11 Z0.136
X5.053 Y17.083 Z0.185
X5.064 Y17.064 Z0.25
X5.068 Y17.058 Z0.317
Z16
X18.144 Y5.854
Z2.1
G3 X16.976 Y7.189 Z1.96 I-1.18 J0.146 F30
X15.783 Y5.881 Z1.82 I-0.012 J-1.187
X17.215 Y4.846 Z1.68 I1.178 J0.121
X18.081 Y6.381 Z1.54 I-0.253 J1.154
X16.46 Y7.067 Z1.4 I-1.116 J-0.38
X15.963 Y5.383 Z1.26 I0.503 J-1.064
X17.688 Y5.079 Z1.12 I0.999 J0.618
X17.796 Y6.824 Z0.98 I-0.725 J0.921
X16.053 Y6.735 Z0.84 I-0.831 J-0.823
X16.338 Y5.017 Z0.7 I0.909 J-0.732
X18.009 Y5.493 Z0.56 I0.623 J0.984
X17.35 Y7.096 Z0.42 I-1.046 J0.507
X15.834 Y6.262 Z0.28 I-0.385 J-1.094
X16.831 Y4.853 Z0.14 I1.128 J-0.259
X18.116 Y6 Z0 I0.13 J1.148
X15.807 Y6 I-1.155 J0
X18.116 Y6 I1.155 J0
G1 X18.141 Y6.374 F50
X18.144 Y6.524
X18.11 Y6.67
X18.05 Y6.807
X18.001 Y6.883
X17.968 Y6.928
X17.932 Y6.972
X17.908 Y7.001
X17.887 Y7.025
X17.857 Y7.056
X17.826 Y7.08
X17.741 Y7.129
X17.575 Y7.225
X17.44 Y7.291
X17.403 Y7.305
X17.365 Y7.316
X17.326 Y7.324
G3 X16.967 Y7.054 Z0.2 I-0.044 J-0.314
X17.157 Y6.718 I0.314 J-0.044
G1 X17.282 Y6.664
X17.346 Y6.644
X17.413 Y6.639
X17.48 Y6.647
X17.538 Y6.667 F20
X17.592 Y6.698
X17.639 Y6.739
X17.676 Y6.788
G3 X17.575 Y7.225 Z0 I-0.269 J0.168
G1 X17.45 Y7.294 F50
X17.413 Y7.307
X17.377 Y7.315
X17.105 Y7.363
X17.061 Y7.371
X17.012 Y7.379
X16.947 Y7.382
G3 X16.683 Y7.033 Z0.2 I0.014 J-0.285
X17.059 Y6.829 I0.278 J0.064
G1 X17.114 Y6.856 F20
X17.163 Y6.895
X17.202 Y6.943
X17.229 Y6.998
G3 X17.102 Y7.345 Z0.039 I-0.268 J0.099
G1 X17.058 Y7.366 Z0.019
X17.012 Y7.379 Z0
X16.976 Y7.383 F50
X16.939 Y7.382
X16.866 Y7.371
X16.64 Y7.331
X16.604 Y7.325
X16.574 Y7.319
X16.47 Y7.291
G3 X16.237 Y6.887 Z0.2 I0.16 J-0.361
G1 X16.249 Y6.824
G3 X17.017 Y6.857 I0.38 J0.105
G1 X17.023 Y6.918 F20
X17.02 Y6.98
X17.007 Y7.041
X16.985 Y7.099
G3 X16.574 Y7.319 Z0 I-0.356 J-0.17
G1 X16.501 Y7.303 F50
X16.465 Y7.288
X16.428 Y7.269
X16.202 Y7.139
X16.137 Y7.101
X16.103 Y7.08
X16.071 Y7.054
X16.039 Y7.023
X15.845 Y6.793
X15.841 Y6.789
X15.756 Y6.67
G3 X15.924 Y6.254 Z0.2 I0.292 J-0.124
X16.277 Y6.326 I0.124 J0.292
G1 X16.306 Y6.356
G3 X16.394 Y6.594 I-0.228 J0.221
G1 X16.385 Y6.655 F20
X16.363 Y6.714
X16.331 Y6.767
X16.29 Y6.812
G3 X15.841 Y6.789 Z0 I-0.212 J-0.236
G1 X15.783 Y6.716 F50
X15.76 Y6.68
X15.743 Y6.643
X15.648 Y6.382
X15.637 Y6.352
X15.623 Y6.312
X15.609 Y6.257
X15.601 Y6.201
X15.598 Y6.144
G3 X15.923 Y5.835 Z0.2 I0.317 J0.009
X16.232 Y6.129 I-0.008 J0.317
G1 X16.235 Y6.171
X16.234 Y6.222
X16.226 Y6.273
X16.209 Y6.322
X16.179 Y6.376 F20
X16.139 Y6.423
X16.09 Y6.461
X16.035 Y6.49
G3 X15.623 Y6.312 Z0 I-0.117 J-0.295
G1 X15.611 Y6.279 F50
X15.602 Y6.243
X15.598 Y6.207
X15.597 Y6.061
Y5.915
X15.598 Y5.871
X15.599 Y5.841
X15.606 Y5.742
X15.62 Y5.711 F20
X15.643 Y5.687
X15.674 Y5.674
X15.707 Y5.673
X15.739 Y5.684
X15.765 Y5.706
X15.78 Y5.735
X15.784 Y5.768
X15.78 Y5.846
X15.771 Y5.879
X15.75 Y5.907
X15.721 Y5.925
X15.687 Y5.93
X15.653 Y5.923
X15.625 Y5.903
X15.606 Y5.875
X15.599 Y5.841
X15.6 Y5.77 F50
X15.608 Y5.734
X15.619 Y5.697
X15.715 Y5.435
X15.727 Y5.404
X15.741 Y5.365
X15.762 Y5.316
G3 X16.091 Y5.209 I0.225 J0.132
X16.223 Y5.56 I-0.103 J0.239
X15.741 Y5.365 I-0.235 J-0.112 F20
G1 X15.753 Y5.333 F50
X15.77 Y5.302
X15.792 Y5.27
X15.983 Y5.042
X15.991 Y5.033
X16.013 Y5.009
X16.093 Y4.928
G3 X16.538 Y4.986 Z0.2 I0.193 J0.252
X16.52 Y5.394 I-0.252 J0.193
G1 X16.491 Y5.427
X16.447 Y5.466
X16.397 Y5.497
X16.341 Y5.518
X16.283 Y5.529
X16.221 Y5.528 F20
X16.161 Y5.515
X16.104 Y5.491
X16.053 Y5.456
G3 X16.013 Y5.009 Z0 I0.204 J-0.243
G1 X16.064 Y4.952 F50
X16.1 Y4.922
X16.141 Y4.897
X16.343 Y4.78
X16.371 Y4.764
X16.393 Y4.751
X16.491 Y4.701
X16.525 Y4.696 F20
X16.558 Y4.703
X16.586 Y4.722
X16.605 Y4.75
X16.612 Y4.783
X16.607 Y4.816
X16.59 Y4.846
X16.563 Y4.866
X16.483 Y4.908
X16.45 Y4.918
X16.415 Y4.915
X16.385 Y4.899
X16.362 Y4.873
X16.351 Y4.84
X16.353 Y4.806
X16.368 Y4.775
X16.393 Y4.751
X16.428 Y4.731 F50
X16.465 Y4.711
X16.501 Y4.697
X16.574 Y4.681
X16.8 Y4.641
X16.837 Y4.634
X16.866 Y4.629
X16.978 Y4.618
G3 X17.288 Y4.936 Z0.192 I-0.047 J0.356
G1 X17.289 Y4.956 Z0.2
G3 X16.686 Y5.216 I-0.35 J0.017
G1 X16.648 Y5.168 F20
X16.618 Y5.113
X16.598 Y5.055
X16.589 Y4.993
G3 X16.866 Y4.629 Z0 I0.35 J-0.021
G1 X16.939 Y4.618 F50
X16.975 Y4.617
X17.012 Y4.621
X17.304 Y4.672
X17.344 Y4.679
X17.377 Y4.685
X17.439 Y4.702
G3 X17.59 Y5.116 Z0.2 I-0.106 J0.273
X17.134 Y5.191 I-0.258 J-0.14
G1 X17.093 Y5.144 F20
X17.063 Y5.09
X17.045 Y5.031
X17.04 Y4.969
G3 X17.289 Y4.685 Z0.035 I0.293 J0.006
G1 X17.333 Y4.682 Z0.018
X17.377 Y4.685 Z0
X17.413 Y4.693 F50
X17.45 Y4.706
X17.535 Y4.751
X17.741 Y4.871
X17.787 Y4.897
X17.837 Y4.93
X17.862 Y4.95
X17.887 Y4.974
X18.067 Y5.188
X18.085 Y5.21
X18.159 Y5.308
G3 X18.023 Y5.736 Z0.2 I-0.282 J0.146
X17.64 Y5.665 I-0.146 J-0.282
G1 X17.612 Y5.634
X17.576 Y5.583
X17.549 Y5.527
X17.535 Y5.466
X17.532 Y5.404
X17.542 Y5.343 F20
X17.563 Y5.285
X17.595 Y5.232
X17.637 Y5.186
G3 X18.085 Y5.21 Z0 I0.212 J0.236
G1 X18.128 Y5.261 F50
X18.153 Y5.297
X18.174 Y5.333
X18.179 Y5.345
X18.282 Y5.624
X18.325 Y5.761
X18.327 Y5.77
X18.331 Y5.915
X18.33 Y6.207
X18.325 Y6.243
X18.29 Y6.352
X18.184 Y6.643
X18.179 Y6.656
X18.162 Y6.689
X18.14 Y6.722
X18.086 Y6.789
X17.932 Y6.972
G3 X17.508 Y7.014 I-0.235 J-0.213
G1 X17.473 Y6.972 Z0.005
X17.44 Y6.931 Z0.019
X17.409 Y6.892 Z0.042
X17.399 Y6.85 Z0.073
X17.391 Y6.812 Z0.111
X17.385 Y6.782 Z0.154
X17.38 Y6.759 Z0.202
Y6.743 Z0.259
Y6.737 Z0.317
Z16
X21.8 Y17.056
Z2.1
G3 X20.268 Y17.145 Z1.976 I-0.801 J-0.556 F30
X20.549 Y15.639 Z1.853 I0.73 J-0.643
X21.94 Y16.27 Z1.729 I0.449 J0.86
X20.997 Y17.468 Z1.606 I-0.941 J0.229
X20.062 Y16.268 Z1.482 I0.002 J-0.966
X21.447 Y15.648 Z1.359 I0.935 J0.233
X21.717 Y17.138 Z1.235 I-0.449 J0.851
X20.209 Y17.044 Z1.112 I-0.717 J-0.638
X20.66 Y15.606 Z0.988 I0.789 J-0.543
X21.946 Y16.386 Z0.865 I0.338 J0.894
X20.884 Y17.446 Z0.741 I-0.946 J0.114
X20.11 Y16.164 Z0.618 I0.116 J-0.944
X21.537 Y15.72 Z0.494 I0.887 J0.337
X21.626 Y17.208 Z0.371 I-0.538 J0.779
X20.163 Y16.939 Z0.247 I-0.626 J-0.707
X20.773 Y15.587 Z0.124 I0.835 J-0.438
X21.938 Y16.5 Z0 I0.225 J0.913
X20.057 Y16.5 I-0.94 J0
X21.938 Y16.5 I0.94 J0
G1 X21.954 Y16.826 F50
X21.955 Y16.976
X21.878 Y17.157
X21.762 Y17.316
X21.611 Y17.444
X21.436 Y17.534
X21.299 Y17.583
X21.243 Y17.604
X21.206 Y17.613
X21.17 Y17.619
X21.097 Y17.621
X20.878
X20.842 Y17.62
X20.805 Y17.615
X20.659 Y17.569
X20.513 Y17.516
X20.44 Y17.485
X20.404 Y17.462
X20.345 Y17.413
X20.171 Y17.268
X20.139 Y17.236
X20.115 Y17.204
X20.065 Y17.122
X19.964 Y16.947
X19.951 Y16.922
X19.93 Y16.868
X19.92 Y16.831
X19.87 Y16.54
X19.868 Y16.503
X19.869 Y16.467
X19.881 Y16.394
X19.906 Y16.249
X19.93 Y16.131
X19.94 Y16.103
X20.019 Y15.958
X20.103 Y15.812
X20.124 Y15.782
X20.151 Y15.751
X20.25 Y15.667
X20.367 Y15.568
X20.431 Y15.521
X20.472 Y15.5
X20.659 Y15.431
X20.739 Y15.406
X20.776 Y15.394
X20.817 Y15.383
X20.867 Y15.386
X20.915 Y15.402
X20.956 Y15.431
X20.988 Y15.47
X21.008 Y15.516
X21.013 Y15.554
G3 X20.658 Y15.57 I-0.178 J0.008 F20
X20.776 Y15.394 I0.178 J-0.008
G1 X20.805 Y15.385 F50
X20.842 Y15.38
X20.878 Y15.379
X21.097
X21.17 Y15.381
X21.206 Y15.387
X21.243 Y15.396
X21.389 Y15.449
X21.469 Y15.479
X21.505 Y15.492
X21.545 Y15.512
X21.584 Y15.535
X21.621 Y15.561
G3 X21.658 Y16.008 Z0.2 I-0.205 J0.242
X21.201 Y16.037 I-0.243 J-0.205
G1 X21.19 Y16.027
X21.151 Y15.984
X21.12 Y15.934
X21.098 Y15.876 F20
X21.088 Y15.815
X21.09 Y15.753
X21.104 Y15.693
G3 X21.505 Y15.492 Z0 I0.301 J0.1
G1 X21.535 Y15.503 F50
X21.57 Y15.521
X21.68 Y15.608
X21.792 Y15.702
X21.826 Y15.731
X21.867 Y15.772
X21.897 Y15.812
X21.981 Y15.958
X22.06 Y16.103
X22.073 Y16.14
X22.081 Y16.176
X22.119 Y16.394
X22.131 Y16.467
X22.132 Y16.503
X22.13 Y16.54
X22.105 Y16.685
X22.08 Y16.831
X22.071 Y16.867
X22.058 Y16.904
X22.019 Y16.977
X21.935 Y17.122
X21.892 Y17.195
X21.865 Y17.231
X21.826 Y17.27
X21.655 Y17.413
X21.595 Y17.462
X21.565 Y17.481
X21.535 Y17.497
X21.436 Y17.534
G3 X21.046 Y17.361 I-0.1 J-0.301
G1 X21.032 Y17.296 Z0.007
X21.018 Y17.233 Z0.029
Y17.232
X21.03 Y17.184 Z0.058
X21.041 Y17.142 Z0.095
X21.05 Y17.107 Z0.14
X21.057 Y17.081 Z0.19
X21.067 Y17.064 Z0.253
X21.07 Y17.058 Z0.317
Z16
X4.701 Y5.428
Z0.1
G3 X4.095 Y4.861 Z0.04 I0.299 J-0.928 F30
X4.145 Y4.033 Z-0.02 I0.905 J-0.36
X4.815 Y3.545 Z-0.08 I0.853 J0.467
X5.617 Y3.75 Z-0.14 I0.183 J0.954
X5.969 Y4.498 Z-0.2 I-0.618 J0.748
X4.028 Y4.498 I-0.971 J0
X5.969 Y4.498 I0.971 J0
G1 X5.987 Y4.831 F50
X5.989 Y4.981
X5.962 Y5.06
X5.926 Y5.136
X5.883 Y5.208
X5.876 Y5.218
X5.849 Y5.249
X5.75 Y5.333
X5.633 Y5.432
X5.569 Y5.479
X5.528 Y5.5
X5.341 Y5.569
X5.195 Y5.615
X5.158 Y5.62
X5.122 Y5.621
X4.903
X4.83 Y5.619
X4.794 Y5.613
X4.757 Y5.604
X4.611 Y5.551
X4.465 Y5.497
X4.43 Y5.479
X4.32 Y5.392
X4.174 Y5.269
X4.133 Y5.228
X4.103 Y5.188
X4.019 Y5.042
X3.94 Y4.897
X3.927 Y4.86
X3.919 Y4.824
X3.881 Y4.606
X3.869 Y4.533
X3.868 Y4.496
X3.87 Y4.46
X3.895 Y4.315
X3.92 Y4.169
X3.929 Y4.133
X3.942 Y4.096
X3.981 Y4.023
X4.065 Y3.878
X4.108 Y3.805
X4.135 Y3.769
X4.174 Y3.73
X4.345 Y3.587
X4.405 Y3.538
X4.435 Y3.519
X4.465 Y3.503
X4.632 Y3.441
X4.757 Y3.396
X4.794 Y3.387
X4.83 Y3.381
X4.903 Y3.379
X5.122
X5.158 Y3.38
X5.195 Y3.385
X5.341 Y3.431
X5.487 Y3.485
X5.56 Y3.515
X5.596 Y3.538
X5.655 Y3.587
X5.829 Y3.732
X5.861 Y3.764
X5.885 Y3.796
X5.935 Y3.878
X6.019 Y4.023
X6.049 Y4.078
X6.07 Y4.132
X6.08 Y4.169
X6.13 Y4.46
X6.132 Y4.496
X6.131 Y4.533
X6.119 Y4.606
X6.094 Y4.751
X6.07 Y4.869
X6.06 Y4.897
X5.981 Y5.042
X5.897 Y5.188
X5.883 Y5.208
G3 X5.465 Y5.293 I-0.256 J-0.188
G1 X5.427 Y5.255 Z-0.195
X5.389 Y5.218 Z-0.181
X5.354 Y5.183 Z-0.158
X5.34 Y5.136 Z-0.122
X5.328 Y5.096 Z-0.078
X5.319 Y5.065 Z-0.027
X5.313 Y5.043 Z0.029
X5.31 Y5.033 Z0.089
Y5.032 Z0.117
Z16
X4.701 Y17.428
Z0.1
G3 X4.094 Y16.861 Z0.04 I0.299 J-0.928 F30
X4.145 Y16.032 Z-0.02 I0.905 J-0.36
X4.815 Y15.544 Z-0.08 I0.853 J0.468
X5.617 Y15.75 Z-0.14 I0.183 J0.954
X5.969 Y16.498 Z-0.2 I-0.618 J0.748
X4.028 Y16.498 I-0.971 J0
X5.969 Y16.498 I0.971 J0
G1 X5.987 Y16.831 F50
X5.989 Y16.981
X5.967 Y17.047
X5.939 Y17.111
X5.905 Y17.172
X5.885 Y17.204
X5.861 Y17.236
X5.829 Y17.268
X5.633 Y17.432
X5.596 Y17.462
X5.56 Y17.485
X5.487 Y17.516
X5.341 Y17.569
X5.195 Y17.615
X5.158 Y17.62
X5.122 Y17.621
X4.903
X4.83 Y17.619
X4.794 Y17.613
X4.757 Y17.604
X4.611 Y17.551
X4.465 Y17.497
X4.435 Y17.481
X4.405 Y17.462
X4.32 Y17.392
X4.171 Y17.268
X4.135 Y17.231
X4.108 Y17.195
X4.028 Y17.058
X3.981 Y16.977
X3.942 Y16.904
X3.929 Y16.867
X3.92 Y16.831
X3.882 Y16.613
X3.87 Y16.54
X3.868 Y16.503
X3.869 Y16.467
X3.882 Y16.387
X3.919 Y16.176
X3.927 Y16.14
X3.94 Y16.103
X4.028 Y15.942
X4.103 Y15.812
X4.133 Y15.772
X4.174 Y15.731
X4.32 Y15.608
X4.43 Y15.521
X4.465 Y15.503
X4.611 Y15.449
X4.757 Y15.396
X4.794 Y15.387
X4.83 Y15.381
X4.903 Y15.379
X5.122
X5.158 Y15.38
X5.195 Y15.385
X5.341 Y15.431
X5.528 Y15.5
X5.569 Y15.521
X5.633 Y15.568
X5.778 Y15.69
X5.849 Y15.751
X5.876 Y15.782
X5.897 Y15.812
X5.981 Y15.958
X6.06 Y16.103
X6.07 Y16.131
X6.094 Y16.249
X6.119 Y16.394
X6.131 Y16.467
X6.132 Y16.503
X6.13 Y16.54
X6.08 Y16.831
X6.07 Y16.868
X6.049 Y16.922
X6.019 Y16.977
X5.924 Y17.14
X5.905 Y17.172
G3 X5.491 Y17.277 I-0.264 J-0.176
G1 X5.451 Y17.24 Z-0.195
X5.412 Y17.205 Z-0.181
X5.375 Y17.171 Z-0.158
X5.359 Y17.125 Z-0.122
X5.346 Y17.085 Z-0.078
X5.335 Y17.055 Z-0.027
X5.328 Y17.034 Z0.029
X5.324 Y17.023 Z0.089
Y17.022 Z0.117
Z16
X15.902 Y6.535
Z0.1
G3 X15.886 Y5.498 Z0.025 I1.062 J-0.535 F30
X16.688 Y4.844 Z-0.05 I1.077 J0.501
X17.698 Y5.067 Z-0.125 I0.274 J1.154
X18.148 Y5.997 Z-0.2 I-0.735 J0.93
X15.778 Y5.997 I-1.185 J0
X18.148 Y5.997 I1.185 J0
G1 X18.162 Y6.414 F50
X18.161 Y6.564
X18.119 Y6.689
X18.058 Y6.807
X17.981 Y6.914
X17.922 Y6.984
X17.887 Y7.025
X17.857 Y7.056
X17.826 Y7.08
X17.741 Y7.129
X17.575 Y7.225
X17.45 Y7.294
X17.413 Y7.307
X17.377 Y7.315
X17.012 Y7.379
X16.976 Y7.383
X16.939 Y7.382
X16.866 Y7.371
X16.574 Y7.319
X16.501 Y7.303
X16.465 Y7.288
X16.428 Y7.269
X16.137 Y7.101
X16.103 Y7.08
X16.071 Y7.054
X16.039 Y7.023
X15.841 Y6.789
X15.783 Y6.716
X15.76 Y6.68
X15.743 Y6.643
X15.611 Y6.279
X15.602 Y6.243
X15.598 Y6.207
X15.597 Y6.061
Y5.915
X15.6 Y5.77
X15.608 Y5.734
X15.619 Y5.697
X15.699 Y5.479
X15.753 Y5.333
X15.77 Y5.302
X15.792 Y5.27
X15.991 Y5.033
X16.064 Y4.952
X16.1 Y4.922
X16.141 Y4.897
X16.428 Y4.731
X16.465 Y4.711
X16.501 Y4.697
X16.574 Y4.681
X16.866 Y4.629
X16.939 Y4.618
X16.975 Y4.617
X17.012 Y4.621
X17.377 Y4.685
X17.413 Y4.693
X17.45 Y4.706
X17.535 Y4.751
X17.787 Y4.897
X17.837 Y4.93
X17.862 Y4.95
X17.887 Y4.974
X18.128 Y5.261
X18.153 Y5.297
X18.174 Y5.333
X18.179 Y5.345
X18.282 Y5.624
X18.325 Y5.761
X18.327 Y5.77
X18.331 Y5.915
X18.33 Y6.207
X18.325 Y6.243
X18.29 Y6.352
X18.184 Y6.643
X18.179 Y6.656
X18.162 Y6.689
X18.14 Y6.722
X18.086 Y6.789
X17.981 Y6.914
G3 X17.557 Y6.957 I-0.236 J-0.212
G1 X17.522 Y6.915 Z-0.195
X17.489 Y6.874 Z-0.181
X17.458 Y6.836 Z-0.158
X17.448 Y6.793 Z-0.127
X17.44 Y6.755 Z-0.088
X17.433 Y6.724 Z-0.044
X17.428 Y6.702 Z0.005
Y6.686 Z0.06
Y6.681 Z0.117
Z16
X20.702 Y17.428
Z0.1
G3 X20.094 Y16.861 Z0.04 I0.298 J-0.928 F30
X20.145 Y16.033 Z-0.02 I0.904 J-0.361
X20.815 Y15.545 Z-0.08 I0.853 J0.467
X21.617 Y15.75 Z-0.14 I0.183 J0.954
X21.969 Y16.498 Z-0.2 I-0.618 J0.748
X20.028 Y16.498 I-0.971 J0
X21.969 Y16.498 I0.971 J0
G1 X21.987 Y16.831 F50
X21.988 Y16.981
X21.967 Y17.045
X21.941 Y17.106
X21.91 Y17.165
X21.892 Y17.195
X21.865 Y17.231
X21.826 Y17.27
X21.655 Y17.413
X21.595 Y17.462
X21.565 Y17.481
X21.535 Y17.497
X21.368 Y17.559
X21.243 Y17.604
X21.206 Y17.613
X21.17 Y17.619
X21.097 Y17.621
X20.878
X20.842 Y17.62
X20.805 Y17.615
X20.659 Y17.569
X20.513 Y17.516
X20.44 Y17.485
X20.404 Y17.462
X20.345 Y17.413
X20.171 Y17.268
X20.139 Y17.236
X20.115 Y17.204
X20.065 Y17.122
X19.981 Y16.977
X19.951 Y16.922
X19.93 Y16.868
X19.92 Y16.831
X19.87 Y16.54
X19.868 Y16.503
X19.869 Y16.467
X19.881 Y16.394
X19.906 Y16.249
X19.93 Y16.131
X19.94 Y16.103
X20.019 Y15.958
X20.103 Y15.812
X20.124 Y15.782
X20.151 Y15.751
X20.25 Y15.667
X20.367 Y15.568
X20.431 Y15.521
X20.472 Y15.5
X20.659 Y15.431
X20.805 Y15.385
X20.842 Y15.38
X20.878 Y15.379
X21.097
X21.17 Y15.381
X21.206 Y15.387
X21.243 Y15.396
X21.389 Y15.449
X21.535 Y15.503
X21.57 Y15.521
X21.68 Y15.608
X21.826 Y15.731
X21.867 Y15.772
X21.897 Y15.812
X21.981 Y15.958
X22.06 Y16.103
X22.073 Y16.14
X22.081 Y16.176
X22.119 Y16.394
X22.131 Y16.467
X22.132 Y16.503
X22.13 Y16.54
X22.105 Y16.685
X22.08 Y16.831
X22.071 Y16.867
X22.058 Y16.904
X22.019 Y16.977
X21.91 Y17.165
G3 X21.326 Y17.025 I-0.268 J-0.171
G1 X21.319 Y16.955 Z-0.192
X21.313 Y16.888 Z-0.169
X21.307 Y16.828 Z-0.131
X21.302 Y16.778 Z-0.08
X21.298 Y16.74 Z-0.02
X21.296 Y16.717 Z0.047
X21.295 Y16.709 Z0.117
Z26
M5
M30
