(1033pocket1)
(Machine)
(  vendor: Nikodem Bartnik)
(  model: Generic 3-axis Router)
(  description: This machine has XYZ axis on the Head)
(T1  D=1.55 CR=0 - ZMIN=0 - flat end mill)
G90 G94
G17
G21
(When using Fusion 360 for Personal Use, the feedrate of)
(rapid moves is reduced to match the feedrate of cutting)
(moves, which can increase machining time. Unrestricted rapid)
(moves are available with a Fusion 360 Subscription.)

(Adaptive1)
T1
S5000 M3
G54
G0 X13.066 Y10.554
Z13.7
G1 Z12.2 F50
G3 X12.715 Y11.689 Z12.078 I-0.565 J0.447 F16.7
X11.784 Y10.956 Z11.956 I-0.214 J-0.686
X12.8 Y10.353 Z11.833 I0.715 J0.047
X12.997 Y11.514 Z11.711 I-0.3 J0.648
X11.846 Y11.282 Z11.589 I-0.496 J-0.511
X12.475 Y10.294 Z11.467 I0.653 J-0.278
X13.169 Y11.233 Z11.344 I0.024 J0.707
X12.047 Y11.542 Z11.222 I-0.667 J-0.231
X12.161 Y10.387 Z11.1 I0.454 J-0.538
X13.194 Y10.908 Z10.978 I0.338 J0.615
X12.34 Y11.682 Z10.856 I-0.693 J0.094
X11.926 Y10.61 Z10.733 I0.161 J-0.678
X13.072 Y10.609 Z10.611 I0.573 J0.393
X12.662 Y11.675 Z10.489 I-0.571 J0.393
X11.817 Y10.912 Z10.367 I-0.161 J-0.672
X12.83 Y10.399 Z10.244 I0.683 J0.091
X12.944 Y11.525 Z10.122 I-0.329 J0.602
X11.855 Y11.228 Z10 I-0.442 J-0.522
X12.522 Y10.322 Z9.878 I0.644 J-0.224
X13.126 Y11.267 Z9.756 I-0.022 J0.68
X12.031 Y11.49 Z9.633 I-0.624 J-0.264
X12.215 Y10.391 Z9.511 I0.47 J-0.486
X13.171 Y10.956 Z9.389 I0.284 J0.611
X12.303 Y11.643 Z9.267 I-0.67 J0.045
X11.975 Y10.589 Z9.144 I0.198 J-0.64
X13.073 Y10.662 Z9.022 I0.524 J0.413
X12.612 Y11.657 Z8.9 I-0.572 J0.339
X11.851 Y10.872 Z8.778 I-0.111 J-0.654
X12.855 Y10.446 Z8.656 I0.648 J0.131
X12.891 Y11.532 Z8.533 I-0.354 J0.555
X11.868 Y11.177 Z8.411 I-0.39 J-0.529
X12.565 Y10.352 Z8.289 I0.631 J-0.173
X13.082 Y11.296 Z8.167 I-0.065 J0.649
X12.019 Y11.439 Z8.044 I-0.58 J-0.293
X12.267 Y10.399 Z7.922 I0.481 J-0.435
X13.145 Y11.002 Z7.8 I0.232 J0.603
X11.853 Y11.002 I-0.646 J0
X13.145 Y11.002 I0.646 J0
G1 X13.171 Y11.404 F50
X13.169 Y11.554
X13.114 Y11.694
X13.087 Y11.73
X13.007 Y11.808
X12.907 Y11.858
X12.797 Y11.875
X12.691
X12.59 Y11.873
X12.523 Y11.859
X12.152 Y11.769
X12.135 Y11.765
X12.118 Y11.758
X12.101 Y11.748
X12.085 Y11.736
X11.846 Y11.533
X11.831 Y11.519
X11.82 Y11.505
X11.804 Y11.48
X11.791 Y11.455
X11.68 Y11.188
X11.667 Y11.152
X11.662 Y11.126
X11.66 Y11.101
X11.68 Y10.844
X11.692 Y10.747
X11.7 Y10.722
X11.713 Y10.697
X11.868 Y10.444
X11.883 Y10.424
X11.908 Y10.394
X11.92 Y10.383
X11.933 Y10.375
X12.211 Y10.205
X12.224 Y10.199
X12.236 Y10.194
X12.262 Y10.188
X12.287 Y10.185
X12.59 Y10.161
X12.615
X12.641 Y10.164
X12.691 Y10.181
X12.969 Y10.297
X12.982 Y10.304
X12.995 Y10.312
X13.029 Y10.343
X13.203 Y10.545
X13.244 Y10.596
X13.252 Y10.609
X13.259 Y10.621
X13.268 Y10.646
X13.365 Y11.05
X13.39 Y11.152
X13.418 Y11.253
X13.431 Y11.283
X13.485 Y11.423
X13.49 Y11.467
X13.477 Y11.619
X13.403 Y11.752
X13.281 Y11.843
X13.132 Y11.875
X13.084 Y11.866 Z7.84
X13.042 Y11.842 Z7.88
X13.008 Y11.807 Z7.92
X12.988 Y11.763 Z7.96
X12.982 Y11.715 Z8
X12.986 Y11.687
X12.994 Y11.66
X13.011 Y11.621
X13.149 Y11.291 F20
X13.167 Y11.258
X13.193 Y11.231
X13.224 Y11.211
X13.271 Y11.197 Z7.96
X13.319 Y11.198 Z7.92
X13.365 Y11.214 Z7.88
X13.404 Y11.243 Z7.84
X13.431 Y11.283 Z7.8
X13.462 Y11.354 F50
X13.479 Y11.387
X13.5 Y11.421
X13.525 Y11.455
X13.567 Y11.505
X13.586 Y11.528
X13.601 Y11.546
X13.646 Y11.601
X13.641 Y11.702
X13.594 Y11.792
X13.514 Y11.853
X13.415 Y11.875
X13.376 Y11.869 F20
X13.339 Y11.853
X13.308 Y11.829
X13.283 Y11.797
G3 X13.601 Y11.546 I0.175 J-0.106
G1 X13.61 Y11.556 F50
X13.663 Y11.606
X13.673 Y11.619
X13.681 Y11.631
X13.687 Y11.644
X13.692 Y11.657
X13.698 Y11.682
X13.7 Y11.707
X13.698 Y11.732
X13.691 Y11.758
X13.686 Y11.77
X13.68 Y11.783
X13.672 Y11.795
X13.662 Y11.808
X13.632 Y11.837
X13.616 Y11.849
X13.6 Y11.859
X13.575 Y11.868
X13.55 Y11.874
X13.5 Y11.875
X12.797
G3 X12.808 Y11.565 I0.005 J-0.155
X12.93 Y11.631 I-0.005 J0.155
G1 X12.94 Y11.663 Z7.804
X12.949 Y11.693 Z7.815
X12.958 Y11.72 Z7.832
X12.951 Y11.752 Z7.866
X12.947 Y11.772 Z7.908
X12.946 Y11.779 Z7.955
Z12.2
X12.045 Y10.443
Z10.3
G3 X13.183 Y10.77 Z10.178 I0.456 J0.558 F16.7
X12.48 Y11.719 Z10.057 I-0.681 J0.231
X11.84 Y10.731 Z9.935 I0.022 J-0.716
X12.986 Y10.478 Z9.814 I0.661 J0.271
X12.822 Y11.637 Z9.692 I-0.484 J0.522
X11.797 Y11.078 Z9.57 I-0.318 J-0.635
X12.677 Y10.317 Z9.449 I0.704 J-0.076
X13.08 Y11.404 Z9.327 I-0.175 J0.684
X11.924 Y11.401 Z9.205 I-0.577 J-0.403
X12.331 Y10.322 Z9.084 I0.578 J-0.398
X13.196 Y11.08 Z8.962 I0.17 J0.679
X12.187 Y11.622 Z8.841 I-0.693 J-0.079
X12.033 Y10.49 Z8.719 I0.316 J-0.619
X13.143 Y10.742 Z8.597 I0.468 J0.511
X12.52 Y11.691 Z8.476 I-0.641 J0.258
X11.852 Y10.778 Z8.354 I-0.017 J-0.689
X12.938 Y10.473 Z8.232 I0.649 J0.224
X12.843 Y11.594 Z8.111 I-0.436 J0.528
X11.83 Y11.113 Z7.989 I-0.34 J-0.592
X12.633 Y10.335 Z7.868 I0.671 J-0.111
X13.079 Y11.357 Z7.746 I-0.131 J0.665
X11.969 Y11.416 Z7.624 I-0.575 J-0.355
X12.301 Y10.359 Z7.503 I0.533 J-0.413
X13.172 Y11.039 Z7.381 I0.2 J0.642
X12.233 Y11.614 Z7.259 I-0.669 J-0.038
X12.024 Y10.537 Z7.138 I0.269 J-0.611
X13.103 Y10.718 Z7.016 I0.476 J0.465
X12.557 Y11.662 Z6.895 I-0.6 J0.282
X11.867 Y10.822 Z6.773 I-0.054 J-0.659
X12.892 Y10.471 Z6.651 I0.634 J0.18
X12.861 Y11.551 Z6.53 I-0.389 J0.529
X11.864 Y11.145 Z6.408 I-0.358 J-0.548
X12.591 Y10.356 Z6.286 I0.637 J-0.142
X13.074 Y11.31 Z6.165 I-0.09 J0.644
X12.014 Y11.427 Z6.043 I-0.57 J-0.309
X12.275 Y10.397 Z5.922 I0.488 J-0.424
X13.145 Y11.001 Z5.8 I0.226 J0.603
X11.857 Y11.001 I-0.644 J0
X13.145 Y11.001 I0.644 J0
G1 X13.171 Y11.403 F50
X13.168 Y11.553
X13.114 Y11.692
X13.085 Y11.731
X13.005 Y11.808
X12.905 Y11.858
X12.796 Y11.875
X12.691
X12.59 Y11.873
X12.523 Y11.859
X12.152 Y11.769
X12.135 Y11.765
X12.118 Y11.758
X12.101 Y11.748
X12.085 Y11.736
X11.846 Y11.533
X11.831 Y11.519
X11.82 Y11.505
X11.804 Y11.48
X11.791 Y11.455
X11.68 Y11.188
X11.667 Y11.152
X11.662 Y11.126
X11.66 Y11.101
X11.68 Y10.844
X11.692 Y10.747
X11.7 Y10.722
X11.713 Y10.697
X11.868 Y10.444
X11.883 Y10.424
X11.908 Y10.394
X11.92 Y10.383
X11.933 Y10.375
X12.211 Y10.205
X12.224 Y10.199
X12.236 Y10.194
X12.262 Y10.188
X12.287 Y10.185
X12.59 Y10.161
X12.615
X12.641 Y10.164
X12.691 Y10.181
X12.969 Y10.297
X12.982 Y10.304
X12.995 Y10.312
X13.029 Y10.343
X13.203 Y10.545
X13.244 Y10.596
X13.252 Y10.609
X13.259 Y10.621
X13.268 Y10.646
X13.365 Y11.05
X13.39 Y11.152
X13.418 Y11.253
X13.431 Y11.283
X13.485 Y11.423
X13.49 Y11.468
X13.477 Y11.62
X13.403 Y11.752
X13.28 Y11.843
X13.131 Y11.875
X13.084 Y11.866 Z5.84
X13.041 Y11.842 Z5.88
X13.008 Y11.807 Z5.92
X12.988 Y11.763 Z5.96
X12.982 Y11.715 Z6
X12.985 Y11.687
X12.994 Y11.66
X13.01 Y11.621
X13.149 Y11.29 F20
X13.167 Y11.258
X13.193 Y11.231
X13.224 Y11.211
X13.271 Y11.197 Z5.96
X13.319 Y11.198 Z5.92
X13.365 Y11.214 Z5.88
X13.404 Y11.243 Z5.84
X13.431 Y11.283 Z5.8
X13.462 Y11.354 F50
X13.479 Y11.387
X13.5 Y11.421
X13.525 Y11.455
X13.567 Y11.505
X13.586 Y11.528
X13.601 Y11.546
X13.646 Y11.601
X13.641 Y11.702
X13.594 Y11.792
X13.514 Y11.853
X13.415 Y11.875
X13.376 Y11.869 F20
X13.339 Y11.853
X13.308 Y11.829
X13.283 Y11.797
G3 X13.601 Y11.546 I0.175 J-0.106
G1 X13.61 Y11.556 F50
X13.663 Y11.606
X13.673 Y11.619
X13.681 Y11.631
X13.687 Y11.644
X13.692 Y11.657
X13.698 Y11.682
X13.7 Y11.707
X13.698 Y11.732
X13.691 Y11.758
X13.686 Y11.77
X13.68 Y11.783
X13.672 Y11.795
X13.662 Y11.808
X13.632 Y11.837
X13.616 Y11.849
X13.6 Y11.859
X13.575 Y11.868
X13.55 Y11.874
X13.5 Y11.875
X12.796
G3 X12.806 Y11.565 I0.005 J-0.155
X12.928 Y11.631 I-0.005 J0.155
G1 X12.938 Y11.663 Z5.804
X12.947 Y11.693 Z5.815
X12.956 Y11.72 Z5.832
X12.95 Y11.752 Z5.866
X12.946 Y11.772 Z5.908
X12.944 Y11.779 Z5.955
Z12.2
X12.336 Y10.208
Z6.31
Z6.155 F20
X12.343 Z6.107
X12.365 Y10.209 Z6.064
X12.399 Y10.21 Z6.03
X12.443 Y10.212 Z6.008
X12.49 Y10.214 Z6
G3 X13.203 Y10.545 I-0.043 J1.023
G1 X13.244 Y10.596 F50
X13.252 Y10.609
X13.259 Y10.621
X13.268 Y10.646
X13.292 Y10.747
G3 X12.989 Y10.809 I-0.152 J0.031
X13.024 Y10.676 I0.152 J-0.031
G1 X13.059 Y10.657 Z6.006
X13.091 Y10.64 Z6.021
X13.119 Y10.625 Z6.045
X13.14 Y10.623 Z6.072
X13.158 Y10.625 Z6.112
X13.164 Z6.155
Z12.2
X12.034 Y10.452
Z8.3
G3 X13.178 Y10.757 Z8.178 I0.466 J0.549 F16.7
X12.492 Y11.719 Z8.057 I-0.676 J0.243
X11.835 Y10.742 Z7.935 I0.01 J-0.716
X12.976 Y10.47 Z7.814 I0.665 J0.26
X12.831 Y11.631 Z7.692 I-0.475 J0.53
X11.798 Y11.089 Z7.57 I-0.329 J-0.629
X12.666 Y10.314 Z7.449 I0.702 J-0.087
X13.085 Y11.396 Z7.327 I-0.165 J0.686
X11.929 Y11.409 Z7.205 I-0.583 J-0.394
X12.321 Y10.325 Z7.084 I0.572 J-0.406
X13.196 Y11.07 Z6.962 I0.179 J0.676
X12.194 Y11.626 Z6.841 I-0.694 J-0.07
X12.026 Y10.496 Z6.719 I0.308 J-0.623
X13.139 Y10.735 Z6.597 I0.474 J0.505
X12.527 Y11.691 Z6.476 I-0.638 J0.266
X11.849 Y10.784 Z6.354 I-0.025 J-0.688
X12.932 Y10.468 Z6.232 I0.651 J0.217
X12.848 Y11.59 Z6.111 I-0.431 J0.532
X11.83 Y11.119 Z5.989 I-0.346 J-0.588
X12.626 Y10.334 Z5.868 I0.67 J-0.117
X13.08 Y11.352 Z5.746 I-0.125 J0.666
X11.971 Y11.42 Z5.624 I-0.578 J-0.35
X12.296 Y10.361 Z5.503 I0.529 J-0.417
X13.171 Y11.034 Z5.381 I0.204 J0.64
X12.236 Y11.615 Z5.259 I-0.669 J-0.033
X12.021 Y10.539 Z5.138 I0.265 J-0.612
X13.1 Y10.715 Z5.016 I0.479 J0.462
X12.559 Y11.661 Z4.895 I-0.599 J0.285
X11.865 Y10.825 Z4.773 I-0.057 J-0.659
X12.889 Y10.47 Z4.651 I0.635 J0.177
X12.862 Y11.549 Z4.53 I-0.388 J0.53
X11.864 Y11.146 Z4.408 I-0.359 J-0.547
X12.589 Y10.356 Z4.286 I0.636 J-0.144
X13.073 Y11.309 Z4.165 I-0.088 J0.644
X12.014 Y11.427 Z4.043 I-0.571 J-0.308
X12.274 Y10.398 Z3.922 I0.487 J-0.425
X13.144 Y11.001 Z3.8 I0.226 J0.603
X11.856 Y11.001 I-0.644 J0
X13.144 Y11.001 I0.644 J0
G1 X13.17 Y11.402 F50
X13.167 Y11.552
X13.112 Y11.692
X13.083 Y11.731
X13.003 Y11.808
X12.904 Y11.858
X12.794 Y11.875
X12.691
X12.59 Y11.873
X12.523 Y11.859
X12.153 Y11.769
X12.119 Y11.758
X12.102 Y11.748
X12.085 Y11.735
X11.847 Y11.533
X11.832 Y11.519
X11.82 Y11.505
X11.812 Y11.492
X11.805 Y11.48
X11.781 Y11.429
X11.749 Y11.354
X11.68 Y11.188
X11.669 Y11.152
X11.665 Y11.126
Y11.101
X11.667 Y11.05
X11.672 Y10.95
X11.684 Y10.796
X11.689 Y10.772
X11.695 Y10.747
X11.746 Y10.646
X11.781 Y10.585
X11.868 Y10.444
X11.883 Y10.427
X11.933 Y10.384
X11.992 Y10.343
X12.085 Y10.282
X12.149 Y10.242
X12.186 Y10.221
X12.211 Y10.21
X12.236 Y10.202
X12.287 Y10.193
X12.388 Y10.18
X12.489 Y10.169
X12.565 Y10.163
X12.59 Y10.164
X12.691 Y10.189
X12.836 Y10.242
X12.893 Y10.265
X12.944 Y10.289
X12.969 Y10.304
X13.015 Y10.343
X13.096 Y10.422
X13.116 Y10.444
X13.203 Y10.545
X13.221 Y10.571
X13.234 Y10.596
X13.254 Y10.646
X13.298 Y10.776
X13.317 Y10.848
X13.334 Y10.924
X13.337 Y10.95
X13.331 Y11.05
X13.317 Y11.253
X13.305 Y11.455
X13.306 Y11.556
X13.314 Y11.657
X13.317 Y11.684
X13.318 Y11.707
X13.312 Y11.748
X13.31 Y11.758
X13.288 Y11.788 F20
X13.257 Y11.809
X13.22 Y11.817
X13.183 Y11.811
X13.151 Y11.792
X13.128 Y11.762
X13.118 Y11.726
X13.122 Y11.688
X13.139 Y11.655
X13.167 Y11.63
X13.203 Y11.618
X13.24 Y11.619
X13.275 Y11.634
X13.296 Y11.654
X13.311 Y11.679
X13.318 Y11.707
X13.316 Y11.732 F50
X13.31 Y11.758
X13.304 Y11.77
X13.298 Y11.783
X13.29 Y11.795
X13.281 Y11.807
X13.259 Y11.831
X13.24 Y11.847
X13.221 Y11.859
X13.197 Y11.868
X13.171 Y11.874
X13.146 Y11.875
X12.794
G3 X12.805 Y11.565 I0.005 J-0.155
X12.927 Y11.631 I-0.005 J0.155
G1 X12.937 Y11.663 Z3.804
X12.946 Y11.693 Z3.815
X12.955 Y11.72 Z3.832
X12.948 Y11.752 Z3.866
X12.944 Y11.772 Z3.908
X12.943 Y11.779 Z3.955
Z12.2
X13.118 Y11.692
Z4.31
Z4.155 F20
X13.111 Y11.695 Z4.107
X13.09 Y11.701 Z4.064
X13.057 Y11.711 Z4.03
X13.016 Y11.724 Z4.008
X12.97 Y11.738 Z4
G3 X12.186 Y11.778 I-0.469 J-1.512
G1 X12.153 Y11.769 F50
X12.119 Y11.758
X12.102 Y11.748
X12.085 Y11.735
X11.847 Y11.533
X11.832 Y11.519
X11.82 Y11.505
X11.812 Y11.492
X11.805 Y11.48
X11.781 Y11.429
X11.736 Y11.323
X11.68 Y11.188
X11.669 Y11.152
X11.665 Y11.126
Y11.101
X11.667 Y11.05
X11.672 Y10.95
X11.684 Y10.796
X11.689 Y10.772
X11.695 Y10.747
X11.746 Y10.646
X11.781 Y10.585
X11.868 Y10.444
X11.883 Y10.427
X11.933 Y10.384
X11.992 Y10.343
X12.085 Y10.282
X12.149 Y10.242
X12.186 Y10.221
X12.211 Y10.21
X12.236 Y10.202
X12.287 Y10.193
X12.388 Y10.18
X12.489 Y10.169
X12.565 Y10.163
X12.59 Y10.164
X12.691 Y10.189
X12.836 Y10.242
X12.893 Y10.265
X12.944 Y10.289
X12.969 Y10.304
X13.015 Y10.343
X13.096 Y10.422
X13.116 Y10.444
X13.203 Y10.545
X13.221 Y10.571
X13.234 Y10.596
X13.254 Y10.646
X13.298 Y10.776
X13.317 Y10.848
X13.334 Y10.924
X13.337 Y10.95
X13.331 Y11.05
X13.321 Y11.098 Z4.04
X13.296 Y11.14 Z4.08
X13.26 Y11.172 Z4.12
X13.215 Y11.191 Z4.16
X13.167 Y11.196 Z4.2
X13.149 Y11.194
G2 X13.094 Y11.499 I-0.027 J0.153
X13.276 Y11.355 I0.027 J-0.153
G1 X13.305 Y10.844
G2 X12.995 Y10.827 I-0.155 J-0.009
X13.025 Y10.927 I0.155 J0.009
G1 X13.07 Y10.992
G3 X13.265 Y11.418 I-1.325 J0.865 F20
G1 X13.294 Y11.537 Z4.1
X13.314 Y11.657 Z4
X13.318 Y11.707 F50
X13.316 Y11.732
X13.31 Y11.758
X13.305 Y11.771
X13.298 Y11.784
X13.29 Y11.796
X13.281 Y11.807
X13.259 Y11.831
X13.24 Y11.847
X13.221 Y11.859
X13.197 Y11.868
X13.171 Y11.874
X13.146 Y11.875
X12.939
G3 X12.95 Y11.565 I0.005 J-0.155
X13.071 Y11.631 I-0.005 J0.155
G1 X13.081 Y11.663 Z4.004
X13.091 Y11.693 Z4.015
X13.099 Y11.72 Z4.032
X13.093 Y11.752 Z4.066
X13.089 Y11.772 Z4.109
X13.088 Y11.779 Z4.155
Z12.2
X13.118 Y11.692
Z4.51
Z4.355 F20
X13.111 Y11.695 Z4.307
X13.09 Y11.701 Z4.264
X13.057 Y11.711 Z4.23
X13.016 Y11.724 Z4.208
X12.97 Y11.738 Z4.2
G3 X12.186 Y11.778 I-0.469 J-1.512
G1 X12.135 Y11.764 F50
X12.119 Y11.758
X12.102 Y11.748
X12.085 Y11.735
X11.847 Y11.533
X11.832 Y11.519
X11.82 Y11.505
X11.811 Y11.492
X11.804 Y11.48
X11.781 Y11.43
X11.736 Y11.323
X11.68 Y11.188
X11.668 Y11.152
X11.664 Y11.126
Y11.101
X11.666 Y11.05
X11.674 Y10.919
X11.684 Y10.796
X11.688 Y10.772
X11.694 Y10.747
X11.746 Y10.646
X11.781 Y10.585
X11.868 Y10.444
X11.883 Y10.427
X11.933 Y10.383
X11.991 Y10.343
X12.085 Y10.282
X12.149 Y10.242
X12.186 Y10.221
X12.211 Y10.208
X12.236 Y10.201
X12.287 Y10.192
X12.388 Y10.18
X12.489 Y10.169
X12.59 Y10.164
X12.615 Y10.167
X12.691 Y10.188
X12.837 Y10.242
X12.893 Y10.265
X12.944 Y10.288
X12.969 Y10.303
X12.995 Y10.324
X13.017 Y10.343
X13.096 Y10.421
X13.203 Y10.545
X13.221 Y10.571
X13.235 Y10.596
X13.255 Y10.646
X13.298 Y10.776
X13.317 Y10.848
X13.341 Y10.95
X13.345 Y10.975
X13.346 Y11
X13.329 Y11.253
X13.323 Y11.354
X13.328 Y11.455
X13.345 Y11.556
X13.376 Y11.657
X13.383 Y11.682
X13.385 Y11.707
X13.382 Y11.732
X13.376 Y11.758
X13.365 Y11.781
X13.358 Y11.793
X13.349 Y11.805
X13.324 Y11.833
X13.311 Y11.844
X13.298 Y11.852
X13.287 Y11.859
X13.264 Y11.868
X13.242 Y11.873
X13.197 Y11.875
X12.939
G3 X12.95 Y11.565 I0.005 J-0.155
X13.071 Y11.631 I-0.005 J0.155
G1 X13.081 Y11.663 Z4.204
X13.091 Y11.693 Z4.215
X13.099 Y11.72 Z4.232
X13.093 Y11.752 Z4.266
X13.089 Y11.772 Z4.308
X13.088 Y11.779 Z4.355
Z12.2
X13.362 Y11.719
Z6.555
Z6.4 F20
Z4.4
G3 X12.186 Y11.778 I-0.703 J-2.267
G1 X12.135 Y11.764 F50
X12.118 Y11.758
X12.101 Y11.748
X12.085 Y11.736
X11.846 Y11.533
X11.831 Y11.519
X11.82 Y11.505
X11.811 Y11.492
X11.804 Y11.48
X11.781 Y11.431
X11.68 Y11.188
X11.668 Y11.152
X11.664 Y11.126
Y11.101
X11.666 Y11.05
X11.674 Y10.919
X11.684 Y10.796
X11.687 Y10.772
X11.693 Y10.747
X11.718 Y10.697
X11.746 Y10.646
X11.781 Y10.585
X11.868 Y10.444
X11.883 Y10.424
X11.895 Y10.411
X11.908 Y10.4
X11.933 Y10.382
X11.99 Y10.343
X12.085 Y10.282
X12.186 Y10.22
X12.198 Y10.213
X12.211 Y10.207
X12.236 Y10.2
X12.287 Y10.19
X12.388 Y10.179
X12.489 Y10.169
X12.59 Y10.162
X12.615 Y10.165
X12.691 Y10.186
X12.792 Y10.225
X12.893 Y10.265
X12.944 Y10.287
X12.969 Y10.301
X12.995 Y10.322
X13.018 Y10.343
X13.096 Y10.42
X13.203 Y10.545
X13.221 Y10.571
X13.237 Y10.596
X13.248 Y10.621
X13.257 Y10.646
X13.298 Y10.775
X13.317 Y10.848
X13.353 Y11
X13.356 Y11.025
X13.355 Y11.05
X13.348 Y11.152
X13.343 Y11.253
X13.349 Y11.354
X13.368 Y11.455
X13.402 Y11.556
X13.45 Y11.657
X13.456 Y11.682
X13.458 Y11.707
X13.456 Y11.732
X13.45 Y11.758
X13.442 Y11.776
X13.431 Y11.794
X13.416 Y11.812
X13.399 Y11.831
X13.379 Y11.847
X13.359 Y11.859
X13.344 Y11.865
X13.328 Y11.869
X13.298 Y11.874
X13.166 Y11.875
X12.939
G3 X12.95 Y11.565 I0.005 J-0.155
X13.071 Y11.631 I-0.005 J0.155
G1 X13.081 Y11.663 Z4.404
X13.091 Y11.693 Z4.415
X13.099 Y11.72 Z4.432
X13.093 Y11.752 Z4.466
X13.089 Y11.772 Z4.508
X13.088 Y11.779 Z4.555
Z12.2
X13.362 Y11.719
Z6.755
Z6.6 F20
Z4.6
G3 X12.186 Y11.778 I-0.703 J-2.267
G1 X12.135 Y11.765 F50
X12.118 Y11.758
X12.101 Y11.748
X12.085 Y11.736
X11.846 Y11.533
X11.831 Y11.519
X11.82 Y11.505
X11.811 Y11.492
X11.792 Y11.455
X11.781 Y11.432
X11.68 Y11.188
X11.667 Y11.152
X11.663 Y11.126
Y11.101
X11.665 Y11.05
X11.674 Y10.919
X11.684 Y10.796
X11.687 Y10.772
X11.693 Y10.747
X11.717 Y10.697
X11.745 Y10.646
X11.806 Y10.545
X11.868 Y10.444
X11.883 Y10.424
X11.895 Y10.411
X11.933 Y10.38
X11.988 Y10.343
X12.085 Y10.282
X12.186 Y10.22
X12.198 Y10.213
X12.211 Y10.207
X12.236 Y10.2
X12.287 Y10.189
X12.388 Y10.178
X12.489 Y10.169
X12.59 Y10.162
X12.615 Y10.165
X12.641 Y10.171
X12.691 Y10.185
X12.792 Y10.224
X12.944 Y10.286
X12.957 Y10.292
X12.969 Y10.3
X12.995 Y10.32
X13.021 Y10.343
X13.096 Y10.42
X13.203 Y10.545
X13.222 Y10.571
X13.238 Y10.596
X13.249 Y10.621
X13.258 Y10.646
X13.298 Y10.775
X13.324 Y10.879
X13.353 Y11.005
X13.363 Y11.05
Y11.152
X13.366 Y11.202
X13.371 Y11.253
X13.393 Y11.354
X13.399 Y11.376
X13.429 Y11.455
X13.482 Y11.556
X13.5 Y11.583
X13.526 Y11.62
X13.537 Y11.638
X13.545 Y11.657
X13.551 Y11.682
X13.553 Y11.707
X13.55 Y11.732
X13.544 Y11.758
X13.537 Y11.774
X13.528 Y11.79
X13.516 Y11.806
X13.5 Y11.822
X13.472 Y11.842
X13.444 Y11.859
X13.421 Y11.867
X13.399 Y11.872
X13.298 Y11.875
X12.939
G3 X12.95 Y11.565 I0.005 J-0.155
X13.071 Y11.631 I-0.005 J0.155
G1 X13.081 Y11.663 Z4.604
X13.091 Y11.693 Z4.615
X13.099 Y11.72 Z4.632
X13.093 Y11.752 Z4.666
X13.089 Y11.772 Z4.708
X13.088 Y11.779 Z4.755
Z12.2
X12.667 Y11.258
Z5.11
Z4.955 F20
X12.664 Y11.265 Z4.907
X12.654 Y11.285 Z4.864
X12.638 Y11.315 Z4.83
X12.619 Y11.354 Z4.808
X12.597 Y11.396 Z4.8
G3 X11.82 Y11.505 I-0.427 J-0.215
G1 X11.804 Y11.48 F50
X11.791 Y11.455
X11.68 Y11.188
X11.667 Y11.152
X11.663 Y11.126
X11.662 Y11.101
X11.665 Y11.05
X11.684 Y10.796
X11.687 Y10.772
X11.693 Y10.747
X11.716 Y10.697
X11.745 Y10.646
X11.855 Y10.465
X11.868 Y10.444
X11.883 Y10.424
X11.908 Y10.4
X11.933 Y10.379
X11.987 Y10.343
X12.085 Y10.282
X12.186 Y10.22
X12.198 Y10.213
X12.211 Y10.207
X12.236 Y10.199
X12.287 Y10.188
X12.388 Y10.178
X12.52 Y10.167
X12.59 Y10.162
X12.615 Y10.164
X12.641 Y10.17
X12.691 Y10.184
X12.792 Y10.223
X12.944 Y10.286
X12.957 Y10.292
X12.969 Y10.3
X12.995 Y10.319
X13.023 Y10.343
X13.096 Y10.42
X13.203 Y10.545
X13.223 Y10.571
X13.232 Y10.583
X13.24 Y10.596
X13.251 Y10.621
X13.26 Y10.646
X13.298 Y10.774
X13.315 Y10.848
X13.377 Y11.152
X13.395 Y11.253
X13.399 Y11.271
X13.425 Y11.354
X13.447 Y11.404
X13.473 Y11.455
X13.5 Y11.498
X13.54 Y11.556
X13.601 Y11.632
X13.612 Y11.657
X13.618 Y11.682
X13.621 Y11.707
X13.619 Y11.732
X13.612 Y11.758
X13.607 Y11.77
X13.601 Y11.783
X13.594 Y11.795
X13.585 Y11.807
X13.572 Y11.82
X13.559 Y11.831
X13.539 Y11.846
X13.518 Y11.859
X13.5 Y11.866
X13.475 Y11.873
X13.449 Y11.875
X12.995
G3 X13.005 Y11.565 I0.005 J-0.155
X13.127 Y11.631 I-0.005 J0.155
G1 X13.137 Y11.663 Z4.804
X13.146 Y11.693 Z4.815
X13.155 Y11.72 Z4.832
X13.149 Y11.752 Z4.866
X13.145 Y11.772 Z4.908
X13.143 Y11.779 Z4.955
Z12.2
X12.667 Y11.258
Z5.31
Z5.155 F20
X12.664 Y11.265 Z5.107
X12.654 Y11.285 Z5.064
X12.638 Y11.315 Z5.03
X12.619 Y11.354 Z5.008
X12.597 Y11.396 Z5
G3 X11.82 Y11.505 I-0.427 J-0.215
G1 X11.804 Y11.48 F50
X11.791 Y11.455
X11.68 Y11.188
X11.667 Y11.152
X11.663 Y11.126
X11.662 Y11.101
X11.664 Y11.05
X11.684 Y10.796
X11.687 Y10.772
X11.693 Y10.747
X11.715 Y10.697
X11.744 Y10.646
X11.868 Y10.444
X11.883 Y10.424
X11.908 Y10.398
X11.933 Y10.378
X11.986 Y10.343
X12.186 Y10.22
X12.198 Y10.213
X12.236 Y10.198
X12.287 Y10.187
X12.388 Y10.177
X12.59 Y10.161
X12.615 Y10.163
X12.641 Y10.168
X12.691 Y10.183
X12.792 Y10.223
X12.944 Y10.286
X12.957 Y10.292
X12.995 Y10.317
X13.025 Y10.343
X13.096 Y10.42
X13.224 Y10.571
X13.233 Y10.583
X13.241 Y10.596
X13.252 Y10.621
X13.262 Y10.646
X13.298 Y10.774
X13.315 Y10.848
X13.379 Y11.152
X13.399 Y11.253
X13.432 Y11.354
X13.456 Y11.404
X13.484 Y11.455
X13.5 Y11.479
X13.554 Y11.556
X13.601 Y11.608
X13.61 Y11.62
X13.617 Y11.632
X13.628 Y11.657
X13.634 Y11.682
X13.636 Y11.707
X13.634 Y11.732
X13.627 Y11.758
X13.617 Y11.781
X13.61 Y11.793
X13.601 Y11.805
X13.584 Y11.823
X13.566 Y11.836
X13.531 Y11.859
X13.516 Y11.865
X13.5 Y11.87
X13.475 Y11.874
X13.267 Y11.875
X12.995
G3 X13.005 Y11.565 I0.005 J-0.155
X13.127 Y11.631 I-0.005 J0.155
G1 X13.137 Y11.663 Z5.004
X13.146 Y11.693 Z5.015
X13.155 Y11.72 Z5.032
X13.149 Y11.752 Z5.066
X13.145 Y11.772 Z5.109
X13.143 Y11.779 Z5.155
Z12.2
X12.667 Y11.258
Z5.51
Z5.355 F20
X12.664 Y11.265 Z5.307
X12.654 Y11.285 Z5.264
X12.638 Y11.315 Z5.23
X12.619 Y11.354 Z5.208
X12.597 Y11.396 Z5.2
G3 X11.82 Y11.505 I-0.427 J-0.215
G1 X11.804 Y11.48 F50
X11.791 Y11.455
X11.68 Y11.188
X11.667 Y11.152
X11.663 Y11.126
X11.661 Y11.101
X11.664 Y11.05
X11.684 Y10.796
X11.687 Y10.772
X11.693 Y10.747
X11.714 Y10.697
X11.781 Y10.585
X11.868 Y10.444
X11.883 Y10.424
X11.908 Y10.397
X11.933 Y10.377
X11.985 Y10.343
X12.186 Y10.22
X12.211 Y10.207
X12.236 Y10.197
X12.287 Y10.186
X12.388 Y10.177
X12.59 Y10.161
X12.615 Y10.163
X12.641 Y10.167
X12.691 Y10.183
X12.839 Y10.242
X12.944 Y10.286
X12.969 Y10.299
X12.995 Y10.315
X13.027 Y10.343
X13.096 Y10.42
X13.224 Y10.571
X13.233 Y10.583
X13.254 Y10.621
X13.263 Y10.646
X13.298 Y10.773
X13.328 Y10.904
X13.382 Y11.152
X13.399 Y11.233
X13.404 Y11.253
X13.42 Y11.303
X13.44 Y11.354
X13.496 Y11.455
X13.569 Y11.556
X13.617 Y11.606
X13.629 Y11.623
X13.638 Y11.64
X13.645 Y11.657
X13.652 Y11.682
X13.653 Y11.707
X13.651 Y11.732
X13.645 Y11.758
X13.638 Y11.774
X13.629 Y11.79
X13.617 Y11.807
X13.601 Y11.823
X13.578 Y11.844
X13.566 Y11.852
X13.554 Y11.859
X13.541 Y11.865
X13.527 Y11.869
X13.514 Y11.872
X13.5 Y11.874
X13.242 Y11.875
X13.096
G3 X13.106 Y11.565 I0.005 J-0.155
X13.228 Y11.631 I-0.005 J0.155
G1 X13.238 Y11.663 Z5.204
X13.247 Y11.693 Z5.215
X13.256 Y11.72 Z5.232
X13.25 Y11.752 Z5.266
X13.246 Y11.772 Z5.308
X13.244 Y11.779 Z5.355
Z12.2
X12.358 Y11.775
Z5.71
Z5.555 F20
X12.351 Y11.772 Z5.507
X12.331 Y11.763 Z5.464
X12.299 Y11.749 Z5.43
X12.26 Y11.732 Z5.408
X12.216 Y11.714 Z5.4
G3 X11.667 Y11.152 I0.403 J-0.942
G1 X11.662 Y11.126 F50
X11.661 Y11.101
X11.684 Y10.796
X11.687 Y10.772
X11.693 Y10.747
X11.701 Y10.722
X11.713 Y10.697
X11.868 Y10.444
X11.883 Y10.424
X11.908 Y10.396
X11.933 Y10.376
X11.984 Y10.343
X12.186 Y10.22
X12.211 Y10.206
X12.236 Y10.195
X12.287 Y10.186
X12.457 Y10.171
X12.59 Y10.161
X12.615 Y10.162
X12.641 Y10.166
X12.691 Y10.182
X12.893 Y10.265
X12.944 Y10.286
X12.969 Y10.298
X12.982 Y10.305
X12.995 Y10.313
X13.029 Y10.343
X13.141 Y10.473
X13.203 Y10.545
X13.241 Y10.596
X13.255 Y10.621
X13.265 Y10.646
X13.298 Y10.772
X13.352 Y11.005
X13.399 Y11.204
X13.411 Y11.253
X13.427 Y11.303
X13.449 Y11.354
X13.5 Y11.444
X13.507 Y11.455
X13.585 Y11.556
X13.641 Y11.614
X13.655 Y11.635
X13.664 Y11.657
X13.67 Y11.682
X13.672 Y11.707
X13.67 Y11.732
X13.663 Y11.758
X13.654 Y11.778
X13.642 Y11.798
X13.633 Y11.808
X13.624 Y11.819
X13.601 Y11.839
X13.586 Y11.85
X13.571 Y11.859
X13.554 Y11.866
X13.536 Y11.871
X13.518 Y11.874
X13.5 Y11.875
X13.04
G3 X13.051 Y11.565 I0.005 J-0.155
X13.172 Y11.631 I-0.005 J0.155
G1 X13.182 Y11.663 Z5.404
X13.192 Y11.693 Z5.415
X13.2 Y11.72 Z5.432
X13.194 Y11.752 Z5.466
X13.19 Y11.772 Z5.508
X13.189 Y11.779 Z5.555
Z12.2
X12.358 Y11.775
Z5.91
Z5.755 F20
X12.351 Y11.772 Z5.707
X12.331 Y11.763 Z5.664
X12.299 Y11.749 Z5.63
X12.26 Y11.732 Z5.608
X12.216 Y11.714 Z5.6
G3 X11.667 Y11.152 I0.403 J-0.942
G1 X11.662 Y11.126 F50
X11.66 Y11.101
X11.68 Y10.844
X11.692 Y10.747
X11.7 Y10.722
X11.713 Y10.697
X11.868 Y10.444
X11.883 Y10.424
X11.908 Y10.394
X11.92 Y10.384
X11.933 Y10.375
X12.186 Y10.22
X12.211 Y10.205
X12.224 Y10.199
X12.236 Y10.194
X12.262 Y10.188
X12.287 Y10.185
X12.59 Y10.161
X12.615
X12.641 Y10.165
X12.691 Y10.182
X12.969 Y10.297
X12.982 Y10.304
X12.995 Y10.312
X13.029 Y10.343
X13.203 Y10.545
X13.242 Y10.596
X13.25 Y10.609
X13.257 Y10.621
X13.266 Y10.646
X13.317 Y10.848
X13.39 Y11.152
X13.418 Y11.253
X13.462 Y11.354
X13.479 Y11.387
X13.5 Y11.421
X13.525 Y11.455
X13.601 Y11.546
X13.61 Y11.556
X13.663 Y11.606
X13.673 Y11.619
X13.681 Y11.631
X13.687 Y11.644
X13.692 Y11.657
X13.698 Y11.682
X13.7 Y11.707
X13.698 Y11.732
X13.691 Y11.758
X13.686 Y11.77
X13.68 Y11.783
X13.672 Y11.795
X13.662 Y11.808
X13.632 Y11.837
X13.616 Y11.849
X13.6 Y11.859
X13.575 Y11.868
X13.55 Y11.874
X13.469 Y11.875
X13.096
G3 X13.106 Y11.565 I0.005 J-0.155
X13.228 Y11.631 I-0.005 J0.155
G1 X13.238 Y11.663 Z5.604
X13.247 Y11.693 Z5.615
X13.256 Y11.72 Z5.632
X13.25 Y11.752 Z5.666
X13.246 Y11.772 Z5.708
X13.244 Y11.779 Z5.755
Z12.2
X12.034 Y10.452
Z6.3
G3 X13.178 Y10.757 Z6.178 I0.466 J0.549 F16.7
X12.492 Y11.719 Z6.057 I-0.676 J0.243
X11.835 Y10.742 Z5.935 I0.01 J-0.716
X12.976 Y10.47 Z5.814 I0.665 J0.26
X12.831 Y11.631 Z5.692 I-0.475 J0.53
X11.798 Y11.089 Z5.57 I-0.329 J-0.629
X12.666 Y10.314 Z5.449 I0.702 J-0.087
X13.085 Y11.396 Z5.327 I-0.165 J0.686
X11.929 Y11.409 Z5.205 I-0.583 J-0.394
X12.321 Y10.325 Z5.084 I0.572 J-0.406
X13.196 Y11.07 Z4.962 I0.179 J0.676
X12.194 Y11.626 Z4.841 I-0.694 J-0.07
X12.026 Y10.496 Z4.719 I0.308 J-0.623
X13.139 Y10.735 Z4.597 I0.474 J0.505
X12.527 Y11.691 Z4.476 I-0.638 J0.266
X11.849 Y10.784 Z4.354 I-0.025 J-0.688
X12.932 Y10.468 Z4.232 I0.651 J0.217
X12.848 Y11.59 Z4.111 I-0.431 J0.532
X11.83 Y11.119 Z3.989 I-0.346 J-0.588
X12.626 Y10.334 Z3.868 I0.67 J-0.117
X13.08 Y11.352 Z3.746 I-0.125 J0.666
X11.971 Y11.42 Z3.624 I-0.578 J-0.35
X12.296 Y10.361 Z3.503 I0.529 J-0.417
X13.171 Y11.034 Z3.381 I0.204 J0.64
X12.236 Y11.615 Z3.259 I-0.669 J-0.033
X12.021 Y10.539 Z3.138 I0.265 J-0.612
X13.1 Y10.715 Z3.016 I0.479 J0.462
X12.559 Y11.661 Z2.895 I-0.599 J0.285
X11.865 Y10.825 Z2.773 I-0.057 J-0.659
X12.889 Y10.47 Z2.651 I0.635 J0.177
X12.862 Y11.549 Z2.53 I-0.388 J0.53
X11.864 Y11.146 Z2.408 I-0.359 J-0.547
X12.589 Y10.356 Z2.286 I0.636 J-0.144
X13.073 Y11.309 Z2.165 I-0.088 J0.644
X12.014 Y11.427 Z2.043 I-0.571 J-0.308
X12.274 Y10.398 Z1.922 I0.487 J-0.425
X13.144 Y11.001 Z1.8 I0.226 J0.603
X11.856 Y11.001 I-0.644 J0
X13.144 Y11.001 I0.644 J0
G1 X13.17 Y11.402 F50
X13.167 Y11.552
X13.112 Y11.692
X13.083 Y11.731
X13.003 Y11.808
X12.904 Y11.858
X12.794 Y11.875
X12.691
X12.59 Y11.873
X12.523 Y11.859
X12.153 Y11.769
X12.119 Y11.758
X12.102 Y11.748
X12.085 Y11.735
X11.847 Y11.533
X11.832 Y11.519
X11.82 Y11.505
X11.812 Y11.492
X11.805 Y11.48
X11.781 Y11.429
X11.749 Y11.354
X11.68 Y11.188
X11.669 Y11.152
X11.665 Y11.126
Y11.101
X11.667 Y11.05
X11.672 Y10.95
X11.684 Y10.796
X11.689 Y10.772
X11.695 Y10.747
X11.746 Y10.646
X11.781 Y10.585
X11.868 Y10.444
X11.883 Y10.427
X11.933 Y10.384
X11.992 Y10.343
X12.085 Y10.282
X12.149 Y10.242
X12.186 Y10.221
X12.211 Y10.21
X12.236 Y10.202
X12.287 Y10.193
X12.388 Y10.18
X12.489 Y10.169
X12.565 Y10.163
X12.59 Y10.164
X12.691 Y10.189
X12.836 Y10.242
X12.893 Y10.265
X12.944 Y10.289
X12.969 Y10.304
X13.015 Y10.343
X13.096 Y10.422
X13.116 Y10.444
X13.203 Y10.545
X13.221 Y10.571
X13.234 Y10.596
X13.254 Y10.646
X13.298 Y10.776
X13.317 Y10.848
X13.334 Y10.924
X13.337 Y10.95
X13.331 Y11.05
X13.317 Y11.253
X13.305 Y11.455
X13.306 Y11.556
X13.314 Y11.657
X13.317 Y11.684
X13.318 Y11.707
X13.312 Y11.748
X13.31 Y11.758
X13.288 Y11.788 F20
X13.257 Y11.809
X13.22 Y11.817
X13.183 Y11.811
X13.151 Y11.792
X13.128 Y11.762
X13.118 Y11.726
X13.122 Y11.688
X13.139 Y11.655
X13.167 Y11.63
X13.203 Y11.618
X13.24 Y11.619
X13.275 Y11.634
X13.296 Y11.654
X13.311 Y11.679
X13.318 Y11.707
X13.316 Y11.732 F50
X13.31 Y11.758
X13.304 Y11.77
X13.298 Y11.783
X13.29 Y11.795
X13.281 Y11.807
X13.259 Y11.831
X13.24 Y11.847
X13.221 Y11.859
X13.197 Y11.868
X13.171 Y11.874
X13.146 Y11.875
X12.794
G3 X12.805 Y11.565 I0.005 J-0.155
X12.927 Y11.631 I-0.005 J0.155
G1 X12.937 Y11.663 Z1.804
X12.946 Y11.693 Z1.815
X12.955 Y11.72 Z1.832
X12.948 Y11.752 Z1.866
X12.944 Y11.772 Z1.908
X12.943 Y11.779 Z1.955
Z12.2
X12.947 Y11.566
Z4.3
G3 X11.81 Y11.208 Z4.177 I-0.447 J-0.565 F16.7
X12.56 Y10.286 Z4.054 I0.688 J-0.206
X13.138 Y11.321 Z3.931 I-0.062 J0.713
X11.967 Y11.475 Z3.809 I-0.638 J-0.32
X12.255 Y10.333 Z3.686 I0.532 J-0.473
X13.207 Y11.02 Z3.563 I0.243 J0.667
X12.22 Y11.65 Z3.44 I-0.707 J-0.02
X12 Y10.503 Z3.317 I0.279 J-0.648
X13.143 Y10.722 Z3.194 I0.497 J0.497
X12.52 Y11.701 Z3.071 I-0.644 J0.278
X11.842 Y10.763 Z2.949 I-0.021 J-0.699
X12.96 Y10.48 Z2.826 I0.655 J0.238
X12.811 Y11.62 Z2.703 I-0.462 J0.519
X11.81 Y11.062 Z2.58 I-0.311 J-0.619
X12.695 Y10.34 Z2.457 I0.688 J-0.06
X13.038 Y11.426 Z2.334 I-0.197 J0.659
X11.906 Y11.344 Z2.212 I-0.538 J-0.425
X12.399 Y10.325 Z2.089 I0.592 J-0.342
X13.161 Y11.157 Z1.966 I0.099 J0.675
X12.11 Y11.557 Z1.843 I-0.661 J-0.157
X12.126 Y10.436 Z1.72 I0.389 J-0.555
X13.159 Y10.864 Z1.597 I0.371 J0.564
X12.383 Y11.663 Z1.474 I-0.659 J0.136
X11.928 Y10.65 Z1.352 I0.116 J-0.661
X13.034 Y10.601 Z1.229 I0.569 J0.351
X12.672 Y11.644 Z1.106 I-0.535 J0.398
X11.839 Y10.924 Z0.983 I-0.172 J-0.642
X12.812 Y10.418 Z0.86 I0.658 J0.077
X12.923 Y11.505 Z0.737 I-0.313 J0.581
X11.875 Y11.208 Z0.614 I-0.423 J-0.504
X12.536 Y10.347 Z0.492 I0.623 J-0.206
X13.091 Y11.276 Z0.369 I-0.038 J0.653
X12.026 Y11.448 Z0.246 I-0.591 J-0.275
X12.258 Y10.398 Z0.123 I0.473 J-0.446
X13.145 Y11 Z0 I0.239 J0.602
X11.85 Y11 I-0.648 J0
X13.145 Y11 I0.648 J0
G1 X13.171 Y11.403 F50
X13.169 Y11.553
X13.114 Y11.693
X13.086 Y11.73
X13.006 Y11.808
X12.907 Y11.858
X12.797 Y11.875
X12.691
X12.59 Y11.873
X12.523 Y11.859
X12.153 Y11.769
X12.119 Y11.758
X12.102 Y11.748
X12.085 Y11.735
X11.847 Y11.533
X11.832 Y11.519
X11.82 Y11.505
X11.812 Y11.492
X11.805 Y11.48
X11.781 Y11.429
X11.749 Y11.354
X11.68 Y11.188
X11.669 Y11.152
X11.665 Y11.126
Y11.101
X11.667 Y11.05
X11.672 Y10.95
X11.684 Y10.796
X11.689 Y10.772
X11.695 Y10.747
X11.746 Y10.646
X11.781 Y10.585
X11.868 Y10.444
X11.883 Y10.427
X11.933 Y10.384
X11.992 Y10.343
X12.085 Y10.282
X12.149 Y10.242
X12.186 Y10.221
X12.211 Y10.21
X12.236 Y10.202
X12.287 Y10.193
X12.388 Y10.18
X12.489 Y10.169
X12.565 Y10.163
X12.59 Y10.164
X12.691 Y10.189
X12.836 Y10.242
X12.893 Y10.265
X12.944 Y10.289
X12.969 Y10.304
X13.015 Y10.343
X13.096 Y10.422
X13.116 Y10.444
X13.203 Y10.545
X13.221 Y10.571
X13.234 Y10.596
X13.254 Y10.646
X13.298 Y10.776
X13.317 Y10.848
X13.334 Y10.924
X13.337 Y10.95
X13.331 Y11.05
X13.317 Y11.253
X13.305 Y11.455
X13.306 Y11.556
X13.314 Y11.657
X13.317 Y11.684
X13.318 Y11.707
X13.312 Y11.748
X13.31 Y11.758
X13.288 Y11.788 F20
X13.257 Y11.809
X13.22 Y11.817
X13.183 Y11.811
X13.151 Y11.792
X13.128 Y11.762
X13.118 Y11.726
X13.122 Y11.688
X13.139 Y11.655
X13.167 Y11.63
X13.203 Y11.618
X13.24 Y11.619
X13.275 Y11.634
X13.296 Y11.654
X13.311 Y11.679
X13.318 Y11.707
X13.316 Y11.732 F50
X13.31 Y11.758
X13.304 Y11.77
X13.298 Y11.783
X13.29 Y11.795
X13.281 Y11.807
X13.259 Y11.831
X13.24 Y11.847
X13.221 Y11.859
X13.197 Y11.868
X13.171 Y11.874
X13.146 Y11.875
X12.797
G3 X12.807 Y11.565 I0.005 J-0.155
X12.945 Y11.779 I-0.005 J0.155
G1 Z13.7
M5
M30
