(1038parallel)
(Machine)
(  vendor: Nikodem Bartnik)
(  model: Generic 3-axis Router)
(  description: This machine has XYZ axis on the Head)
(T1  D=1.38 CR=0 - ZMIN=0 - flat end mill)
G90 G94
G17
G21
(When using Fusion 360 for Personal Use, the feedrate of)
(rapid moves is reduced to match the feedrate of cutting)
(moves, which can increase machining time. Unrestricted rapid)
(moves are available with a Fusion 360 Subscription.)

(Parallel5)
T1
S5000 M3
G54
G0 X12.735 Y9.354
Z11.7
G1 Z11 F30
Z9.138 F20
X12.728 Z9.095
X12.709 Z9.057
X12.678 Z9.026
X12.64 Z9.007
X12.597 Z9
X12.516 F30
X12.485 Z9.007
X12.455 Z9.014
X11.432
G2 X11.432 Y9.698 I0 J0.172
G1 X11.462 Z9.007
X11.493 Z9
X13.514
X13.544 Z9.007
X13.574 Z9.014
X13.903
G3 X13.903 Y10.043 I0 J0.172
G1 X13.873 Z9.007
X13.843 Z9
X11.161
X11.131 Z9.007
X11.101 Z9.014
X10.91
G2 X10.91 Y10.388 I0 J0.172
G1 X10.94 Z9.007
X10.971 Z9
X11.764
Z0
X11.706 Y10.467
X11.657 Y10.551
X11.614 Y10.639
X11.582 Y10.732
X11.578 Z9
X10.877
X10.846 Z9.007
X10.816 Z9.014
X10.792
G2 X10.792 Y11.077 I0 J0.172
G1 X10.822 Z9.007
X10.852 Z9
X11.543
X11.547 Z0
X11.558 Y11.167
X11.579 Y11.254
X11.605 Y11.339
X11.643 Y11.422
X11.642 Z9
X10.909
X10.879 Z9.007
X10.849 Z9.014
G2 X10.849 Y11.766 I0 J0.172
G1 X10.981
X11.011 Z9.007
X11.041 Z9
X11.928
Z0
X11.955 Z0.005
X11.977 Z0.02
X11.992 Z0.043
X11.997 Z0.069
X12.001 Y11.762 Z0.095
X12.01 Y11.751 Z0.118
X12.025 Y11.734 Z0.133
X12.042 Y11.714 Z0.138
X13.12 Y10.44
X13.137 Y10.42 Z0.133 F20
X13.151 Y10.403 Z0.118
X13.161 Y10.392 Z0.095
X13.164 Y10.388 Z0.069
X13.17 Z0.043
X13.184 Z0.02
X13.207 Z0.005
X13.233 Z0
Z9 F30
X14.027
X14.057 Z9.007
X14.088 Z9.014
X14.188
G3 X14.188 Y10.732 I0 J0.172
G1 X14.157 Z9.007
X14.127 Z9
X13.419
X13.418 Z0
X13.438 Y10.817
X13.451 Y10.903
X13.457 Y10.99
X13.452 Y11.077
Z4
X13.46 Z4.868
X13.464 Z9
X16.94
X16.971 Z9.007
X17.001 Z9.014
X17.377
G3 X17.377 Y11.422 I0 J0.172
G1 X17.347 Z9.007
X17.316 Z9
X13.604
X13.601 Z5.519
X13.592 Z5.505
X13.588 Z5
X13.562 Z4.806
X13.503 Z4.502
X13.392 Z4.017
X13.39 Z0
X13.387 Y11.51
X13.396 Y11.597
X13.416 Y11.682
X13.443 Y11.766
Z4
X16.718 Z9
X17.42
X17.451 Z9.007
X17.481 Z9.014
G3 X17.481 Y12.111 I0 J0.172
G1 X17.432
X17.401 Z9.007
X17.371 Z9
X11.286
X11.256 Z9.007
X11.226 Z9.014
G2 X11.226 Y12.456 I0 J0.172
G1 X11.669
X11.699 Z9.007
X11.729 Z9
X17.133
X17.176 Z9.007
X17.214 Z9.026
X17.245 Z9.057
X17.264 Z9.095
X17.271 Z9.138
Z11.7
M5
M30
