(1041bore)
(Machine)
(  vendor: Nikodem Bartnik)
(  model: Generic 3-axis Router)
(  description: This machine has XYZ axis on the Head)
(T1  D=1.38 CR=0 - ZMIN=4.7 - flat end mill)
G90 G94
G17
G21
(When using Fusion 360 for Personal Use, the feedrate of)
(rapid moves is reduced to match the feedrate of cutting)
(moves, which can increase machining time. Unrestricted rapid)
(moves are available with a Fusion 360 Subscription.)

(Bore3)
T1
S5000 M3
G54
G0 X9.674 Y13.715
Z10.7
G1 Z9.838 F20
Y13.722 Z9.795
Y13.741 Z9.757
Y13.772 Z9.726
Y13.81 Z9.707
Y13.853 Z9.7
Y13.922
X9.667 Y13.965
X9.648 Y14.003
X9.617 Y14.034
X9.579 Y14.053
X9.536 Y14.06
G3 X9.536 Y13.44 Z9.613 I0 J-0.31 F30
X9.536 Y14.06 Z9.525 I0 J0.31
X9.536 Y13.44 Z9.438 I0 J-0.31
X9.536 Y14.06 Z9.35 I0 J0.31
X9.536 Y13.44 Z9.263 I0 J-0.31
X9.536 Y14.06 Z9.175 I0 J0.31
X9.536 Y13.44 Z9.088 I0 J-0.31
X9.536 Y14.06 Z9 I0 J0.31
X9.536 Y13.44 Z8.913 I0 J-0.31
X9.536 Y14.06 Z8.825 I0 J0.31
X9.536 Y13.44 Z8.738 I0 J-0.31
X9.536 Y14.06 Z8.65 I0 J0.31
X9.536 Y13.44 Z8.563 I0 J-0.31
X9.536 Y14.06 Z8.475 I0 J0.31
X9.536 Y13.44 Z8.388 I0 J-0.31
X9.536 Y14.06 Z8.3 I0 J0.31
X9.536 Y13.44 Z8.213 I0 J-0.31
X9.536 Y14.06 Z8.125 I0 J0.31
X9.536 Y13.44 Z8.038 I0 J-0.31
X9.536 Y14.06 Z7.95 I0 J0.31
X9.536 Y13.44 Z7.863 I0 J-0.31
X9.536 Y14.06 Z7.775 I0 J0.31
X9.536 Y13.44 Z7.688 I0 J-0.31
X9.536 Y14.06 Z7.6 I0 J0.31
X9.536 Y13.44 Z7.513 I0 J-0.31
X9.536 Y14.06 Z7.425 I0 J0.31
X9.536 Y13.44 Z7.338 I0 J-0.31
X9.536 Y14.06 Z7.25 I0 J0.31
X9.536 Y13.44 Z7.163 I0 J-0.31
X9.536 Y14.06 Z7.075 I0 J0.31
X9.536 Y13.44 Z6.988 I0 J-0.31
X9.536 Y14.06 Z6.9 I0 J0.31
X9.536 Y13.44 Z6.813 I0 J-0.31
X9.536 Y14.06 Z6.725 I0 J0.31
X9.291 Y13.94 Z6.7 I0 J-0.31
X9.781 Y13.56 I0.245 J-0.19
X9.291 Y13.94 I-0.245 J0.19
G1 X9.27 Y13.902
X9.262 Y13.86
X9.268 Y13.817
X9.286 Y13.778
X9.316 Y13.746
X9.37 Y13.704
X9.404 Y13.678 Z6.707
X9.434 Y13.654 Z6.726
X9.458 Y13.636 Z6.757
X9.474 Y13.624 Z6.795
X9.479 Y13.619 Z6.838
Z10.7
X9.616 Y16.423
Z9.838 F20
Y16.43 Z9.795
Y16.449 Z9.757
Y16.48 Z9.726
Y16.518 Z9.707
Y16.561 Z9.7
Y16.63
X9.61 Y16.661
X9.593 Y16.687
X9.567 Y16.704
X9.536 Y16.71
G3 X9.536 Y16.39 Z9.626 I0 J-0.16 F30
X9.536 Y16.71 Z9.551 I0 J0.16
X9.536 Y16.39 Z9.477 I0 J-0.16
X9.536 Y16.71 Z9.403 I0 J0.16
X9.536 Y16.39 Z9.328 I0 J-0.16
X9.536 Y16.71 Z9.254 I0 J0.16
X9.536 Y16.39 Z9.179 I0 J-0.16
X9.536 Y16.71 Z9.105 I0 J0.16
X9.536 Y16.39 Z9.031 I0 J-0.16
X9.536 Y16.71 Z8.956 I0 J0.16
X9.536 Y16.39 Z8.882 I0 J-0.16
X9.536 Y16.71 Z8.808 I0 J0.16
X9.536 Y16.39 Z8.733 I0 J-0.16
X9.536 Y16.71 Z8.659 I0 J0.16
X9.536 Y16.39 Z8.585 I0 J-0.16
X9.536 Y16.71 Z8.51 I0 J0.16
X9.536 Y16.39 Z8.436 I0 J-0.16
X9.536 Y16.71 Z8.361 I0 J0.16
X9.536 Y16.39 Z8.287 I0 J-0.16
X9.536 Y16.71 Z8.213 I0 J0.16
X9.536 Y16.39 Z8.138 I0 J-0.16
X9.536 Y16.71 Z8.064 I0 J0.16
X9.536 Y16.39 Z7.99 I0 J-0.16
X9.536 Y16.71 Z7.915 I0 J0.16
X9.536 Y16.39 Z7.841 I0 J-0.16
X9.536 Y16.71 Z7.767 I0 J0.16
X9.536 Y16.39 Z7.692 I0 J-0.16
X9.536 Y16.71 Z7.618 I0 J0.16
X9.536 Y16.39 Z7.543 I0 J-0.16
X9.536 Y16.71 Z7.469 I0 J0.16
X9.536 Y16.39 Z7.395 I0 J-0.16
X9.536 Y16.71 Z7.32 I0 J0.16
X9.536 Y16.39 Z7.246 I0 J-0.16
X9.536 Y16.71 Z7.172 I0 J0.16
X9.536 Y16.39 Z7.097 I0 J-0.16
X9.536 Y16.71 Z7.023 I0 J0.16
X9.536 Y16.39 Z6.948 I0 J-0.16
X9.536 Y16.71 Z6.874 I0 J0.16
X9.536 Y16.39 Z6.8 I0 J-0.16
X9.536 Y16.71 Z6.725 I0 J0.16
X9.536 Y16.39 Z6.651 I0 J-0.16
X9.536 Y16.71 Z6.577 I0 J0.16
X9.536 Y16.39 Z6.502 I0 J-0.16
X9.536 Y16.71 Z6.428 I0 J0.16
X9.536 Y16.39 Z6.354 I0 J-0.16
X9.536 Y16.71 Z6.279 I0 J0.16
X9.536 Y16.39 Z6.205 I0 J-0.16
X9.536 Y16.71 Z6.13 I0 J0.16
X9.536 Y16.39 Z6.056 I0 J-0.16
X9.536 Y16.71 Z5.982 I0 J0.16
X9.536 Y16.39 Z5.907 I0 J-0.16
X9.536 Y16.71 Z5.833 I0 J0.16
X9.536 Y16.39 Z5.759 I0 J-0.16
X9.536 Y16.71 Z5.684 I0 J0.16
X9.536 Y16.39 Z5.61 I0 J-0.16
X9.536 Y16.71 Z5.536 I0 J0.16
X9.536 Y16.39 Z5.461 I0 J-0.16
X9.536 Y16.71 Z5.387 I0 J0.16
X9.536 Y16.39 Z5.312 I0 J-0.16
X9.536 Y16.71 Z5.238 I0 J0.16
X9.536 Y16.39 Z5.164 I0 J-0.16
X9.536 Y16.71 Z5.089 I0 J0.16
X9.536 Y16.39 Z5.015 I0 J-0.16
X9.536 Y16.71 Z4.941 I0 J0.16
X9.536 Y16.39 Z4.866 I0 J-0.16
X9.536 Y16.71 Z4.792 I0 J0.16
X9.536 Y16.39 Z4.718 I0 J-0.16
X9.644 Y16.432 Z4.7 I0 J0.16
X9.428 Y16.668 I-0.108 J0.118
X9.644 Y16.432 I0.108 J-0.118
G1 X9.663 Y16.457
X9.67 Y16.487
X9.665 Y16.518
X9.649 Y16.545
X9.603 Y16.596
X9.574 Y16.627 Z4.707
X9.548 Y16.656 Z4.726
X9.527 Y16.678 Z4.757
X9.514 Y16.693 Z4.795
X9.51 Y16.698 Z4.838
Z10.7
X9.674 Y16.765
Z9.838 F20
Y16.772 Z9.795
Y16.791 Z9.757
Y16.822 Z9.726
Y16.86 Z9.707
Y16.903 Z9.7
Y16.972
X9.667 Y17.015
X9.648 Y17.053
X9.617 Y17.084
X9.579 Y17.103
X9.536 Y17.11
G3 X9.536 Y15.99 Z9.591 I0 J-0.56 F30
X9.536 Y17.11 Z9.481 I0 J0.56
X9.536 Y15.99 Z9.372 I0 J-0.56
X9.536 Y17.11 Z9.263 I0 J0.56
X9.536 Y15.99 Z9.153 I0 J-0.56
X9.536 Y17.11 Z9.044 I0 J0.56
X9.536 Y15.99 Z8.934 I0 J-0.56
X9.536 Y17.11 Z8.825 I0 J0.56
X9.536 Y15.99 Z8.716 I0 J-0.56
X9.536 Y17.11 Z8.606 I0 J0.56
X9.536 Y15.99 Z8.497 I0 J-0.56
X9.536 Y17.11 Z8.388 I0 J0.56
X9.536 Y15.99 Z8.278 I0 J-0.56
X9.536 Y17.11 Z8.169 I0 J0.56
X9.536 Y15.99 Z8.06 I0 J-0.56
X9.536 Y17.11 Z7.95 I0 J0.56
X9.536 Y15.99 Z7.841 I0 J-0.56
X9.536 Y17.11 Z7.732 I0 J0.56
X9.536 Y15.99 Z7.622 I0 J-0.56
X9.536 Y17.11 Z7.513 I0 J0.56
X9.536 Y15.99 Z7.403 I0 J-0.56
X9.536 Y17.11 Z7.294 I0 J0.56
X9.536 Y15.99 Z7.185 I0 J-0.56
X9.536 Y17.11 Z7.075 I0 J0.56
X9.536 Y15.99 Z6.966 I0 J-0.56
X9.536 Y17.11 Z6.857 I0 J0.56
X9.536 Y15.99 Z6.747 I0 J-0.56
X9.536 Y17.11 Z6.638 I0 J0.56
X9.536 Y15.99 Z6.529 I0 J-0.56
X9.536 Y17.11 Z6.419 I0 J0.56
X9.536 Y15.99 Z6.31 I0 J-0.56
X9.536 Y17.11 Z6.2 I0 J0.56
X9.536 Y15.99 Z6.091 I0 J-0.56
X9.536 Y17.11 Z5.982 I0 J0.56
X9.536 Y15.99 Z5.872 I0 J-0.56
X9.536 Y17.11 Z5.763 I0 J0.56
X9.536 Y15.99 Z5.654 I0 J-0.56
X9.536 Y17.11 Z5.544 I0 J0.56
X9.536 Y15.99 Z5.435 I0 J-0.56
X9.536 Y17.11 Z5.326 I0 J0.56
X9.536 Y15.99 Z5.216 I0 J-0.56
X9.536 Y17.11 Z5.107 I0 J0.56
X9.536 Y15.99 Z4.997 I0 J-0.56
X9.536 Y17.11 Z4.888 I0 J0.56
X9.536 Y15.99 Z4.779 I0 J-0.56
X9.967 Y16.907 Z4.7 I0 J0.56
X9.105 Y16.193 I-0.431 J-0.357
X9.967 Y16.907 I0.431 J0.357
G1 X9.935 Y16.936
X9.895 Y16.953
X9.852 Y16.957
X9.81 Y16.947
X9.773 Y16.925
X9.72 Y16.881
X9.687 Y16.854 Z4.707
X9.657 Y16.83 Z4.726
X9.634 Y16.81 Z4.757
X9.619 Y16.798 Z4.795
X9.614 Y16.793 Z4.838
Z10.7
M5
M30
