(1041pocket)
(Machine)
(  vendor: Nikodem Bartnik)
(  model: Generic 3-axis Router)
(  description: This machine has XYZ axis on the Head)
(T1  D=1.38 CR=0 - ZMIN=0.7 - flat end mill)
G90 G94
G17
G21
(When using Fusion 360 for Personal Use, the feedrate of)
(rapid moves is reduced to match the feedrate of cutting)
(moves, which can increase machining time. Unrestricted rapid)
(moves are available with a Fusion 360 Subscription.)

(Pocket2)
T1
S5000 M3
G54
G0 X14.5 Y11
Z21.7
G1 Z10.948 F30
Z9.452
X14.507 Y10.969
X14.527 Y10.943
X14.556 Y10.929
X14.588
X14.617 Y10.943
X14.637 Y10.969
X14.645 Y11
G3 X14.355 Y11 I-0.145 J0
X15.473 Y11 I0.559 J0
X13.527 Y11 I-0.973 J0
X15.473 Y11 I0.973 J0
G2 X15.752 Y11.537 I0.657 J0
G3 X15.862 Y12.132 I-0.249 J0.354
G1 X15.771 Y12.27
X15.177 Y12.662
X14.501 Y12.796
X13.803 Y12.653
X13.23 Y12.27
X12.838 Y11.677
X12.704 Y11
X12.84 Y10.314
X13.229 Y9.73
X13.823 Y9.338
X14.499 Y9.204
X15.197 Y9.347
X15.77 Y9.73
X16.162 Y10.323
X16.296 Y10.999
X16.153 Y11.697
X15.862 Y12.132
X15.841 Y12.153
X15.814 Y12.163
X15.784 Y12.16
X15.759 Y12.145
X14.602 Y11.101
X14.5 Y11
Z9.204
X14.596 Y10.966
X14.619 Y10.965
X14.637 Y10.978
X14.645 Y11
G3 X14.355 Y11 I-0.145 J0
X15.473 Y11 I0.559 J0
X13.527 Y11 I-0.973 J0
X15.473 Y11 I0.973 J0
G2 X15.752 Y11.537 I0.657 J0
G3 X15.862 Y12.132 I-0.249 J0.354
G1 X15.771 Y12.27
X15.177 Y12.662
X14.501 Y12.796
X13.803 Y12.653
X13.23 Y12.27
X12.838 Y11.677
X12.704 Y11
X12.84 Y10.314
X13.229 Y9.73
X13.823 Y9.338
X14.499 Y9.204
X15.197 Y9.347
X15.77 Y9.73
X16.162 Y10.323
X16.296 Y10.999
X16.153 Y11.697
X15.862 Y12.132
X15.841 Y12.153
X15.814 Y12.163
X15.784 Y12.16
X15.759 Y12.145
X14.602 Y11.101
X14.5 Y11
Z8.956
X14.596 Y10.966
X14.619 Y10.965
X14.637 Y10.978
X14.645 Y11
G3 X14.355 Y11 I-0.145 J0
X15.473 Y11 I0.559 J0
X13.527 Y11 I-0.973 J0
X15.473 Y11 I0.973 J0
G2 X15.752 Y11.537 I0.657 J0
G3 X15.862 Y12.132 I-0.249 J0.354
G1 X15.771 Y12.27
X15.177 Y12.662
X14.501 Y12.796
X13.803 Y12.653
X13.23 Y12.27
X12.838 Y11.677
X12.704 Y11
X12.84 Y10.314
X13.229 Y9.73
X13.823 Y9.338
X14.499 Y9.204
X15.197 Y9.347
X15.77 Y9.73
X16.162 Y10.323
X16.296 Y10.999
X16.153 Y11.697
X15.862 Y12.132
X15.841 Y12.153
X15.814 Y12.163
X15.784 Y12.16
X15.759 Y12.145
X14.602 Y11.101
X14.5 Y11
Z8.708
X14.596 Y10.966
X14.619 Y10.965
X14.637 Y10.978
X14.645 Y11
G3 X14.355 Y11 I-0.145 J0
X15.473 Y11 I0.559 J0
X13.527 Y11 I-0.973 J0
X15.473 Y11 I0.973 J0
G2 X15.752 Y11.537 I0.657 J0
G3 X15.862 Y12.132 I-0.249 J0.354
G1 X15.771 Y12.27
X15.177 Y12.662
X14.501 Y12.796
X13.803 Y12.653
X13.23 Y12.27
X12.838 Y11.677
X12.704 Y11
X12.84 Y10.314
X13.229 Y9.73
X13.823 Y9.338
X14.499 Y9.204
X15.197 Y9.347
X15.77 Y9.73
X16.162 Y10.323
X16.296 Y10.999
X16.153 Y11.697
X15.862 Y12.132
X15.841 Y12.153
X15.814 Y12.163
X15.784 Y12.16
X15.759 Y12.145
X14.602 Y11.101
X14.5 Y11
Z8.46
X14.596 Y10.966
X14.619 Y10.965
X14.637 Y10.978
X14.645 Y11
G3 X14.355 Y11 I-0.145 J0
X15.473 Y11 I0.559 J0
X13.527 Y11 I-0.973 J0
X15.473 Y11 I0.973 J0
G2 X15.752 Y11.537 I0.657 J0
G3 X15.862 Y12.132 I-0.249 J0.354
G1 X15.771 Y12.27
X15.177 Y12.662
X14.501 Y12.796
X13.803 Y12.653
X13.23 Y12.27
X12.838 Y11.677
X12.704 Y11
X12.84 Y10.314
X13.229 Y9.73
X13.823 Y9.338
X14.499 Y9.204
X15.197 Y9.347
X15.77 Y9.73
X16.162 Y10.323
X16.296 Y10.999
X16.153 Y11.697
X15.862 Y12.132
X15.841 Y12.153
X15.814 Y12.163
X15.784 Y12.16
X15.759 Y12.145
X14.602 Y11.101
X14.5 Y11
Z8.212
X14.596 Y10.966
X14.619 Y10.965
X14.637 Y10.978
X14.645 Y11
G3 X14.355 Y11 I-0.145 J0
X15.473 Y11 I0.559 J0
X13.527 Y11 I-0.973 J0
X15.473 Y11 I0.973 J0
G2 X15.752 Y11.537 I0.657 J0
G3 X15.862 Y12.132 I-0.249 J0.354
G1 X15.771 Y12.27
X15.177 Y12.662
X14.501 Y12.796
X13.803 Y12.653
X13.23 Y12.27
X12.838 Y11.677
X12.704 Y11
X12.84 Y10.314
X13.229 Y9.73
X13.823 Y9.338
X14.499 Y9.204
X15.197 Y9.347
X15.77 Y9.73
X16.162 Y10.323
X16.296 Y10.999
X16.153 Y11.697
X15.862 Y12.132
X15.841 Y12.153
X15.814 Y12.163
X15.784 Y12.16
X15.759 Y12.145
X14.602 Y11.101
X14.5 Y11
Z7.964
X14.596 Y10.966
X14.619 Y10.965
X14.637 Y10.978
X14.645 Y11
G3 X14.355 Y11 I-0.145 J0
X15.473 Y11 I0.559 J0
X13.527 Y11 I-0.973 J0
X15.473 Y11 I0.973 J0
G2 X15.752 Y11.537 I0.657 J0
G3 X15.862 Y12.132 I-0.249 J0.354
G1 X15.771 Y12.27
X15.177 Y12.662
X14.501 Y12.796
X13.803 Y12.653
X13.23 Y12.27
X12.838 Y11.677
X12.704 Y11
X12.84 Y10.314
X13.229 Y9.73
X13.823 Y9.338
X14.499 Y9.204
X15.197 Y9.347
X15.77 Y9.73
X16.162 Y10.323
X16.296 Y10.999
X16.153 Y11.697
X15.862 Y12.132
X15.841 Y12.153
X15.814 Y12.163
X15.784 Y12.16
X15.759 Y12.145
X14.602 Y11.101
X14.5 Y11
Z7.716
X14.596 Y10.966
X14.619 Y10.965
X14.637 Y10.978
X14.645 Y11
G3 X14.355 Y11 I-0.145 J0
X15.473 Y11 I0.559 J0
X13.527 Y11 I-0.973 J0
X15.473 Y11 I0.973 J0
G2 X15.752 Y11.537 I0.657 J0
G3 X15.862 Y12.132 I-0.249 J0.354
G1 X15.771 Y12.27
X15.177 Y12.662
X14.501 Y12.796
X13.803 Y12.653
X13.23 Y12.27
X12.838 Y11.677
X12.704 Y11
X12.84 Y10.314
X13.229 Y9.73
X13.823 Y9.338
X14.499 Y9.204
X15.197 Y9.347
X15.77 Y9.73
X16.162 Y10.323
X16.296 Y10.999
X16.153 Y11.697
X15.862 Y12.132
X15.841 Y12.153
X15.814 Y12.163
X15.784 Y12.16
X15.759 Y12.145
X14.602 Y11.101
X14.5 Y11
Z7.468
X14.596 Y10.966
X14.619 Y10.965
X14.637 Y10.978
X14.645 Y11
G3 X14.355 Y11 I-0.145 J0
X15.473 Y11 I0.559 J0
X13.527 Y11 I-0.973 J0
X15.473 Y11 I0.973 J0
G2 X15.752 Y11.537 I0.657 J0
G3 X15.862 Y12.132 I-0.249 J0.354
G1 X15.771 Y12.27
X15.177 Y12.662
X14.501 Y12.796
X13.803 Y12.653
X13.23 Y12.27
X12.838 Y11.677
X12.704 Y11
X12.84 Y10.314
X13.229 Y9.73
X13.823 Y9.338
X14.499 Y9.204
X15.197 Y9.347
X15.77 Y9.73
X16.162 Y10.323
X16.296 Y10.999
X16.153 Y11.697
X15.862 Y12.132
X15.841 Y12.153
X15.814 Y12.163
X15.784 Y12.16
X15.759 Y12.145
X14.602 Y11.101
X14.5 Y11
Z7.22
X14.596 Y10.966
X14.619 Y10.965
X14.637 Y10.978
X14.645 Y11
G3 X14.355 Y11 I-0.145 J0
X15.473 Y11 I0.559 J0
X13.527 Y11 I-0.973 J0
X15.473 Y11 I0.973 J0
G2 X15.752 Y11.537 I0.657 J0
G3 X15.862 Y12.132 I-0.249 J0.354
G1 X15.771 Y12.27
X15.177 Y12.662
X14.501 Y12.796
X13.803 Y12.653
X13.23 Y12.27
X12.838 Y11.677
X12.704 Y11
X12.84 Y10.314
X13.229 Y9.73
X13.823 Y9.338
X14.499 Y9.204
X15.197 Y9.347
X15.77 Y9.73
X16.162 Y10.323
X16.296 Y10.999
X16.153 Y11.697
X15.862 Y12.132
X15.841 Y12.153
X15.814 Y12.163
X15.784 Y12.16
X15.759 Y12.145
X14.602 Y11.101
X14.5 Y11
Z6.972
X14.596 Y10.966
X14.619 Y10.965
X14.637 Y10.978
X14.645 Y11
G3 X14.355 Y11 I-0.145 J0
X15.473 Y11 I0.559 J0
X13.527 Y11 I-0.973 J0
X15.473 Y11 I0.973 J0
G2 X15.752 Y11.537 I0.657 J0
G3 X15.862 Y12.132 I-0.249 J0.354
G1 X15.771 Y12.27
X15.177 Y12.662
X14.501 Y12.796
X13.803 Y12.653
X13.23 Y12.27
X12.838 Y11.677
X12.704 Y11
X12.84 Y10.314
X13.229 Y9.73
X13.823 Y9.338
X14.499 Y9.204
X15.197 Y9.347
X15.77 Y9.73
X16.162 Y10.323
X16.296 Y10.999
X16.153 Y11.697
X15.862 Y12.132
X15.841 Y12.153
X15.814 Y12.163
X15.784 Y12.16
X15.759 Y12.145
X14.602 Y11.101
X14.5 Y11
Z6.836
X14.596 Y10.966
X14.619 Y10.965
X14.637 Y10.978
X14.645 Y11
G3 X14.355 Y11 I-0.145 J0
X15.473 Y11 I0.559 J0
X13.527 Y11 I-0.973 J0
X15.473 Y11 I0.973 J0
G2 X15.752 Y11.537 I0.657 J0
G3 X15.862 Y12.132 I-0.249 J0.354
G1 X15.771 Y12.27
X15.177 Y12.662
X14.501 Y12.796
X13.803 Y12.653
X13.23 Y12.27
X12.838 Y11.677
X12.704 Y11
X12.84 Y10.314
X13.229 Y9.73
X13.823 Y9.338
X14.499 Y9.204
X15.197 Y9.347
X15.77 Y9.73
X16.162 Y10.323
X16.296 Y10.999
X16.153 Y11.697
X15.862 Y12.132
X15.841 Y12.153
X15.814 Y12.163
X15.784 Y12.16
X15.759 Y12.145
X14.602 Y11.101
X14.5 Y11
Z6.7
X14.596 Y10.966
X14.619 Y10.965
X14.637 Y10.978
X14.645 Y11
G3 X14.355 Y11 I-0.145 J0
X15.473 Y11 I0.559 J0
X13.527 Y11 I-0.973 J0
X15.473 Y11 I0.973 J0
G2 X15.752 Y11.537 I0.657 J0
G3 X15.862 Y12.132 I-0.249 J0.354
G1 X15.771 Y12.27
X15.177 Y12.662
X14.501 Y12.796
X13.803 Y12.653
X13.23 Y12.27
X12.838 Y11.677
X12.704 Y11
X12.84 Y10.314
X13.229 Y9.73
X13.823 Y9.338
X14.499 Y9.204
X15.197 Y9.347
X15.77 Y9.73
X16.162 Y10.323
X16.296 Y10.999
X16.153 Y11.697
X15.862 Y12.132
X15.841 Y12.153
X15.814 Y12.163
X15.784 Y12.16
X15.759 Y12.145
X14.602 Y11.101
X14.5 Y11
Z6.452
X14.596 Y10.966
X14.619 Y10.965
X14.637 Y10.978
X14.645 Y11
G3 X14.355 Y11 I-0.145 J0
X15.473 Y11 I0.559 J0
X13.527 Y11 I-0.973 J0
X15.473 Y11 I0.973 J0
G2 X15.752 Y11.537 I0.657 J0
G3 X15.862 Y12.132 I-0.249 J0.354
G1 X15.771 Y12.27
X15.177 Y12.662
X14.501 Y12.796
X13.803 Y12.653
X13.23 Y12.27
X12.838 Y11.677
X12.704 Y11
X12.84 Y10.314
X13.229 Y9.73
X13.823 Y9.338
X14.499 Y9.204
X15.197 Y9.347
X15.77 Y9.73
X16.162 Y10.323
X16.296 Y10.999
X16.153 Y11.697
X15.862 Y12.132
X15.841 Y12.153
X15.814 Y12.163
X15.784 Y12.16
X15.759 Y12.145
X14.602 Y11.101
X14.5 Y11
Z6.204
X14.596 Y10.966
X14.619 Y10.965
X14.637 Y10.978
X14.645 Y11
G3 X14.355 Y11 I-0.145 J0
X15.473 Y11 I0.559 J0
X13.527 Y11 I-0.973 J0
X15.473 Y11 I0.973 J0
G2 X15.752 Y11.537 I0.657 J0
G3 X15.862 Y12.132 I-0.249 J0.354
G1 X15.771 Y12.27
X15.177 Y12.662
X14.501 Y12.796
X13.803 Y12.653
X13.23 Y12.27
X12.838 Y11.677
X12.704 Y11
X12.84 Y10.314
X13.229 Y9.73
X13.823 Y9.338
X14.499 Y9.204
X15.197 Y9.347
X15.77 Y9.73
X16.162 Y10.323
X16.296 Y10.999
X16.153 Y11.697
X15.862 Y12.132
X15.841 Y12.153
X15.814 Y12.163
X15.784 Y12.16
X15.759 Y12.145
X14.602 Y11.101
X14.5 Y11
Z5.956
X14.596 Y10.966
X14.619 Y10.965
X14.637 Y10.978
X14.645 Y11
G3 X14.355 Y11 I-0.145 J0
X15.473 Y11 I0.559 J0
X13.527 Y11 I-0.973 J0
X15.473 Y11 I0.973 J0
G2 X15.752 Y11.537 I0.657 J0
G3 X15.862 Y12.132 I-0.249 J0.354
G1 X15.771 Y12.27
X15.177 Y12.662
X14.501 Y12.796
X13.803 Y12.653
X13.23 Y12.27
X12.838 Y11.677
X12.704 Y11
X12.84 Y10.314
X13.229 Y9.73
X13.823 Y9.338
X14.499 Y9.204
X15.197 Y9.347
X15.77 Y9.73
X16.162 Y10.323
X16.296 Y10.999
X16.153 Y11.697
X15.862 Y12.132
X15.841 Y12.153
X15.814 Y12.163
X15.784 Y12.16
X15.759 Y12.145
X14.602 Y11.101
X14.5 Y11
Z5.828
X14.596 Y10.966
X14.619 Y10.965
X14.637 Y10.978
X14.645 Y11
G3 X14.355 Y11 I-0.145 J0
X15.473 Y11 I0.559 J0
X13.527 Y11 I-0.973 J0
X15.473 Y11 I0.973 J0
G2 X15.752 Y11.537 I0.657 J0
G3 X15.862 Y12.132 I-0.249 J0.354
G1 X15.771 Y12.27
X15.177 Y12.662
X14.501 Y12.796
X13.803 Y12.653
X13.23 Y12.27
X12.838 Y11.677
X12.704 Y11
X12.84 Y10.314
X13.229 Y9.73
X13.823 Y9.338
X14.499 Y9.204
X15.197 Y9.347
X15.77 Y9.73
X16.162 Y10.323
X16.296 Y10.999
X16.153 Y11.697
X15.862 Y12.132
X15.841 Y12.153
X15.814 Y12.163
X15.784 Y12.16
X15.759 Y12.145
X14.602 Y11.101
X14.5 Y11
Z5.7
X14.596 Y10.966
X14.619 Y10.965
X14.637 Y10.978
X14.645 Y11
G3 X14.355 Y11 I-0.145 J0
X15.473 Y11 I0.559 J0
X13.527 Y11 I-0.973 J0
X15.473 Y11 I0.973 J0
G2 X15.752 Y11.537 I0.657 J0
G3 X15.862 Y12.132 I-0.249 J0.354
G1 X15.771 Y12.27
X15.177 Y12.662
X14.501 Y12.796
X13.803 Y12.653
X13.23 Y12.27
X12.838 Y11.677
X12.704 Y11
X12.84 Y10.314
X13.229 Y9.73
X13.823 Y9.338
X14.499 Y9.204
X15.197 Y9.347
X15.77 Y9.73
X16.162 Y10.323
X16.296 Y10.999
X16.153 Y11.697
X15.862 Y12.132
X15.841 Y12.153
X15.814 Y12.163
X15.784 Y12.16
X15.759 Y12.145
X14.602 Y11.101
X14.5 Y11
Z5.452
X14.525 Y10.986
X14.557 Y10.981
X14.589 Y10.989
X14.615 Y11.009
X14.631 Y11.038
X14.635 Y11.07
X14.626 Y11.102
X14.606 Y11.128
X14.598 Y11.134
X14.57 Y11.152
X14.538 Y11.164
X14.512 Y11.17
X14.47 Y11.173
X14.43 Y11.165
X14.393 Y11.145
X14.363 Y11.116
X14.343 Y11.079
X14.334 Y11.039
X14.332 Y11.007
X14.333 Y10.974
X14.342 Y10.942
X14.346 Y10.932
X14.362 Y10.903
X14.384 Y10.878
X14.392 Y10.871
X14.419 Y10.852
X14.449 Y10.84
X14.454 Y10.838
X14.486 Y10.833
X14.519 Y10.835
X14.538 Y10.838
X14.57 Y10.848
X14.599 Y10.865
X14.626 Y10.888
X14.645 Y10.917
X14.652 Y10.93
X14.663 Y10.961
X14.668 Y10.993
Y11.001
X14.665 Y11.034
X14.655 Y11.066
X14.638 Y11.096
X14.614 Y11.121
X14.606 Y11.128
G2 X14.387 Y11.594 I0.385 J0.465
G3 X14.023 Y11.96 I-0.364 J0.001
G1 X13.8
X13.748 Y11.945
X13.619 Y11.901
X13.582 Y11.844
X13.611 Y11.492
Y11.439
X13.57 Y10.853
X13.678 Y10.585
X13.732 Y10.456
X14.046 Y10.175
X14.447 Y10.062
X14.872 Y10.136
X14.885 Y10.144
X15.214 Y10.387
X15.218 Y10.392
X15.412 Y10.77
X15.422 Y11.191
X15.248 Y11.568
X14.913 Y11.846
X14.425 Y11.959
X14.023 Y11.96
X13.996 Y11.954
X13.973 Y11.938
X13.958 Y11.913
X13.954 Y11.885
X13.962 Y11.858
X14.296 Y11.233
X14.5 Y11
Z5.204
X14.525 Y10.986
X14.557 Y10.981
X14.589 Y10.989
X14.615 Y11.009
X14.631 Y11.038
X14.635 Y11.07
X14.626 Y11.102
X14.606 Y11.128
X14.598 Y11.134
X14.57 Y11.152
X14.538 Y11.164
X14.512 Y11.17
X14.47 Y11.173
X14.43 Y11.165
X14.393 Y11.145
X14.363 Y11.116
X14.343 Y11.079
X14.334 Y11.039
X14.332 Y11.007
X14.333 Y10.974
X14.342 Y10.942
X14.346 Y10.932
X14.362 Y10.903
X14.384 Y10.878
X14.392 Y10.871
X14.419 Y10.852
X14.449 Y10.84
X14.454 Y10.838
X14.486 Y10.833
X14.519 Y10.835
X14.538 Y10.838
X14.57 Y10.848
X14.599 Y10.865
X14.626 Y10.888
X14.645 Y10.917
X14.652 Y10.93
X14.663 Y10.961
X14.668 Y10.993
Y11.001
X14.665 Y11.034
X14.655 Y11.066
X14.638 Y11.096
X14.614 Y11.121
X14.606 Y11.128
G2 X14.387 Y11.594 I0.385 J0.465
G3 X14.023 Y11.96 I-0.364 J0.001
G1 X13.8
X13.748 Y11.945
X13.619 Y11.901
X13.582 Y11.844
X13.611 Y11.492
Y11.439
X13.57 Y10.853
X13.678 Y10.585
X13.732 Y10.456
X14.046 Y10.175
X14.447 Y10.062
X14.872 Y10.136
X14.885 Y10.144
X15.214 Y10.387
X15.218 Y10.392
X15.412 Y10.77
X15.422 Y11.191
X15.248 Y11.568
X14.913 Y11.846
X14.425 Y11.959
X14.023 Y11.96
X13.996 Y11.954
X13.973 Y11.938
X13.958 Y11.913
X13.954 Y11.885
X13.962 Y11.858
X14.296 Y11.233
X14.5 Y11
Z4.956
X14.525 Y10.986
X14.557 Y10.981
X14.589 Y10.989
X14.615 Y11.009
X14.631 Y11.038
X14.635 Y11.07
X14.626 Y11.102
X14.606 Y11.128
X14.598 Y11.134
X14.57 Y11.152
X14.538 Y11.164
X14.512 Y11.17
X14.47 Y11.173
X14.43 Y11.165
X14.393 Y11.145
X14.363 Y11.116
X14.343 Y11.079
X14.334 Y11.039
X14.332 Y11.007
X14.333 Y10.974
X14.342 Y10.942
X14.346 Y10.932
X14.362 Y10.903
X14.384 Y10.878
X14.392 Y10.871
X14.419 Y10.852
X14.449 Y10.84
X14.454 Y10.838
X14.486 Y10.833
X14.519 Y10.835
X14.538 Y10.838
X14.57 Y10.848
X14.599 Y10.865
X14.626 Y10.888
X14.645 Y10.917
X14.652 Y10.93
X14.663 Y10.961
X14.668 Y10.993
Y11.001
X14.665 Y11.034
X14.655 Y11.066
X14.638 Y11.096
X14.614 Y11.121
X14.606 Y11.128
G2 X14.387 Y11.594 I0.385 J0.465
G3 X14.023 Y11.96 I-0.364 J0.001
G1 X13.8
X13.748 Y11.945
X13.619 Y11.901
X13.582 Y11.844
X13.611 Y11.492
Y11.439
X13.57 Y10.853
X13.678 Y10.585
X13.732 Y10.456
X14.046 Y10.175
X14.447 Y10.062
X14.872 Y10.136
X14.885 Y10.144
X15.214 Y10.387
X15.218 Y10.392
X15.412 Y10.77
X15.422 Y11.191
X15.248 Y11.568
X14.913 Y11.846
X14.425 Y11.959
X14.023 Y11.96
X13.995 Y11.954
X13.972 Y11.938
X13.958 Y11.913
X13.954 Y11.885
X13.962 Y11.858
X14.295 Y11.234
X14.5 Y11
Z4.828
X14.525 Y10.986
X14.557 Y10.981
X14.589 Y10.989
X14.615 Y11.009
X14.631 Y11.038
X14.635 Y11.07
X14.626 Y11.102
X14.605 Y11.128
X14.598 Y11.134
X14.57 Y11.152
X14.538 Y11.163
X14.512 Y11.17
X14.47 Y11.173
X14.43 Y11.165
X14.393 Y11.145
X14.363 Y11.116
X14.343 Y11.079
X14.334 Y11.039
X14.332 Y11.007
X14.333 Y10.974
X14.342 Y10.942
X14.346 Y10.932
X14.362 Y10.903
X14.384 Y10.878
X14.392 Y10.871
X14.419 Y10.852
X14.449 Y10.84
X14.454 Y10.838
X14.486 Y10.833
X14.519 Y10.835
X14.538 Y10.838
X14.57 Y10.848
X14.599 Y10.865
X14.626 Y10.888
X14.645 Y10.917
X14.652 Y10.93
X14.663 Y10.961
X14.668 Y10.993
Y11.001
X14.665 Y11.034
X14.655 Y11.066
X14.638 Y11.096
X14.614 Y11.121
X14.605 Y11.128
G2 X14.387 Y11.594 I0.385 J0.465
G3 X14.023 Y11.96 I-0.364 J0.001
G1 X13.8
X13.748 Y11.945
X13.619 Y11.901
X13.582 Y11.844
X13.611 Y11.492
Y11.439
X13.57 Y10.853
X13.678 Y10.585
X13.732 Y10.456
X14.046 Y10.175
X14.447 Y10.062
X14.872 Y10.136
X14.885 Y10.144
X15.214 Y10.387
X15.218 Y10.392
X15.412 Y10.77
X15.422 Y11.191
X15.248 Y11.568
X14.913 Y11.846
X14.425 Y11.959
X14.023 Y11.96
X13.995 Y11.954
X13.972 Y11.938
X13.958 Y11.913
X13.954 Y11.885
X13.962 Y11.858
X14.295 Y11.234
X14.5 Y11
Z4.7
X14.525 Y10.986
X14.557 Y10.981
X14.589 Y10.989
X14.615 Y11.009
X14.631 Y11.038
X14.635 Y11.07
X14.626 Y11.102
X14.605 Y11.128
X14.598 Y11.134
X14.57 Y11.152
X14.538 Y11.163
X14.512 Y11.169
X14.47 Y11.173
X14.43 Y11.165
X14.393 Y11.145
X14.363 Y11.116
X14.343 Y11.079
X14.334 Y11.038
X14.332 Y11.007
X14.333 Y10.974
X14.342 Y10.942
X14.346 Y10.932
X14.362 Y10.903
X14.384 Y10.878
X14.392 Y10.871
X14.419 Y10.852
X14.449 Y10.84
X14.454 Y10.838
X14.486 Y10.833
X14.519 Y10.835
X14.538 Y10.838
X14.57 Y10.848
X14.599 Y10.865
X14.626 Y10.888
X14.645 Y10.917
X14.652 Y10.93
X14.663 Y10.961
X14.668 Y10.993
Y11.001
X14.665 Y11.034
X14.655 Y11.066
X14.638 Y11.096
X14.614 Y11.121
X14.605 Y11.128
G2 X14.386 Y11.594 I0.385 J0.465
G3 X14.023 Y11.96 I-0.364 J0.001
G1 X13.8
X13.748 Y11.945
X13.619 Y11.901
X13.582 Y11.844
X13.611 Y11.492
Y11.439
X13.57 Y10.853
X13.678 Y10.585
X13.732 Y10.456
X14.046 Y10.175
X14.447 Y10.062
X14.872 Y10.136
X14.885 Y10.144
X15.214 Y10.387
X15.218 Y10.392
X15.412 Y10.77
X15.422 Y11.191
X15.248 Y11.568
X14.913 Y11.845
X14.425 Y11.959
X14.023 Y11.96
X13.995 Y11.954
X13.972 Y11.938
X13.957 Y11.913
X13.954 Y11.885
X13.961 Y11.858
X14.295 Y11.234
X14.5 Y11
Z4.452
X14.525 Y10.986
X14.557 Y10.981
X14.589 Y10.989
X14.615 Y11.009
X14.631 Y11.038
X14.635 Y11.07
X14.626 Y11.102
X14.605 Y11.127
X14.598 Y11.134
X14.57 Y11.152
X14.538 Y11.163
X14.512 Y11.169
X14.47 Y11.173
X14.43 Y11.164
X14.393 Y11.145
X14.363 Y11.116
X14.343 Y11.079
X14.334 Y11.038
X14.332 Y11.007
X14.333 Y10.974
X14.342 Y10.942
X14.346 Y10.933
X14.361 Y10.904
X14.383 Y10.88
X14.393 Y10.871
X14.42 Y10.852
X14.45 Y10.839
X14.484 Y10.833
X14.519 Y10.835
X14.538 Y10.838
X14.57 Y10.848
X14.599 Y10.865
X14.625 Y10.888
X14.645 Y10.917
X14.651 Y10.93
X14.663 Y10.961
X14.667 Y10.993
X14.668 Y11
X14.665 Y11.032
X14.655 Y11.062
X14.652 Y11.069
X14.635 Y11.098
X14.612 Y11.122
X14.605 Y11.127
G2 X14.386 Y11.594 I0.385 J0.465
G3 X14.022 Y11.96 I-0.364 J0.001
G1 X13.8
X13.748 Y11.945
X13.619 Y11.901
X13.582 Y11.844
X13.611 Y11.492
Y11.439
X13.57 Y10.853
X13.678 Y10.586
X13.733 Y10.457
X14.046 Y10.175
X14.447 Y10.062
X14.872 Y10.136
X14.885 Y10.144
X15.214 Y10.387
X15.218 Y10.392
X15.411 Y10.77
X15.422 Y11.181
X15.313 Y11.428
X15.248 Y11.568
X14.913 Y11.845
X14.424 Y11.959
X14.022 Y11.96
X13.994 Y11.954
X13.971 Y11.938
X13.957 Y11.913
X13.953 Y11.885
X13.961 Y11.858
X14.294 Y11.235
X14.5 Y11
Z4.204
X14.53 Y10.964
X14.563 Y10.952
X14.598 Y10.954
X14.629 Y10.971
X14.65 Y10.999
X14.658 Y11.033
X14.651 Y11.068
X14.649 Y11.072
X14.632 Y11.101
X14.609 Y11.124
X14.598 Y11.134
X14.57 Y11.152
X14.538 Y11.163
X14.512 Y11.169
X14.47 Y11.173
X14.43 Y11.164
X14.393 Y11.145
X14.363 Y11.115
X14.343 Y11.079
X14.334 Y11.038
X14.332 Y11.007
X14.333 Y10.974
X14.342 Y10.942
X14.345 Y10.935
X14.361 Y10.906
X14.382 Y10.882
X14.39 Y10.875
X14.417 Y10.856
X14.446 Y10.843
X14.458 Y10.84
X14.491 Y10.834
X14.524 Y10.836
X14.538 Y10.838
X14.57 Y10.848
X14.599 Y10.865
X14.625 Y10.888
X14.644 Y10.916
X14.651 Y10.93
X14.662 Y10.96
X14.667 Y10.992
X14.665 Y11.027
X14.654 Y11.06
X14.651 Y11.068
G2 X14.653 Y11.534 I0.514 J0.231
G3 X14.448 Y11.954 I-0.274 J0.126
G1 X14.424 Y11.959
X13.8 Y11.96
X13.748 Y11.945
X13.619 Y11.901
X13.582 Y11.844
X13.611 Y11.492
Y11.439
X13.57 Y10.853
X13.679 Y10.583
X13.727 Y10.464
X14.039 Y10.182
X14.447 Y10.062
X14.872 Y10.136
X14.885 Y10.144
X15.214 Y10.387
X15.218 Y10.392
X15.41 Y10.77
X15.422 Y11.18
X15.247 Y11.569
X14.913 Y11.845
X14.448 Y11.954
X14.421
X14.395 Y11.945
X14.376 Y11.926
X14.365 Y11.901
X14.364 Y11.874
X14.428 Y11.539
X14.5 Y11
Z3.956
X14.525 Y10.986
X14.557 Y10.981
X14.589 Y10.989
X14.615 Y11.009
X14.631 Y11.038
X14.635 Y11.07
X14.626 Y11.102
X14.605 Y11.127
X14.598 Y11.133
X14.57 Y11.152
X14.538 Y11.163
X14.512 Y11.169
X14.47 Y11.173
X14.43 Y11.164
X14.393 Y11.145
X14.363 Y11.115
X14.343 Y11.079
X14.334 Y11.038
X14.332 Y11.007
X14.333 Y10.974
X14.342 Y10.942
X14.345 Y10.934
X14.361 Y10.905
X14.383 Y10.88
X14.394 Y10.871
X14.421 Y10.852
X14.451 Y10.84
X14.458 Y10.838
X14.49 Y10.833
X14.521 Y10.834
X14.535 Y10.837
X14.568 Y10.846
X14.597 Y10.863
X14.624 Y10.887
X14.643 Y10.916
X14.651 Y10.931
X14.662 Y10.96
X14.666 Y10.992
Y10.997
X14.664 Y11.03
X14.654 Y11.061
X14.649 Y11.072
X14.632 Y11.1
X14.609 Y11.124
X14.605 Y11.127
G2 X14.385 Y11.594 I0.384 J0.466
G3 X14.021 Y11.96 I-0.365 J0.001
G1 X13.8
X13.748 Y11.945
X13.619 Y11.901
X13.582 Y11.844
X13.611 Y11.492
Y11.439
X13.57 Y10.86
X13.58 Y10.829
X13.679 Y10.583
X13.728 Y10.463
X13.735 Y10.454
X14.051 Y10.174
X14.448 Y10.063
X14.726 Y10.109
X14.871 Y10.135
X14.885 Y10.144
X15.214 Y10.387
X15.218 Y10.392
X15.409 Y10.77
X15.421 Y11.18
X15.247 Y11.569
X14.913 Y11.845
X14.424 Y11.959
X14.021 Y11.96
X13.993 Y11.954
X13.97 Y11.938
X13.956 Y11.913
X13.952 Y11.885
X13.96 Y11.858
X14.292 Y11.236
X14.5 Y11
Z3.708
X14.525 Y10.986
X14.557 Y10.981
X14.589 Y10.99
X14.615 Y11.009
X14.631 Y11.038
X14.635 Y11.07
X14.626 Y11.102
X14.605 Y11.127
X14.598 Y11.133
X14.57 Y11.151
X14.539 Y11.163
X14.512 Y11.169
X14.471 Y11.172
X14.43 Y11.164
X14.393 Y11.144
X14.364 Y11.115
X14.343 Y11.078
X14.335 Y11.038
X14.332 Y11.005
X14.334 Y10.973
X14.343 Y10.941
X14.359 Y10.909
X14.383 Y10.882
X14.397 Y10.87
X14.424 Y10.851
X14.455 Y10.839
X14.462 Y10.837
X14.494 Y10.832
X14.527 Y10.834
X14.536 Y10.836
X14.567 Y10.845
X14.596 Y10.862
X14.604 Y10.868
X14.628 Y10.89
X14.647 Y10.918
X14.65 Y10.925
X14.662 Y10.955
X14.666 Y10.987
X14.667 Y10.997
X14.664 Y11.029
X14.654 Y11.06
X14.649 Y11.072
X14.632 Y11.1
X14.609 Y11.124
X14.605 Y11.127
G2 X14.385 Y11.594 I0.384 J0.466
G3 X14.021 Y11.96 I-0.365 J0.001
G1 X13.8
X13.748 Y11.945
X13.619 Y11.901
X13.582 Y11.844
X13.611 Y11.492
X13.612 Y11.439
X13.571 Y10.859
X13.58 Y10.828
X13.679 Y10.583
X13.728 Y10.463
X13.734 Y10.455
X14.048 Y10.179
X14.171 Y10.14
X14.45 Y10.063
X14.586 Y10.083
X14.872 Y10.136
X14.886 Y10.145
X15.206 Y10.381
X15.251 Y10.456
X15.41 Y10.761
X15.422 Y11.18
X15.247 Y11.569
X14.913 Y11.844
X14.424 Y11.959
X14.021 Y11.96
X13.993 Y11.954
X13.97 Y11.938
X13.955 Y11.913
X13.952 Y11.885
X13.96 Y11.858
X14.292 Y11.237
X14.5 Y11
Z3.46
X14.525 Y10.986
X14.557 Y10.981
X14.589 Y10.99
X14.615 Y11.009
X14.631 Y11.038
X14.635 Y11.07
X14.625 Y11.102
X14.605 Y11.127
X14.598 Y11.133
X14.57 Y11.151
X14.539 Y11.162
X14.514 Y11.168
X14.472 Y11.172
X14.431 Y11.164
X14.394 Y11.144
X14.364 Y11.114
X14.344 Y11.078
X14.336 Y11.037
X14.333 Y11.002
X14.335 Y10.97
X14.344 Y10.938
X14.346 Y10.932
X14.362 Y10.903
X14.384 Y10.878
X14.389 Y10.874
X14.416 Y10.855
X14.447 Y10.842
X14.464 Y10.838
X14.496 Y10.833
X14.529 Y10.835
X14.537 Y10.836
X14.568 Y10.846
X14.596 Y10.862
X14.604 Y10.868
X14.628 Y10.891
X14.647 Y10.918
X14.65 Y10.923
X14.661 Y10.954
X14.666 Y10.986
Y10.998
X14.663 Y11.03
X14.654 Y11.061
X14.649 Y11.071
X14.632 Y11.1
X14.609 Y11.124
X14.605 Y11.127
G2 X14.385 Y11.594 I0.384 J0.466
G3 X14.02 Y11.96 I-0.365 J0
G1 X13.8
X13.748 Y11.945
X13.619 Y11.901
X13.582 Y11.844
X13.611 Y11.492
X13.612 Y11.44
X13.573 Y10.856
X13.581 Y10.825
X13.679 Y10.583
X13.724 Y10.473
X13.768 Y10.424
X14.034 Y10.186
X14.081 Y10.165
X14.451 Y10.064
X14.587 Y10.083
X14.873 Y10.137
X14.887 Y10.146
X15.206 Y10.381
X15.251 Y10.456
X15.409 Y10.759
X15.421 Y11.181
X15.247 Y11.569
X14.913 Y11.844
X14.424 Y11.959
X14.02 Y11.96
X13.993 Y11.954
X13.969 Y11.938
X13.955 Y11.913
X13.951 Y11.885
X13.959 Y11.858
X14.293 Y11.24
X14.493 Y11.013
X14.5 Y11
Z3.212
X14.521 Y10.994
X14.536 Y10.978
X14.541 Y10.956
X14.534 Y10.936
X14.517 Y10.921
X14.505 Y10.916
X14.487 Y10.901
X14.481 Y10.878
X14.488 Y10.856
X14.506 Y10.841
X14.53 Y10.838
X14.539 Y10.84
X14.571 Y10.849
X14.599 Y10.866
X14.605 Y10.87
X14.629 Y10.892
X14.648 Y10.92
X14.66 Y10.951
X14.665 Y10.984
X14.666 Y10.998
X14.663 Y11.031
X14.653 Y11.063
X14.649 Y11.071
X14.632 Y11.1
X14.609 Y11.124
X14.598 Y11.133
X14.57 Y11.151
X14.539 Y11.162
X14.515 Y11.168
X14.473 Y11.172
X14.432 Y11.163
X14.395 Y11.143
X14.365 Y11.114
X14.345 Y11.077
X14.337 Y11.036
X14.334 Y10.999
X14.336 Y10.967
X14.345 Y10.936
X14.361 Y10.905
X14.384 Y10.878
X14.392 Y10.871
X14.419 Y10.852
X14.449 Y10.84
X14.483 Y10.834
X14.517 Y10.836
X14.53 Y10.838
G2 X14.968 Y10.679 I0.083 J-0.455
G3 X15.41 Y10.831 I0.192 J0.16
G1 X15.421 Y11.181
X15.247 Y11.569
X14.913 Y11.844
X14.424 Y11.959
X13.8 Y11.96
X13.748 Y11.945
X13.619 Y11.901
X13.582 Y11.844
X13.611 Y11.492
X13.612 Y11.442
X13.574 Y10.854
X13.582 Y10.822
X13.679 Y10.583
X13.724 Y10.473
X13.77 Y10.423
X14.032 Y10.188
X14.111 Y10.157
X14.438 Y10.064
X14.466 Y10.065
X14.874 Y10.139
X14.885 Y10.146
X15.207 Y10.382
X15.251 Y10.456
X15.408 Y10.757
X15.41 Y10.831
X15.406 Y10.857
X15.392 Y10.88
X15.37 Y10.896
X15.344 Y10.902
X14.775 Y10.926
X14.5 Y11
Z2.964
X14.52 Y10.995
X14.534 Y10.981
X14.573 Y10.92
X14.588 Y10.906
X14.609 Y10.901
X14.629 Y10.907
X14.643 Y10.922
X14.647 Y10.929
X14.66 Y10.96
X14.665 Y10.994
Y10.999
X14.662 Y11.032
X14.652 Y11.063
X14.649 Y11.071
X14.632 Y11.1
X14.608 Y11.124
X14.598 Y11.133
X14.57 Y11.151
X14.539 Y11.162
X14.512 Y11.168
X14.471 Y11.172
X14.43 Y11.164
X14.393 Y11.144
X14.363 Y11.115
X14.343 Y11.078
X14.334 Y11.037
X14.332 Y11.007
X14.333 Y10.974
X14.342 Y10.942
X14.346 Y10.933
X14.362 Y10.904
X14.384 Y10.879
X14.393 Y10.871
X14.42 Y10.852
X14.45 Y10.839
X14.455 Y10.838
X14.489 Y10.833
X14.522 Y10.835
X14.536 Y10.838
X14.566 Y10.847
X14.594 Y10.863
X14.619 Y10.885
X14.638 Y10.913
X14.643 Y10.922
G2 X14.995 Y11.248 I0.657 J-0.357
G3 X15.059 Y11.723 I-0.115 J0.258
G1 X14.913 Y11.844
X14.424 Y11.959
X13.8 Y11.96
X13.748 Y11.945
X13.619 Y11.901
X13.582 Y11.844
X13.611 Y11.492
Y11.439
X13.572 Y10.887
X13.596 Y10.788
X13.678 Y10.585
X13.724 Y10.478
X13.804 Y10.392
X14.035 Y10.187
X14.111 Y10.156
X14.43 Y10.067
X14.527 Y10.073
X14.872 Y10.14
X14.882 Y10.146
X15.2 Y10.378
X15.407 Y10.758
X15.42 Y11.181
X15.247 Y11.569
X15.059 Y11.723
X15.03 Y11.738
X14.997 Y11.737
X14.969 Y11.721
X14.514 Y11.311
X14.494 Y11.297
X14.479 Y11.277
X14.377 Y11.063
X14.371 Y11.034
X14.377 Y11.004
X14.395 Y10.98
X14.422 Y10.966
X14.452 Y10.965
X14.48 Y10.977
X14.5 Y11
Z2.716
X14.52 Y10.995
X14.535 Y10.981
X14.573 Y10.92
X14.588 Y10.905
X14.608 Y10.9
X14.629 Y10.906
X14.643 Y10.921
X14.648 Y10.93
X14.663 Y10.972
X14.665 Y11.016
X14.653 Y11.059
X14.648 Y11.071
X14.631 Y11.1
X14.608 Y11.124
X14.597 Y11.133
X14.569 Y11.151
X14.538 Y11.162
X14.512 Y11.168
X14.471 Y11.172
X14.43 Y11.164
X14.393 Y11.144
X14.363 Y11.115
X14.343 Y11.078
X14.334 Y11.037
X14.332 Y11.007
X14.333 Y10.974
X14.342 Y10.942
X14.345 Y10.935
X14.361 Y10.905
X14.384 Y10.88
X14.396 Y10.869
X14.423 Y10.851
X14.453 Y10.839
X14.459 Y10.837
X14.492 Y10.832
X14.525 Y10.834
X14.557 Y10.843
X14.586 Y10.859
X14.598 Y10.868
X14.621 Y10.889
X14.64 Y10.915
X14.643 Y10.921
G2 X14.997 Y11.246 I0.656 J-0.361
G3 X15.062 Y11.721 I-0.114 J0.258
G1 X14.913 Y11.843
X14.424 Y11.959
X13.8 Y11.96
X13.748 Y11.945
X13.619 Y11.901
X13.582 Y11.844
X13.611 Y11.492
Y11.439
X13.572 Y10.887
X13.596 Y10.788
X13.677 Y10.588
X13.725 Y10.478
X13.805 Y10.392
X14.039 Y10.186
X14.113 Y10.156
X14.43 Y10.067
X14.529 Y10.073
X14.848 Y10.131
X14.888 Y10.152
X15.2 Y10.378
X15.401 Y10.745
X15.418 Y11.014
X15.421 Y11.179
X15.246 Y11.569
X15.062 Y11.721
X15.033 Y11.735
X15 Y11.734
X14.972 Y11.719
X14.515 Y11.31
X14.495 Y11.296
X14.48 Y11.276
X14.377 Y11.063
X14.371 Y11.034
X14.377 Y11.005
X14.395 Y10.981
X14.422 Y10.967
X14.452 Y10.966
X14.48 Y10.977
X14.5 Y11
Z2.468
X14.52 Y10.995
X14.535 Y10.981
X14.572 Y10.92
X14.587 Y10.905
X14.608 Y10.9
X14.628 Y10.906
X14.642 Y10.921
X14.645 Y10.925
X14.657 Y10.956
X14.662 Y10.988
X14.663 Y10.997
X14.661 Y11.031
X14.65 Y11.064
X14.647 Y11.072
X14.63 Y11.101
X14.607 Y11.125
X14.597 Y11.133
X14.569 Y11.151
X14.538 Y11.162
X14.512 Y11.168
X14.471 Y11.172
X14.43 Y11.163
X14.393 Y11.144
X14.363 Y11.114
X14.343 Y11.078
X14.334 Y11.037
X14.332 Y11.007
X14.333 Y10.974
X14.342 Y10.942
X14.345 Y10.934
X14.361 Y10.906
X14.382 Y10.881
X14.394 Y10.871
X14.421 Y10.852
X14.452 Y10.839
X14.459 Y10.837
X14.502 Y10.831
X14.545 Y10.839
X14.584 Y10.859
X14.598 Y10.869
X14.621 Y10.89
X14.64 Y10.916
X14.642 Y10.921
G2 X14.997 Y11.244 I0.654 J-0.362
G3 X15.063 Y11.719 I-0.113 J0.258
G1 X14.913 Y11.843
X14.424 Y11.959
X13.8 Y11.96
X13.748 Y11.945
X13.619 Y11.901
X13.582 Y11.844
X13.611 Y11.492
Y11.439
X13.573 Y10.891
X13.608 Y10.759
X13.679 Y10.583
X13.713 Y10.499
X13.778 Y10.417
X14.018 Y10.2
X14.064 Y10.178
X14.177 Y10.138
X14.427 Y10.067
X14.562 Y10.079
X14.845 Y10.131
X14.886 Y10.153
X15.199 Y10.379
X15.4 Y10.743
X15.421 Y11.151
Y11.176
X15.245 Y11.569
X15.063 Y11.719
X15.041 Y11.732
X15.017 Y11.735
X14.992 Y11.73
X14.972 Y11.716
X14.598 Y11.366
X14.582 Y11.355
X14.569 Y11.341
X14.402 Y11.095
X14.391 Y11.065
X14.394 Y11.033
X14.412 Y11.006
X14.439 Y10.99
X14.471 Y10.988
X14.5 Y11
Z2.22
X14.523 Y10.993
X14.537 Y10.975
X14.54 Y10.952
X14.531 Y10.909
X14.534 Y10.885
X14.549 Y10.867
X14.572 Y10.861
X14.595 Y10.868
X14.602 Y10.874
X14.633 Y10.904
X14.654 Y10.942
X14.662 Y10.984
X14.663 Y10.998
X14.661 Y11.032
X14.651 Y11.064
X14.648 Y11.07
X14.631 Y11.099
X14.608 Y11.123
X14.596 Y11.133
X14.568 Y11.151
X14.537 Y11.162
X14.514 Y11.168
X14.472 Y11.171
X14.431 Y11.163
X14.394 Y11.143
X14.364 Y11.114
X14.344 Y11.077
X14.335 Y11.036
X14.333 Y11.003
X14.335 Y10.971
X14.343 Y10.939
X14.346 Y10.932
X14.362 Y10.903
X14.384 Y10.878
X14.39 Y10.873
X14.416 Y10.854
X14.446 Y10.842
X14.458 Y10.838
X14.502 Y10.833
X14.545 Y10.84
X14.583 Y10.86
X14.595 Y10.868
G2 X15.059 Y10.914 I0.271 J-0.376
G3 X15.392 Y11.241 I0.104 J0.227
G1 X15.248 Y11.566
X14.913 Y11.843
X14.424 Y11.959
X13.8 Y11.96
X13.748 Y11.945
X13.619 Y11.901
X13.582 Y11.844
X13.611 Y11.492
X13.612 Y11.44
X13.574 Y10.89
X13.608 Y10.758
X13.679 Y10.583
X13.711 Y10.503
X13.811 Y10.386
X14.013 Y10.205
X14.123 Y10.155
X14.425 Y10.068
X14.595 Y10.085
X14.842 Y10.13
X14.885 Y10.154
X15.199 Y10.381
X15.338 Y10.623
X15.4 Y10.743
X15.421 Y11.15
Y11.175
X15.392 Y11.241
X15.376 Y11.263
X15.354 Y11.278
X15.327 Y11.282
X15.301 Y11.277
X14.791 Y11.055
X14.5 Y11
Z1.972
X14.523 Y10.993
X14.538 Y10.974
X14.54 Y10.951
X14.531 Y10.909
X14.533 Y10.885
X14.548 Y10.866
X14.571 Y10.86
X14.594 Y10.867
X14.601 Y10.872
X14.632 Y10.902
X14.653 Y10.94
X14.662 Y10.983
X14.663 Y10.997
X14.661 Y11.031
X14.651 Y11.063
X14.648 Y11.069
X14.631 Y11.098
X14.608 Y11.123
X14.596 Y11.133
X14.568 Y11.151
X14.537 Y11.162
X14.515 Y11.167
X14.473 Y11.171
X14.432 Y11.162
X14.395 Y11.143
X14.365 Y11.113
X14.345 Y11.076
X14.336 Y11.035
X14.334 Y11
X14.336 Y10.968
X14.344 Y10.936
X14.361 Y10.905
X14.384 Y10.878
X14.391 Y10.872
X14.418 Y10.853
X14.449 Y10.84
X14.459 Y10.837
X14.502 Y10.832
X14.544 Y10.839
X14.582 Y10.859
X14.594 Y10.867
G2 X15.06 Y10.907 I0.267 J-0.378
G3 X15.395 Y11.232 I0.107 J0.225
G1 X15.249 Y11.565
X14.912 Y11.843
X14.424 Y11.959
X13.8 Y11.96
X13.748 Y11.945
X13.619 Y11.901
X13.582 Y11.844
X13.611 Y11.492
X13.612 Y11.441
X13.576 Y10.889
X13.609 Y10.756
X13.679 Y10.583
X13.711 Y10.503
X13.811 Y10.386
X14.009 Y10.209
X14.189 Y10.135
X14.425 Y10.069
X14.596 Y10.085
X14.839 Y10.129
X14.885 Y10.155
X15.194 Y10.373
X15.338 Y10.623
X15.4 Y10.743
X15.421 Y11.149
Y11.174
X15.395 Y11.232
X15.38 Y11.254
X15.357 Y11.269
X15.33 Y11.273
X15.303 Y11.267
X14.858 Y11.067
X14.5 Y11
Z1.724
X14.523 Y10.993
X14.538 Y10.974
X14.54 Y10.951
X14.53 Y10.909
X14.532 Y10.885
X14.547 Y10.867
X14.57 Y10.86
X14.593 Y10.867
X14.6 Y10.872
X14.632 Y10.903
X14.653 Y10.941
X14.662 Y10.983
X14.663 Y10.997
X14.66 Y11.031
X14.651 Y11.063
X14.648 Y11.069
X14.631 Y11.098
X14.608 Y11.122
X14.595 Y11.133
X14.567 Y11.151
X14.536 Y11.162
X14.513 Y11.168
X14.471 Y11.171
X14.43 Y11.163
X14.393 Y11.143
X14.363 Y11.114
X14.343 Y11.078
X14.334 Y11.037
X14.332 Y11.007
X14.336 Y10.962
X14.34 Y10.948
X14.346 Y10.933
X14.362 Y10.904
X14.383 Y10.88
X14.391 Y10.872
X14.419 Y10.853
X14.45 Y10.84
X14.46 Y10.838
X14.502 Y10.833
X14.543 Y10.84
X14.581 Y10.859
X14.593 Y10.867
G2 X15.059 Y10.905 I0.265 J-0.379
G3 X15.395 Y11.23 I0.108 J0.225
G1 X15.249 Y11.564
X14.912 Y11.843
X14.424 Y11.959
X13.8 Y11.96
X13.748 Y11.945
X13.619 Y11.901
X13.582 Y11.844
X13.611 Y11.492
Y11.439
X13.575 Y10.922
X13.623 Y10.722
X13.679 Y10.583
X13.711 Y10.504
X13.812 Y10.386
X14.009 Y10.208
X14.19 Y10.134
X14.425 Y10.071
X14.597 Y10.085
X14.837 Y10.129
X14.885 Y10.157
X15.192 Y10.372
X15.338 Y10.623
X15.399 Y10.743
X15.421 Y11.147
X15.42 Y11.173
X15.395 Y11.23
X15.38 Y11.252
X15.357 Y11.267
X15.33 Y11.271
X15.304 Y11.265
X14.864 Y11.067
X14.5 Y11
Z1.476
X14.523 Y10.993
X14.538 Y10.974
X14.539 Y10.951
X14.53 Y10.91
X14.532 Y10.886
X14.547 Y10.867
X14.569 Y10.86
X14.592 Y10.868
X14.599 Y10.873
X14.631 Y10.903
X14.652 Y10.941
X14.661 Y10.984
X14.662 Y10.997
X14.66 Y11.03
X14.65 Y11.063
X14.648 Y11.068
X14.631 Y11.098
X14.607 Y11.122
X14.595 Y11.133
X14.567 Y11.151
X14.536 Y11.162
X14.513 Y11.167
X14.471 Y11.171
X14.43 Y11.163
X14.393 Y11.143
X14.363 Y11.114
X14.343 Y11.077
X14.334 Y11.037
X14.332 Y11.007
X14.336 Y10.962
X14.34 Y10.948
X14.345 Y10.935
X14.356 Y10.913
X14.371 Y10.893
X14.38 Y10.883
X14.39 Y10.873
X14.418 Y10.853
X14.449 Y10.841
X14.46 Y10.838
X14.501 Y10.833
X14.543 Y10.84
X14.58 Y10.859
X14.592 Y10.868
G2 X15.058 Y10.904 I0.264 J-0.379
G3 X15.396 Y11.228 I0.109 J0.224
G1 X15.249 Y11.563
X14.912 Y11.842
X14.423 Y11.959
X13.8 Y11.96
X13.748 Y11.945
X13.619 Y11.901
X13.582 Y11.844
X13.611 Y11.492
Y11.439
X13.575 Y10.922
X13.623 Y10.722
X13.678 Y10.585
X13.71 Y10.509
X13.851 Y10.35
X14.008 Y10.209
X14.192 Y10.134
X14.423 Y10.072
X14.631 Y10.091
X14.834 Y10.128
X14.884 Y10.158
X15.19 Y10.371
X15.338 Y10.623
X15.399 Y10.742
X15.421 Y11.146
X15.42 Y11.172
X15.396 Y11.228
X15.38 Y11.25
X15.357 Y11.265
X15.33 Y11.269
X15.304 Y11.263
X14.87 Y11.068
X14.5 Y11
Z1.228
X14.523 Y10.993
X14.537 Y10.974
X14.539 Y10.951
X14.529 Y10.91
X14.531 Y10.887
X14.546 Y10.868
X14.569 Y10.861
X14.591 Y10.868
X14.599 Y10.873
X14.63 Y10.903
X14.652 Y10.941
X14.661 Y10.984
X14.662 Y10.997
X14.66 Y11.031
X14.65 Y11.063
X14.633 Y11.095
X14.608 Y11.121
X14.594 Y11.132
X14.566 Y11.15
X14.535 Y11.162
X14.513 Y11.167
X14.471 Y11.171
X14.43 Y11.163
X14.393 Y11.143
X14.363 Y11.114
X14.343 Y11.077
X14.334 Y11.036
X14.333 Y11.017
X14.337 Y10.971
X14.342 Y10.95
X14.354 Y10.919
X14.373 Y10.891
X14.383 Y10.881
X14.393 Y10.871
X14.412 Y10.856
X14.434 Y10.845
X14.443 Y10.842
X14.452 Y10.839
X14.479 Y10.834
X14.506
X14.512 Y10.835
X14.547 Y10.843
X14.579 Y10.86
X14.591 Y10.868
G2 X15.058 Y10.903 I0.263 J-0.38
G3 X15.396 Y11.225 I0.11 J0.224
G1 X15.251 Y11.561
X14.912 Y11.842
X14.423 Y11.959
X13.8 Y11.96
X13.748 Y11.945
X13.619 Y11.901
X13.582 Y11.844
X13.611 Y11.492
Y11.439
X13.575 Y10.925
X13.635 Y10.692
X13.677 Y10.588
X13.711 Y10.51
X13.852 Y10.349
X14.008 Y10.21
X14.197 Y10.132
X14.4 Y10.075
X14.476 Y10.078
X14.665 Y10.098
X14.831 Y10.128
X14.884 Y10.159
X15.188 Y10.37
X15.338 Y10.623
X15.398 Y10.742
X15.421 Y11.145
X15.42 Y11.171
X15.396 Y11.225
X15.381 Y11.248
X15.358 Y11.262
X15.331 Y11.267
X15.304 Y11.261
X14.877 Y11.069
X14.5 Y11
Z0.98
X14.523 Y10.993
X14.537 Y10.973
X14.538 Y10.949
X14.527 Y10.912
Y10.888
X14.541 Y10.869
X14.564 Y10.861
X14.586 Y10.867
X14.599 Y10.875
X14.624 Y10.896
X14.644 Y10.923
X14.658 Y10.954
X14.664 Y10.987
X14.663 Y11.022
X14.653 Y11.055
X14.648 Y11.067
X14.631 Y11.096
X14.607 Y11.121
X14.594 Y11.132
X14.566 Y11.15
X14.535 Y11.162
X14.513 Y11.167
X14.472 Y11.171
X14.431 Y11.162
X14.394 Y11.143
X14.364 Y11.113
X14.344 Y11.077
X14.335 Y11.036
X14.333 Y11.016
X14.338 Y10.97
X14.342 Y10.951
X14.354 Y10.92
X14.373 Y10.892
X14.399 Y10.868
X14.43 Y10.85
X14.437 Y10.847
X14.47 Y10.838
X14.503 Y10.837
X14.508 Y10.838
X14.544 Y10.845
X14.576 Y10.861
X14.586 Y10.867
G2 X15.052 Y10.985 I0.403 J-0.618
G3 X15.331 Y11.374 I0.023 J0.278
G1 X15.25 Y11.561
X14.912 Y11.842
X14.423 Y11.959
X13.799 Y11.96
X13.748 Y11.945
X13.619 Y11.901
X13.582 Y11.844
X13.611 Y11.492
X13.612 Y11.44
X13.576 Y10.924
X13.635 Y10.692
X13.676 Y10.59
X13.713 Y10.511
X13.85 Y10.351
X14.006 Y10.213
X14.23 Y10.123
X14.392 Y10.077
X14.67 Y10.098
X14.822 Y10.126
X15.159 Y10.346
X15.184 Y10.365
X15.338 Y10.623
X15.398 Y10.744
X15.418 Y11.017
X15.422 Y11.166
X15.331 Y11.374
X15.312 Y11.4
X15.283 Y11.414
X15.251
X14.658 Y11.264
X14.634 Y11.262
X14.612 Y11.252
X14.422 Y11.114
X14.402 Y11.091
X14.393 Y11.062
X14.398 Y11.032
X14.415 Y11.007
X14.442 Y10.992
X14.472 Y10.989
X14.5 Y11
Z0.84
X14.523 Y10.993
X14.537 Y10.973
X14.538 Y10.949
X14.527 Y10.912
Y10.888
X14.541 Y10.869
X14.563 Y10.861
X14.586 Y10.867
X14.598 Y10.875
X14.624 Y10.896
X14.644 Y10.922
X14.661 Y10.965
X14.664 Y11.011
X14.653 Y11.055
X14.648 Y11.067
X14.631 Y11.096
X14.607 Y11.121
X14.593 Y11.132
X14.566 Y11.15
X14.535 Y11.162
X14.514 Y11.167
X14.472 Y11.17
X14.431 Y11.162
X14.394 Y11.142
X14.365 Y11.113
X14.344 Y11.076
X14.336 Y11.035
X14.334 Y11.014
X14.338 Y10.969
X14.341 Y10.956
X14.353 Y10.926
X14.37 Y10.899
X14.374 Y10.895
X14.4 Y10.87
X14.433 Y10.852
X14.444 Y10.848
X14.489 Y10.838
X14.534 Y10.842
X14.576 Y10.861
X14.586 Y10.867
G2 X15.051 Y10.984 I0.403 J-0.619
G3 X15.331 Y11.374 I0.024 J0.278
G1 X15.25 Y11.561
X14.912 Y11.842
X14.423 Y11.959
X13.799 Y11.96
X13.748 Y11.945
X13.619 Y11.901
X13.582 Y11.844
X13.611 Y11.492
X13.612 Y11.44
X13.577 Y10.924
X13.635 Y10.691
X13.679 Y10.583
X13.698 Y10.537
X13.853 Y10.349
X14.005 Y10.215
X14.262 Y10.114
X14.392 Y10.077
X14.67 Y10.098
X14.821 Y10.126
X15.159 Y10.346
X15.183 Y10.364
X15.338 Y10.623
X15.397 Y10.743
X15.418 Y11.017
X15.422 Y11.165
X15.331 Y11.374
X15.312 Y11.4
X15.283 Y11.414
X15.251 Y11.413
X14.657 Y11.264
X14.633 Y11.262
X14.611 Y11.251
X14.421 Y11.113
X14.401 Y11.091
X14.393 Y11.062
X14.398 Y11.032
X14.415 Y11.007
X14.442 Y10.992
X14.472 Y10.989
X14.5 Y11
Z0.7
X14.523 Y10.993
X14.537 Y10.974
X14.538 Y10.95
X14.527 Y10.913
X14.528 Y10.89
X14.541 Y10.871
X14.564 Y10.863
X14.586 Y10.87
X14.599 Y10.878
X14.629 Y10.905
X14.651 Y10.939
X14.662 Y10.977
Y11.018
X14.652 Y11.057
X14.647 Y11.067
X14.63 Y11.096
X14.607 Y11.121
X14.593 Y11.132
X14.566 Y11.15
X14.535 Y11.161
X14.515 Y11.166
X14.473 Y11.17
X14.432 Y11.162
X14.395 Y11.142
X14.365 Y11.112
X14.345 Y11.076
X14.336 Y11.035
X14.335 Y11.013
X14.339 Y10.969
X14.342 Y10.957
X14.353 Y10.927
X14.371 Y10.9
X14.375 Y10.895
X14.401 Y10.87
X14.433 Y10.852
X14.442 Y10.849
X14.487 Y10.839
X14.533 Y10.844
X14.575 Y10.863
X14.586 Y10.87
G2 X15.05 Y10.989 I0.407 J-0.616
G3 X15.329 Y11.379 I0.022 J0.279
G1 X15.25 Y11.56
X14.912 Y11.842
X14.423 Y11.959
X13.799 Y11.96
X13.748 Y11.945
X13.619 Y11.901
X13.582 Y11.844
X13.611 Y11.492
X13.612 Y11.441
X13.578 Y10.924
X13.636 Y10.691
X13.679 Y10.583
X13.698 Y10.537
X13.854 Y10.349
X14.006 Y10.216
X14.263 Y10.114
X14.392 Y10.077
X14.67 Y10.098
X14.819 Y10.126
X15.184 Y10.366
X15.337 Y10.623
X15.397 Y10.743
X15.418 Y11.017
X15.422 Y11.164
X15.329 Y11.379
X15.311 Y11.409 Z0.709
X15.287 Y11.433 Z0.718
X15.266 Y11.447 Z0.744
X15.242 Y11.457 Z0.769
X15.224 Y11.461 Z0.838
Z21.7
M5
M30
