(1052)
(Machine)
(  vendor: Autodesk)
(  model: Generic 3-axis Router)
(  description: This machine has XYZ axis on the Head)
(T2  D=3.175 CR=0 - ZMIN=-9 - flat end mill)
G90 G94
G17
G21
(When using Fusion 360 for Personal Use, the feedrate of)
(rapid moves is reduced to match the feedrate of cutting)
(moves, which can increase machining time. Unrestricted rapid)
(moves are available with a Fusion 360 Subscription.)

(Bore2)
T2
S5000 M3
G54
G0 X-11.219 Y-49.682
Z15
G1 Z1 F100
Z-0.683 F30
G18 G3 X-11.536 Z-1 I-0.318 K0
G1 X-11.695
G17 G3 X-12.012 Y-50 I0 J-0.318
X-9.988 Y-50 Z-1.091 I1.012 J0 F100
X-12.012 Y-50 Z-1.182 I-1.012 J0
X-9.988 Y-50 Z-1.272 I1.012 J0
X-12.012 Y-50 Z-1.363 I-1.012 J0
X-9.988 Y-50 Z-1.454 I1.012 J0
X-12.012 Y-50 Z-1.545 I-1.012 J0
X-9.988 Y-50 Z-1.636 I1.012 J0
X-12.012 Y-50 Z-1.726 I-1.012 J0
X-9.988 Y-50 Z-1.817 I1.012 J0
X-12.012 Y-50 Z-1.908 I-1.012 J0
X-9.988 Y-50 Z-1.999 I1.012 J0
X-12.012 Y-50 Z-2.09 I-1.012 J0
X-9.988 Y-50 Z-2.18 I1.012 J0
X-12.012 Y-50 Z-2.271 I-1.012 J0
X-9.988 Y-50 Z-2.362 I1.012 J0
X-12.012 Y-50 Z-2.453 I-1.012 J0
X-9.988 Y-50 Z-2.543 I1.012 J0
X-12.012 Y-50 Z-2.634 I-1.012 J0
X-9.988 Y-50 Z-2.725 I1.012 J0
X-12.012 Y-50 Z-2.816 I-1.012 J0
X-9.988 Y-50 Z-2.907 I1.012 J0
X-12.012 Y-50 Z-2.997 I-1.012 J0
X-9.988 Y-50 Z-3.088 I1.012 J0
X-12.012 Y-50 Z-3.179 I-1.012 J0
X-9.988 Y-50 Z-3.27 I1.012 J0
X-12.012 Y-50 Z-3.361 I-1.012 J0
X-9.988 Y-50 Z-3.451 I1.012 J0
X-12.012 Y-50 Z-3.542 I-1.012 J0
X-9.988 Y-50 Z-3.633 I1.012 J0
X-12.012 Y-50 Z-3.724 I-1.012 J0
X-9.988 Y-50 Z-3.815 I1.012 J0
X-12.012 Y-50 Z-3.905 I-1.012 J0
X-9.988 Y-50 Z-3.996 I1.012 J0
X-12.012 Y-50 Z-4.087 I-1.012 J0
X-9.988 Y-50 Z-4.178 I1.012 J0
X-12.012 Y-50 Z-4.269 I-1.012 J0
X-9.988 Y-50 Z-4.359 I1.012 J0
X-12.012 Y-50 Z-4.45 I-1.012 J0
X-9.988 Y-50 Z-4.541 I1.012 J0
X-12.012 Y-50 Z-4.632 I-1.012 J0
X-9.988 Y-50 Z-4.723 I1.012 J0
X-12.012 Y-50 Z-4.813 I-1.012 J0
X-9.988 Y-50 Z-4.904 I1.012 J0
X-12.012 Y-50 Z-4.995 I-1.012 J0
X-9.988 Y-50 Z-5.086 I1.012 J0
X-12.012 Y-50 Z-5.177 I-1.012 J0
X-9.987 Y-50 Z-5.267 I1.012 J0
X-12.013 Y-50 Z-5.358 I-1.013 J0
X-9.987 Y-50 Z-5.449 I1.013 J0
X-12.013 Y-50 Z-5.54 I-1.013 J0
X-9.987 Y-50 Z-5.63 I1.013 J0
X-12.013 Y-50 Z-5.721 I-1.013 J0
X-9.987 Y-50 Z-5.812 I1.013 J0
X-12.013 Y-50 Z-5.903 I-1.013 J0
X-9.987 Y-50 Z-5.994 I1.013 J0
X-12.013 Y-50 Z-6.084 I-1.013 J0
X-9.987 Y-50 Z-6.175 I1.013 J0
X-12.013 Y-50 Z-6.266 I-1.013 J0
X-9.987 Y-50 Z-6.357 I1.013 J0
X-12.013 Y-50 Z-6.448 I-1.013 J0
X-9.987 Y-50 Z-6.538 I1.013 J0
X-12.013 Y-50 Z-6.629 I-1.013 J0
X-9.987 Y-50 Z-6.72 I1.013 J0
X-12.013 Y-50 Z-6.811 I-1.013 J0
X-9.987 Y-50 Z-6.902 I1.013 J0
X-12.013 Y-50 Z-6.992 I-1.013 J0
X-9.987 Y-50 Z-7.083 I1.013 J0
X-12.013 Y-50 Z-7.174 I-1.013 J0
X-9.987 Y-50 Z-7.265 I1.013 J0
X-12.013 Y-50 Z-7.356 I-1.013 J0
X-9.987 Y-50 Z-7.446 I1.013 J0
X-12.013 Y-50 Z-7.537 I-1.013 J0
X-9.987 Y-50 Z-7.628 I1.013 J0
X-12.013 Y-50 Z-7.719 I-1.013 J0
X-9.987 Y-50 Z-7.81 I1.013 J0
X-12.013 Y-50 Z-7.9 I-1.013 J0
X-9.987 Y-50 Z-7.991 I1.013 J0
X-12.013 Y-50 Z-8.082 I-1.013 J0
X-9.987 Y-50 Z-8.173 I1.013 J0
X-12.013 Y-50 Z-8.264 I-1.013 J0
X-9.987 Y-50 Z-8.354 I1.013 J0
X-12.013 Y-50 Z-8.445 I-1.013 J0
X-9.987 Y-50 Z-8.536 I1.013 J0
X-12.013 Y-50 Z-8.627 I-1.013 J0
X-9.987 Y-50 Z-8.717 I1.013 J0
X-12.013 Y-50 Z-8.808 I-1.013 J0
X-9.987 Y-50 Z-8.899 I1.013 J0
X-12.013 Y-50 Z-8.99 I-1.013 J0
X-11.951 Y-50.348 Z-9 I1.013 J0
X-10.049 Y-49.652 I0.951 J0.348
X-11.951 Y-50.348 I-0.951 J-0.348
X-11.544 Y-50.537 I0.298 J0.109
G1 X-11.395 Y-50.482
X-11.328 Y-50.458 Z-8.992
X-11.265 Y-50.435 Z-8.969
X-11.209 Y-50.414 Z-8.931
X-11.162 Y-50.397 Z-8.88
X-11.126 Y-50.384 Z-8.82
X-11.104 Y-50.376 Z-8.753
X-11.096 Y-50.373 Z-8.682
Z5
X-18.78 Y-54.744
Z1
Z-0.683 F30
G18 G3 X-19.097 Z-1 I-0.317 K0
G1 X-19.256
G17 G3 X-19.513 Y-55 I0 J-0.256
X-18.487 Y-55 Z-1.073 I0.513 J0 F100
X-19.513 Y-55 Z-1.147 I-0.513 J0
X-18.487 Y-55 Z-1.22 I0.513 J0
X-19.513 Y-55 Z-1.293 I-0.513 J0
X-18.487 Y-55 Z-1.367 I0.513 J0
X-19.513 Y-55 Z-1.44 I-0.513 J0
X-18.487 Y-55 Z-1.513 I0.513 J0
X-19.513 Y-55 Z-1.587 I-0.513 J0
X-18.487 Y-55 Z-1.66 I0.513 J0
X-19.513 Y-55 Z-1.733 I-0.513 J0
X-18.487 Y-55 Z-1.807 I0.513 J0
X-19.513 Y-55 Z-1.88 I-0.513 J0
X-18.487 Y-55 Z-1.953 I0.513 J0
X-19.513 Y-55 Z-2.027 I-0.513 J0
X-18.487 Y-55 Z-2.1 I0.513 J0
X-19.513 Y-55 Z-2.173 I-0.513 J0
X-18.487 Y-55 Z-2.247 I0.513 J0
X-19.513 Y-55 Z-2.32 I-0.513 J0
X-18.487 Y-55 Z-2.393 I0.513 J0
X-19.513 Y-55 Z-2.467 I-0.513 J0
X-18.487 Y-55 Z-2.54 I0.513 J0
X-19.513 Y-55 Z-2.613 I-0.513 J0
X-18.487 Y-55 Z-2.687 I0.513 J0
X-19.513 Y-55 Z-2.76 I-0.513 J0
X-18.487 Y-55 Z-2.833 I0.513 J0
X-19.513 Y-55 Z-2.907 I-0.513 J0
X-18.487 Y-55 Z-2.98 I0.513 J0
X-19.513 Y-55 Z-3.053 I-0.513 J0
X-18.487 Y-55 Z-3.127 I0.513 J0
X-19.513 Y-55 Z-3.2 I-0.513 J0
X-18.487 Y-55 Z-3.273 I0.513 J0
X-19.513 Y-55 Z-3.347 I-0.513 J0
X-18.487 Y-55 Z-3.42 I0.513 J0
X-19.513 Y-55 Z-3.493 I-0.513 J0
X-18.487 Y-55 Z-3.567 I0.513 J0
X-19.513 Y-55 Z-3.64 I-0.513 J0
X-18.487 Y-55 Z-3.713 I0.513 J0
X-19.513 Y-55 Z-3.787 I-0.513 J0
X-18.487 Y-55 Z-3.86 I0.513 J0
X-19.513 Y-55 Z-3.933 I-0.513 J0
X-18.487 Y-55 Z-4.007 I0.513 J0
X-19.513 Y-55 Z-4.08 I-0.513 J0
X-18.487 Y-55 Z-4.153 I0.513 J0
X-19.513 Y-55 Z-4.227 I-0.513 J0
X-18.487 Y-55 Z-4.3 I0.513 J0
X-19.513 Y-55 Z-4.373 I-0.513 J0
X-18.487 Y-55 Z-4.447 I0.513 J0
X-19.513 Y-55 Z-4.52 I-0.513 J0
X-18.487 Y-55 Z-4.593 I0.513 J0
X-19.513 Y-55 Z-4.667 I-0.513 J0
X-18.487 Y-55 Z-4.74 I0.513 J0
X-19.513 Y-55 Z-4.813 I-0.513 J0
X-18.487 Y-55 Z-4.887 I0.513 J0
X-19.513 Y-55 Z-4.96 I-0.513 J0
X-18.487 Y-55 Z-5.033 I0.513 J0
X-19.513 Y-55 Z-5.107 I-0.513 J0
X-18.487 Y-55 Z-5.18 I0.513 J0
X-19.513 Y-55 Z-5.253 I-0.513 J0
X-18.487 Y-55 Z-5.327 I0.513 J0
X-19.513 Y-55 Z-5.4 I-0.513 J0
X-18.487 Y-55 Z-5.473 I0.513 J0
X-19.513 Y-55 Z-5.547 I-0.513 J0
X-18.487 Y-55 Z-5.62 I0.513 J0
X-19.512 Y-55 Z-5.693 I-0.513 J0
X-18.488 Y-55 Z-5.767 I0.512 J0
X-19.512 Y-55 Z-5.84 I-0.512 J0
X-18.488 Y-55 Z-5.913 I0.512 J0
X-19.512 Y-55 Z-5.987 I-0.512 J0
X-18.488 Y-55 Z-6.06 I0.512 J0
X-19.512 Y-55 Z-6.133 I-0.512 J0
X-18.488 Y-55 Z-6.207 I0.512 J0
X-19.512 Y-55 Z-6.28 I-0.512 J0
X-18.488 Y-55 Z-6.353 I0.512 J0
X-19.512 Y-55 Z-6.427 I-0.512 J0
X-18.488 Y-55 Z-6.5 I0.512 J0
X-19.512 Y-55 Z-6.573 I-0.512 J0
X-18.488 Y-55 Z-6.647 I0.512 J0
X-19.512 Y-55 Z-6.72 I-0.512 J0
X-18.488 Y-55 Z-6.793 I0.512 J0
X-19.512 Y-55 Z-6.867 I-0.512 J0
X-18.488 Y-55 Z-6.94 I0.512 J0
X-19.512 Y-55 Z-7.013 I-0.512 J0
X-18.488 Y-55 Z-7.087 I0.512 J0
X-19.512 Y-55 Z-7.16 I-0.512 J0
X-18.488 Y-55 Z-7.233 I0.512 J0
X-19.512 Y-55 Z-7.307 I-0.512 J0
X-18.488 Y-55 Z-7.38 I0.512 J0
X-19.512 Y-55 Z-7.453 I-0.512 J0
X-18.488 Y-55 Z-7.527 I0.512 J0
X-19.512 Y-55 Z-7.6 I-0.512 J0
X-18.488 Y-55 Z-7.673 I0.512 J0
X-19.512 Y-55 Z-7.747 I-0.512 J0
X-18.488 Y-55 Z-7.82 I0.512 J0
X-19.512 Y-55 Z-7.893 I-0.512 J0
X-18.488 Y-55 Z-7.967 I0.512 J0
X-19.512 Y-55 Z-8.04 I-0.512 J0
X-18.488 Y-55 Z-8.113 I0.512 J0
X-19.512 Y-55 Z-8.187 I-0.512 J0
X-18.488 Y-55 Z-8.26 I0.512 J0
X-19.512 Y-55 Z-8.333 I-0.512 J0
X-18.488 Y-55 Z-8.407 I0.512 J0
X-19.512 Y-55 Z-8.48 I-0.512 J0
X-18.488 Y-55 Z-8.553 I0.512 J0
X-19.512 Y-55 Z-8.627 I-0.512 J0
X-18.488 Y-55 Z-8.7 I0.512 J0
X-19.512 Y-55 Z-8.773 I-0.512 J0
X-18.488 Y-55 Z-8.847 I0.512 J0
X-19.512 Y-55 Z-8.92 I-0.512 J0
X-18.927 Y-55.507 Z-8.96 I0.512 J0
X-18.508 Y-54.856 Z-9 I-0.073 J0.507
X-19.492 Y-55.144 I-0.492 J-0.144
X-18.508 Y-54.856 I0.492 J0.144
X-18.826 Y-54.682 I-0.246 J-0.072
G1 X-18.978 Y-54.727
X-19.046 Y-54.747 Z-8.992
X-19.111 Y-54.765 Z-8.969
X-19.168 Y-54.782 Z-8.931
X-19.217 Y-54.796 Z-8.88
X-19.253 Y-54.807 Z-8.82
X-19.275 Y-54.814 Z-8.753
X-19.283 Y-54.816 Z-8.682
Z5
X-53.22 Y-55.256
Z1
Z-0.683 F30
G18 G2 X-52.903 Z-1 I0.318 K0
G1 X-52.744
G17 G3 X-52.487 Y-55 I0 J0.256
X-53.513 Y-55 Z-1.073 I-0.513 J0 F100
X-52.487 Y-55 Z-1.147 I0.513 J0
X-53.513 Y-55 Z-1.22 I-0.513 J0
X-52.487 Y-55 Z-1.293 I0.513 J0
X-53.513 Y-55 Z-1.367 I-0.513 J0
X-52.487 Y-55 Z-1.44 I0.513 J0
X-53.513 Y-55 Z-1.513 I-0.513 J0
X-52.487 Y-55 Z-1.587 I0.513 J0
X-53.513 Y-55 Z-1.66 I-0.513 J0
X-52.487 Y-55 Z-1.733 I0.513 J0
X-53.513 Y-55 Z-1.807 I-0.513 J0
X-52.487 Y-55 Z-1.88 I0.513 J0
X-53.513 Y-55 Z-1.953 I-0.513 J0
X-52.487 Y-55 Z-2.027 I0.513 J0
X-53.513 Y-55 Z-2.1 I-0.513 J0
X-52.487 Y-55 Z-2.173 I0.513 J0
X-53.513 Y-55 Z-2.247 I-0.513 J0
X-52.487 Y-55 Z-2.32 I0.513 J0
X-53.513 Y-55 Z-2.393 I-0.513 J0
X-52.487 Y-55 Z-2.467 I0.513 J0
X-53.513 Y-55 Z-2.54 I-0.513 J0
X-52.487 Y-55 Z-2.613 I0.513 J0
X-53.513 Y-55 Z-2.687 I-0.513 J0
X-52.487 Y-55 Z-2.76 I0.513 J0
X-53.513 Y-55 Z-2.833 I-0.513 J0
X-52.487 Y-55 Z-2.907 I0.513 J0
X-53.513 Y-55 Z-2.98 I-0.513 J0
X-52.487 Y-55 Z-3.053 I0.513 J0
X-53.513 Y-55 Z-3.127 I-0.513 J0
X-52.487 Y-55 Z-3.2 I0.513 J0
X-53.513 Y-55 Z-3.273 I-0.513 J0
X-52.487 Y-55 Z-3.347 I0.513 J0
X-53.513 Y-55 Z-3.42 I-0.513 J0
X-52.487 Y-55 Z-3.493 I0.513 J0
X-53.513 Y-55 Z-3.567 I-0.513 J0
X-52.487 Y-55 Z-3.64 I0.513 J0
X-53.513 Y-55 Z-3.713 I-0.513 J0
X-52.487 Y-55 Z-3.787 I0.513 J0
X-53.513 Y-55 Z-3.86 I-0.513 J0
X-52.487 Y-55 Z-3.933 I0.513 J0
X-53.513 Y-55 Z-4.007 I-0.513 J0
X-52.487 Y-55 Z-4.08 I0.513 J0
X-53.513 Y-55 Z-4.153 I-0.513 J0
X-52.487 Y-55 Z-4.227 I0.513 J0
X-53.513 Y-55 Z-4.3 I-0.513 J0
X-52.487 Y-55 Z-4.373 I0.513 J0
X-53.513 Y-55 Z-4.447 I-0.513 J0
X-52.487 Y-55 Z-4.52 I0.513 J0
X-53.513 Y-55 Z-4.593 I-0.513 J0
X-52.487 Y-55 Z-4.667 I0.513 J0
X-53.513 Y-55 Z-4.74 I-0.513 J0
X-52.487 Y-55 Z-4.813 I0.513 J0
X-53.513 Y-55 Z-4.887 I-0.513 J0
X-52.487 Y-55 Z-4.96 I0.513 J0
X-53.513 Y-55 Z-5.033 I-0.513 J0
X-52.487 Y-55 Z-5.107 I0.513 J0
X-53.513 Y-55 Z-5.18 I-0.513 J0
X-52.487 Y-55 Z-5.253 I0.513 J0
X-53.513 Y-55 Z-5.327 I-0.513 J0
X-52.487 Y-55 Z-5.4 I0.513 J0
X-53.513 Y-55 Z-5.473 I-0.513 J0
X-52.487 Y-55 Z-5.547 I0.513 J0
X-53.513 Y-55 Z-5.62 I-0.513 J0
X-52.487 Y-55 Z-5.693 I0.513 J0
X-53.513 Y-55 Z-5.767 I-0.513 J0
X-52.487 Y-55 Z-5.84 I0.513 J0
X-53.513 Y-55 Z-5.913 I-0.513 J0
X-52.487 Y-55 Z-5.987 I0.513 J0
X-53.513 Y-55 Z-6.06 I-0.513 J0
X-52.487 Y-55 Z-6.133 I0.513 J0
X-53.513 Y-55 Z-6.207 I-0.513 J0
X-52.487 Y-55 Z-6.28 I0.513 J0
X-53.513 Y-55 Z-6.353 I-0.513 J0
X-52.487 Y-55 Z-6.427 I0.513 J0
X-53.513 Y-55 Z-6.5 I-0.513 J0
X-52.487 Y-55 Z-6.573 I0.513 J0
X-53.513 Y-55 Z-6.647 I-0.513 J0
X-52.487 Y-55 Z-6.72 I0.513 J0
X-53.513 Y-55 Z-6.793 I-0.513 J0
X-52.487 Y-55 Z-6.867 I0.513 J0
X-53.513 Y-55 Z-6.94 I-0.513 J0
X-52.487 Y-55 Z-7.013 I0.513 J0
X-53.513 Y-55 Z-7.087 I-0.513 J0
X-52.487 Y-55 Z-7.16 I0.513 J0
X-53.513 Y-55 Z-7.233 I-0.513 J0
X-52.487 Y-55 Z-7.307 I0.513 J0
X-53.513 Y-55 Z-7.38 I-0.513 J0
X-52.487 Y-55 Z-7.453 I0.513 J0
X-53.513 Y-55 Z-7.527 I-0.513 J0
X-52.487 Y-55 Z-7.6 I0.513 J0
X-53.513 Y-55 Z-7.673 I-0.513 J0
X-52.487 Y-55 Z-7.747 I0.513 J0
X-53.513 Y-55 Z-7.82 I-0.513 J0
X-52.487 Y-55 Z-7.893 I0.513 J0
X-53.513 Y-55 Z-7.967 I-0.513 J0
X-52.487 Y-55 Z-8.04 I0.513 J0
X-53.513 Y-55 Z-8.113 I-0.513 J0
X-52.487 Y-55 Z-8.187 I0.513 J0
X-53.513 Y-55 Z-8.26 I-0.513 J0
X-52.487 Y-55 Z-8.333 I0.513 J0
X-53.513 Y-55 Z-8.407 I-0.513 J0
X-52.487 Y-55 Z-8.48 I0.513 J0
X-53.513 Y-55 Z-8.553 I-0.513 J0
X-52.487 Y-55 Z-8.627 I0.513 J0
X-53.513 Y-55 Z-8.7 I-0.513 J0
X-52.487 Y-55 Z-8.773 I0.513 J0
X-53.513 Y-55 Z-8.847 I-0.513 J0
X-52.487 Y-55 Z-8.92 I0.513 J0
X-53.073 Y-54.493 Z-8.96 I-0.513 J0
X-53.492 Y-55.144 Z-9 I0.073 J-0.507
X-52.508 Y-54.856 I0.492 J0.144
X-53.492 Y-55.144 I-0.492 J-0.144
X-53.174 Y-55.318 I0.246 J0.072
G1 X-53.022 Y-55.273
X-52.954 Y-55.253 Z-8.992
X-52.889 Y-55.235 Z-8.969
X-52.832 Y-55.218 Z-8.931
X-52.783 Y-55.204 Z-8.88
X-52.747 Y-55.193 Z-8.82
X-52.725 Y-55.186 Z-8.753
X-52.717 Y-55.184 Z-8.682
Z5
X-61.219 Y-49.682
Z1
Z-0.683 F30
G18 G3 X-61.536 Z-1 I-0.318 K0
G1 X-61.695
G17 G3 X-62.013 Y-50 I0 J-0.318
X-59.987 Y-50 Z-1.091 I1.013 J0 F100
X-62.013 Y-50 Z-1.182 I-1.013 J0
X-59.987 Y-50 Z-1.272 I1.013 J0
X-62.013 Y-50 Z-1.363 I-1.013 J0
X-59.987 Y-50 Z-1.454 I1.013 J0
X-62.013 Y-50 Z-1.545 I-1.013 J0
X-59.987 Y-50 Z-1.636 I1.013 J0
X-62.013 Y-50 Z-1.726 I-1.013 J0
X-59.987 Y-50 Z-1.817 I1.013 J0
X-62.013 Y-50 Z-1.908 I-1.013 J0
X-59.987 Y-50 Z-1.999 I1.013 J0
X-62.013 Y-50 Z-2.09 I-1.013 J0
X-59.987 Y-50 Z-2.18 I1.013 J0
X-62.013 Y-50 Z-2.271 I-1.013 J0
X-59.987 Y-50 Z-2.362 I1.013 J0
X-62.013 Y-50 Z-2.453 I-1.013 J0
X-59.987 Y-50 Z-2.543 I1.013 J0
X-62.013 Y-50 Z-2.634 I-1.013 J0
X-59.987 Y-50 Z-2.725 I1.013 J0
X-62.013 Y-50 Z-2.816 I-1.013 J0
X-59.987 Y-50 Z-2.907 I1.013 J0
X-62.013 Y-50 Z-2.997 I-1.013 J0
X-59.987 Y-50 Z-3.088 I1.013 J0
X-62.013 Y-50 Z-3.179 I-1.013 J0
X-59.987 Y-50 Z-3.27 I1.013 J0
X-62.013 Y-50 Z-3.361 I-1.013 J0
X-59.987 Y-50 Z-3.451 I1.013 J0
X-62.013 Y-50 Z-3.542 I-1.013 J0
X-59.987 Y-50 Z-3.633 I1.013 J0
X-62.013 Y-50 Z-3.724 I-1.013 J0
X-59.987 Y-50 Z-3.815 I1.013 J0
X-62.013 Y-50 Z-3.905 I-1.013 J0
X-59.987 Y-50 Z-3.996 I1.013 J0
X-62.013 Y-50 Z-4.087 I-1.013 J0
X-59.987 Y-50 Z-4.178 I1.013 J0
X-62.013 Y-50 Z-4.269 I-1.013 J0
X-59.987 Y-50 Z-4.359 I1.013 J0
X-62.013 Y-50 Z-4.45 I-1.013 J0
X-59.987 Y-50 Z-4.541 I1.013 J0
X-62.013 Y-50 Z-4.632 I-1.013 J0
X-59.987 Y-50 Z-4.723 I1.013 J0
X-62.013 Y-50 Z-4.813 I-1.013 J0
X-59.987 Y-50 Z-4.904 I1.013 J0
X-62.013 Y-50 Z-4.995 I-1.013 J0
X-59.987 Y-50 Z-5.086 I1.013 J0
X-62.013 Y-50 Z-5.177 I-1.013 J0
X-59.987 Y-50 Z-5.267 I1.013 J0
X-62.013 Y-50 Z-5.358 I-1.013 J0
X-59.987 Y-50 Z-5.449 I1.013 J0
X-62.013 Y-50 Z-5.54 I-1.013 J0
X-59.987 Y-50 Z-5.63 I1.013 J0
X-62.013 Y-50 Z-5.721 I-1.013 J0
X-59.987 Y-50 Z-5.812 I1.013 J0
X-62.013 Y-50 Z-5.903 I-1.013 J0
X-59.987 Y-50 Z-5.994 I1.013 J0
X-62.013 Y-50 Z-6.084 I-1.013 J0
X-59.987 Y-50 Z-6.175 I1.013 J0
X-62.013 Y-50 Z-6.266 I-1.013 J0
X-59.987 Y-50 Z-6.357 I1.013 J0
X-62.013 Y-50 Z-6.448 I-1.013 J0
X-59.987 Y-50 Z-6.538 I1.013 J0
X-62.013 Y-50 Z-6.629 I-1.013 J0
X-59.987 Y-50 Z-6.72 I1.013 J0
X-62.013 Y-50 Z-6.811 I-1.013 J0
X-59.987 Y-50 Z-6.902 I1.013 J0
X-62.013 Y-50 Z-6.992 I-1.013 J0
X-59.987 Y-50 Z-7.083 I1.013 J0
X-62.013 Y-50 Z-7.174 I-1.013 J0
X-59.987 Y-50 Z-7.265 I1.013 J0
X-62.013 Y-50 Z-7.356 I-1.013 J0
X-59.987 Y-50 Z-7.446 I1.013 J0
X-62.013 Y-50 Z-7.537 I-1.013 J0
X-59.987 Y-50 Z-7.628 I1.013 J0
X-62.013 Y-50 Z-7.719 I-1.013 J0
X-59.987 Y-50 Z-7.81 I1.013 J0
X-62.013 Y-50 Z-7.9 I-1.013 J0
X-59.987 Y-50 Z-7.991 I1.013 J0
X-62.013 Y-50 Z-8.082 I-1.013 J0
X-59.987 Y-50 Z-8.173 I1.013 J0
X-62.013 Y-50 Z-8.264 I-1.013 J0
X-59.987 Y-50 Z-8.354 I1.013 J0
X-62.013 Y-50 Z-8.445 I-1.013 J0
X-59.987 Y-50 Z-8.536 I1.013 J0
X-62.013 Y-50 Z-8.627 I-1.013 J0
X-59.987 Y-50 Z-8.717 I1.013 J0
X-62.013 Y-50 Z-8.808 I-1.013 J0
X-59.987 Y-50 Z-8.899 I1.013 J0
X-62.013 Y-50 Z-8.99 I-1.013 J0
X-61.951 Y-50.348 Z-9 I1.013 J0
X-60.049 Y-49.652 I0.951 J0.348
X-61.951 Y-50.348 I-0.951 J-0.348
X-61.544 Y-50.537 I0.298 J0.109
G1 X-61.395 Y-50.482
X-61.328 Y-50.458 Z-8.992
X-61.265 Y-50.435 Z-8.969
X-61.209 Y-50.414 Z-8.931
X-61.162 Y-50.397 Z-8.88
X-61.126 Y-50.384 Z-8.82
X-61.104 Y-50.376 Z-8.753
X-61.096 Y-50.373 Z-8.682
Z5
X-61.219 Y0.317
Z1
Z-0.683 F30
G18 G3 X-61.536 Z-1 I-0.318 K0
G1 X-61.695
G17 G3 X-62.013 Y0 I0 J-0.317
X-59.987 Y0 Z-1.091 I1.013 J0 F100
X-62.013 Y0 Z-1.182 I-1.013 J0
X-59.987 Y0 Z-1.272 I1.013 J0
X-62.013 Y0 Z-1.363 I-1.013 J0
X-59.987 Y0 Z-1.454 I1.013 J0
X-62.013 Y0 Z-1.545 I-1.013 J0
X-59.987 Y0 Z-1.636 I1.013 J0
X-62.013 Y0 Z-1.726 I-1.013 J0
X-59.987 Y0 Z-1.817 I1.013 J0
X-62.013 Y0 Z-1.908 I-1.013 J0
X-59.987 Y0 Z-1.999 I1.013 J0
X-62.013 Y0 Z-2.09 I-1.013 J0
X-59.987 Y0 Z-2.18 I1.013 J0
X-62.013 Y0 Z-2.271 I-1.013 J0
X-59.987 Y0 Z-2.362 I1.013 J0
X-62.013 Y0 Z-2.453 I-1.013 J0
X-59.987 Y0 Z-2.543 I1.013 J0
X-62.013 Y0 Z-2.634 I-1.013 J0
X-59.987 Y0 Z-2.725 I1.013 J0
X-62.013 Y0 Z-2.816 I-1.013 J0
X-59.987 Y0 Z-2.907 I1.013 J0
X-62.013 Y0 Z-2.997 I-1.013 J0
X-59.987 Y0 Z-3.088 I1.013 J0
X-62.013 Y0 Z-3.179 I-1.013 J0
X-59.987 Y0 Z-3.27 I1.013 J0
X-62.013 Y0 Z-3.361 I-1.013 J0
X-59.987 Y0 Z-3.451 I1.013 J0
X-62.013 Y0 Z-3.542 I-1.013 J0
X-59.987 Y0 Z-3.633 I1.013 J0
X-62.013 Y0 Z-3.724 I-1.013 J0
X-59.987 Y0 Z-3.815 I1.013 J0
X-62.013 Y0 Z-3.905 I-1.013 J0
X-59.987 Y0 Z-3.996 I1.013 J0
X-62.013 Y0 Z-4.087 I-1.013 J0
X-59.987 Y0 Z-4.178 I1.013 J0
X-62.013 Y0 Z-4.269 I-1.013 J0
X-59.987 Y0 Z-4.359 I1.013 J0
X-62.013 Y0 Z-4.45 I-1.013 J0
X-59.987 Y0 Z-4.541 I1.013 J0
X-62.013 Y0 Z-4.632 I-1.013 J0
X-59.987 Y0 Z-4.723 I1.013 J0
X-62.013 Y0 Z-4.813 I-1.013 J0
X-59.987 Y0 Z-4.904 I1.013 J0
X-62.013 Y0 Z-4.995 I-1.013 J0
X-59.987 Y0 Z-5.086 I1.013 J0
X-62.013 Y0 Z-5.177 I-1.013 J0
X-59.987 Y0 Z-5.267 I1.013 J0
X-62.013 Y0 Z-5.358 I-1.013 J0
X-59.987 Y0 Z-5.449 I1.013 J0
X-62.013 Y0 Z-5.54 I-1.013 J0
X-59.987 Y0 Z-5.63 I1.013 J0
X-62.013 Y0 Z-5.721 I-1.013 J0
X-59.987 Y0 Z-5.812 I1.013 J0
X-62.013 Y0 Z-5.903 I-1.013 J0
X-59.987 Y0 Z-5.994 I1.013 J0
X-62.013 Y0 Z-6.084 I-1.013 J0
X-59.987 Y0 Z-6.175 I1.013 J0
X-62.013 Y0 Z-6.266 I-1.013 J0
X-59.987 Y0 Z-6.357 I1.013 J0
X-62.013 Y0 Z-6.448 I-1.013 J0
X-59.987 Y0 Z-6.538 I1.013 J0
X-62.013 Y0 Z-6.629 I-1.013 J0
X-59.987 Y0 Z-6.72 I1.013 J0
X-62.013 Y0 Z-6.811 I-1.013 J0
X-59.987 Y0 Z-6.902 I1.013 J0
X-62.013 Y0 Z-6.992 I-1.013 J0
X-59.987 Y0 Z-7.083 I1.013 J0
X-62.013 Y0 Z-7.174 I-1.013 J0
X-59.987 Y0 Z-7.265 I1.013 J0
X-62.013 Y0 Z-7.356 I-1.013 J0
X-59.987 Y0 Z-7.446 I1.013 J0
X-62.013 Y0 Z-7.537 I-1.013 J0
X-59.987 Y0 Z-7.628 I1.013 J0
X-62.013 Y0 Z-7.719 I-1.013 J0
X-59.987 Y0 Z-7.81 I1.013 J0
X-62.013 Y0 Z-7.9 I-1.013 J0
X-59.987 Y0 Z-7.991 I1.013 J0
X-62.013 Y0 Z-8.082 I-1.013 J0
X-59.987 Y0 Z-8.173 I1.013 J0
X-62.013 Y0 Z-8.264 I-1.013 J0
X-59.987 Y0 Z-8.354 I1.013 J0
X-62.013 Y0 Z-8.445 I-1.013 J0
X-59.987 Y0 Z-8.536 I1.013 J0
X-62.013 Y0 Z-8.627 I-1.013 J0
X-59.987 Y0 Z-8.717 I1.013 J0
X-62.013 Y0 Z-8.808 I-1.013 J0
X-59.987 Y0 Z-8.899 I1.013 J0
X-62.013 Y0 Z-8.99 I-1.013 J0
X-61.951 Y-0.348 Z-9 I1.013 J0
X-60.049 Y0.348 I0.951 J0.348
X-61.951 Y-0.348 I-0.951 J-0.348
X-61.544 Y-0.537 I0.298 J0.109
G1 X-61.395 Y-0.482
X-61.328 Y-0.458 Z-8.992
X-61.265 Y-0.435 Z-8.969
X-61.209 Y-0.414 Z-8.931
X-61.162 Y-0.397 Z-8.88
X-61.126 Y-0.384 Z-8.82
X-61.104 Y-0.376 Z-8.753
X-61.096 Y-0.373 Z-8.682
Z5
X-20.219 Y0.317
Z1
Z-0.683 F30
G18 G3 X-20.536 Z-1 I-0.317 K0
G1 X-20.695
G17 G3 X-21.013 Y0 I0 J-0.317
X-18.987 Y0 Z-1.091 I1.013 J0 F100
X-21.013 Y0 Z-1.182 I-1.013 J0
X-18.987 Y0 Z-1.272 I1.013 J0
X-21.013 Y0 Z-1.363 I-1.013 J0
X-18.987 Y0 Z-1.454 I1.013 J0
X-21.013 Y0 Z-1.545 I-1.013 J0
X-18.987 Y0 Z-1.636 I1.013 J0
X-21.013 Y0 Z-1.726 I-1.013 J0
X-18.987 Y0 Z-1.817 I1.013 J0
X-21.013 Y0 Z-1.908 I-1.013 J0
X-18.987 Y0 Z-1.999 I1.013 J0
X-21.013 Y0 Z-2.09 I-1.013 J0
X-18.987 Y0 Z-2.18 I1.013 J0
X-21.013 Y0 Z-2.271 I-1.013 J0
X-18.987 Y0 Z-2.362 I1.013 J0
X-21.013 Y0 Z-2.453 I-1.013 J0
X-18.987 Y0 Z-2.543 I1.013 J0
X-21.013 Y0 Z-2.634 I-1.013 J0
X-18.987 Y0 Z-2.725 I1.013 J0
X-21.013 Y0 Z-2.816 I-1.013 J0
X-18.987 Y0 Z-2.907 I1.013 J0
X-21.013 Y0 Z-2.997 I-1.013 J0
X-18.987 Y0 Z-3.088 I1.013 J0
X-21.013 Y0 Z-3.179 I-1.013 J0
X-18.987 Y0 Z-3.27 I1.013 J0
X-21.013 Y0 Z-3.361 I-1.013 J0
X-18.987 Y0 Z-3.451 I1.013 J0
X-21.013 Y0 Z-3.542 I-1.013 J0
X-18.987 Y0 Z-3.633 I1.013 J0
X-21.013 Y0 Z-3.724 I-1.013 J0
X-18.987 Y0 Z-3.815 I1.013 J0
X-21.013 Y0 Z-3.905 I-1.013 J0
X-18.987 Y0 Z-3.996 I1.013 J0
X-21.013 Y0 Z-4.087 I-1.013 J0
X-18.987 Y0 Z-4.178 I1.013 J0
X-21.013 Y0 Z-4.269 I-1.013 J0
X-18.987 Y0 Z-4.359 I1.013 J0
X-21.013 Y0 Z-4.45 I-1.013 J0
X-18.987 Y0 Z-4.541 I1.013 J0
X-21.013 Y0 Z-4.632 I-1.013 J0
X-18.987 Y0 Z-4.723 I1.013 J0
X-21.013 Y0 Z-4.813 I-1.013 J0
X-18.987 Y0 Z-4.904 I1.013 J0
X-21.013 Y0 Z-4.995 I-1.013 J0
X-18.987 Y0 Z-5.086 I1.013 J0
X-21.013 Y0 Z-5.177 I-1.013 J0
X-18.987 Y0 Z-5.267 I1.013 J0
X-21.013 Y0 Z-5.358 I-1.013 J0
X-18.987 Y0 Z-5.449 I1.013 J0
X-21.013 Y0 Z-5.54 I-1.013 J0
X-18.987 Y0 Z-5.63 I1.013 J0
X-21.013 Y0 Z-5.721 I-1.013 J0
X-18.987 Y0 Z-5.812 I1.013 J0
X-21.013 Y0 Z-5.903 I-1.013 J0
X-18.987 Y0 Z-5.994 I1.013 J0
X-21.013 Y0 Z-6.084 I-1.013 J0
X-18.987 Y0 Z-6.175 I1.013 J0
X-21.013 Y0 Z-6.266 I-1.013 J0
X-18.987 Y0 Z-6.357 I1.013 J0
X-21.013 Y0 Z-6.448 I-1.013 J0
X-18.987 Y0 Z-6.538 I1.013 J0
X-21.013 Y0 Z-6.629 I-1.013 J0
X-18.987 Y0 Z-6.72 I1.013 J0
X-21.013 Y0 Z-6.811 I-1.013 J0
X-18.987 Y0 Z-6.902 I1.013 J0
X-21.013 Y0 Z-6.992 I-1.013 J0
X-18.987 Y0 Z-7.083 I1.013 J0
X-21.013 Y0 Z-7.174 I-1.013 J0
X-18.987 Y0 Z-7.265 I1.013 J0
X-21.013 Y0 Z-7.356 I-1.013 J0
X-18.987 Y0 Z-7.446 I1.013 J0
X-21.013 Y0 Z-7.537 I-1.013 J0
X-18.987 Y0 Z-7.628 I1.013 J0
X-21.013 Y0 Z-7.719 I-1.013 J0
X-18.987 Y0 Z-7.81 I1.013 J0
X-21.013 Y0 Z-7.9 I-1.013 J0
X-18.987 Y0 Z-7.991 I1.013 J0
X-21.013 Y0 Z-8.082 I-1.013 J0
X-18.987 Y0 Z-8.173 I1.013 J0
X-21.013 Y0 Z-8.264 I-1.013 J0
X-18.987 Y0 Z-8.354 I1.013 J0
X-21.013 Y0 Z-8.445 I-1.013 J0
X-18.987 Y0 Z-8.536 I1.013 J0
X-21.013 Y0 Z-8.627 I-1.013 J0
X-18.987 Y0 Z-8.717 I1.013 J0
X-21.013 Y0 Z-8.808 I-1.013 J0
X-18.987 Y0 Z-8.899 I1.013 J0
X-21.013 Y0 Z-8.99 I-1.013 J0
X-20.951 Y-0.348 Z-9 I1.013 J0
X-19.049 Y0.348 I0.951 J0.348
X-20.951 Y-0.348 I-0.951 J-0.348
X-20.544 Y-0.537 I0.298 J0.109
G1 X-20.395 Y-0.482
X-20.328 Y-0.458 Z-8.992
X-20.265 Y-0.435 Z-8.969
X-20.209 Y-0.414 Z-8.931
X-20.162 Y-0.397 Z-8.88
X-20.126 Y-0.384 Z-8.82
X-20.104 Y-0.376 Z-8.753
X-20.096 Y-0.373 Z-8.682
Z5
X-11.219 Y0.317
Z1
Z-0.683 F30
G18 G3 X-11.536 Z-1 I-0.318 K0
G1 X-11.695
G17 G3 X-12.012 Y0 I0 J-0.317
X-9.988 Y0 Z-1.091 I1.012 J0 F100
X-12.012 Y0 Z-1.182 I-1.012 J0
X-9.988 Y0 Z-1.272 I1.012 J0
X-12.012 Y0 Z-1.363 I-1.012 J0
X-9.988 Y0 Z-1.454 I1.012 J0
X-12.012 Y0 Z-1.545 I-1.012 J0
X-9.988 Y0 Z-1.636 I1.012 J0
X-12.012 Y0 Z-1.726 I-1.012 J0
X-9.988 Y0 Z-1.817 I1.012 J0
X-12.012 Y0 Z-1.908 I-1.012 J0
X-9.988 Y0 Z-1.999 I1.012 J0
X-12.012 Y0 Z-2.09 I-1.012 J0
X-9.988 Y0 Z-2.18 I1.012 J0
X-12.012 Y0 Z-2.271 I-1.012 J0
X-9.988 Y0 Z-2.362 I1.012 J0
X-12.012 Y0 Z-2.453 I-1.012 J0
X-9.988 Y0 Z-2.543 I1.012 J0
X-12.012 Y0 Z-2.634 I-1.012 J0
X-9.988 Y0 Z-2.725 I1.012 J0
X-12.012 Y0 Z-2.816 I-1.012 J0
X-9.988 Y0 Z-2.907 I1.012 J0
X-12.012 Y0 Z-2.997 I-1.012 J0
X-9.988 Y0 Z-3.088 I1.012 J0
X-12.012 Y0 Z-3.179 I-1.012 J0
X-9.988 Y0 Z-3.27 I1.012 J0
X-12.012 Y0 Z-3.361 I-1.012 J0
X-9.988 Y0 Z-3.451 I1.012 J0
X-12.012 Y0 Z-3.542 I-1.012 J0
X-9.988 Y0 Z-3.633 I1.012 J0
X-12.012 Y0 Z-3.724 I-1.012 J0
X-9.988 Y0 Z-3.815 I1.012 J0
X-12.012 Y0 Z-3.905 I-1.012 J0
X-9.988 Y0 Z-3.996 I1.012 J0
X-12.012 Y0 Z-4.087 I-1.012 J0
X-9.988 Y0 Z-4.178 I1.012 J0
X-12.012 Y0 Z-4.269 I-1.012 J0
X-9.988 Y0 Z-4.359 I1.012 J0
X-12.012 Y0 Z-4.45 I-1.012 J0
X-9.988 Y0 Z-4.541 I1.012 J0
X-12.012 Y0 Z-4.632 I-1.012 J0
X-9.988 Y0 Z-4.723 I1.012 J0
X-12.012 Y0 Z-4.813 I-1.012 J0
X-9.988 Y0 Z-4.904 I1.012 J0
X-12.012 Y0 Z-4.995 I-1.012 J0
X-9.988 Y0 Z-5.086 I1.012 J0
X-12.012 Y0 Z-5.177 I-1.012 J0
X-9.988 Y0 Z-5.267 I1.012 J0
X-12.012 Y0 Z-5.358 I-1.012 J0
X-9.988 Y0 Z-5.449 I1.012 J0
X-12.012 Y0 Z-5.54 I-1.012 J0
X-9.988 Y0 Z-5.63 I1.012 J0
X-12.012 Y0 Z-5.721 I-1.012 J0
X-9.988 Y0 Z-5.812 I1.012 J0
X-12.012 Y0 Z-5.903 I-1.012 J0
X-9.988 Y0 Z-5.994 I1.012 J0
X-12.012 Y0 Z-6.084 I-1.012 J0
X-9.988 Y0 Z-6.175 I1.012 J0
X-12.012 Y0 Z-6.266 I-1.012 J0
X-9.987 Y0 Z-6.357 I1.012 J0
X-12.013 Y0 Z-6.448 I-1.013 J0
X-9.987 Y0 Z-6.538 I1.013 J0
X-12.013 Y0 Z-6.629 I-1.013 J0
X-9.987 Y0 Z-6.72 I1.013 J0
X-12.013 Y0 Z-6.811 I-1.013 J0
X-9.987 Y0 Z-6.902 I1.013 J0
X-12.013 Y0 Z-6.992 I-1.013 J0
X-9.987 Y0 Z-7.083 I1.013 J0
X-12.013 Y0 Z-7.174 I-1.013 J0
X-9.987 Y0 Z-7.265 I1.013 J0
X-12.013 Y0 Z-7.356 I-1.013 J0
X-9.987 Y0 Z-7.446 I1.013 J0
X-12.013 Y0 Z-7.537 I-1.013 J0
X-9.987 Y0 Z-7.628 I1.013 J0
X-12.013 Y0 Z-7.719 I-1.013 J0
X-9.987 Y0 Z-7.81 I1.013 J0
X-12.013 Y0 Z-7.9 I-1.013 J0
X-9.987 Y0 Z-7.991 I1.013 J0
X-12.013 Y0 Z-8.082 I-1.013 J0
X-9.987 Y0 Z-8.173 I1.013 J0
X-12.013 Y0 Z-8.264 I-1.013 J0
X-9.987 Y0 Z-8.354 I1.013 J0
X-12.013 Y0 Z-8.445 I-1.013 J0
X-9.987 Y0 Z-8.536 I1.013 J0
X-12.013 Y0 Z-8.627 I-1.013 J0
X-9.987 Y0 Z-8.717 I1.013 J0
X-12.013 Y0 Z-8.808 I-1.013 J0
X-9.987 Y0 Z-8.899 I1.013 J0
X-12.013 Y0 Z-8.99 I-1.013 J0
X-11.951 Y-0.348 Z-9 I1.013 J0
X-10.049 Y0.348 I0.951 J0.348
X-11.951 Y-0.348 I-0.951 J-0.348
X-11.544 Y-0.537 I0.298 J0.109
G1 X-11.395 Y-0.482
X-11.328 Y-0.458 Z-8.992
X-11.265 Y-0.435 Z-8.969
X-11.209 Y-0.414 Z-8.931
X-11.162 Y-0.397 Z-8.88
X-11.126 Y-0.384 Z-8.82
X-11.104 Y-0.376 Z-8.753
X-11.096 Y-0.373 Z-8.682
Z5
X-11.219 Y50.318
Z1
Z-0.683 F30
G18 G3 X-11.536 Z-1 I-0.318 K0
G1 X-11.695
G17 G3 X-12.012 Y50 I0 J-0.318
X-9.988 Y50 Z-1.091 I1.012 J0 F100
X-12.012 Y50 Z-1.182 I-1.012 J0
X-9.988 Y50 Z-1.272 I1.012 J0
X-12.012 Y50 Z-1.363 I-1.012 J0
X-9.988 Y50 Z-1.454 I1.012 J0
X-12.012 Y50 Z-1.545 I-1.012 J0
X-9.988 Y50 Z-1.636 I1.012 J0
X-12.012 Y50 Z-1.726 I-1.012 J0
X-9.988 Y50 Z-1.817 I1.012 J0
X-12.012 Y50 Z-1.908 I-1.012 J0
X-9.988 Y50 Z-1.999 I1.012 J0
X-12.012 Y50 Z-2.09 I-1.012 J0
X-9.988 Y50 Z-2.18 I1.012 J0
X-12.012 Y50 Z-2.271 I-1.012 J0
X-9.988 Y50 Z-2.362 I1.012 J0
X-12.012 Y50 Z-2.453 I-1.012 J0
X-9.988 Y50 Z-2.543 I1.012 J0
X-12.012 Y50 Z-2.634 I-1.012 J0
X-9.988 Y50 Z-2.725 I1.012 J0
X-12.012 Y50 Z-2.816 I-1.012 J0
X-9.988 Y50 Z-2.907 I1.012 J0
X-12.012 Y50 Z-2.997 I-1.012 J0
X-9.988 Y50 Z-3.088 I1.012 J0
X-12.012 Y50 Z-3.179 I-1.012 J0
X-9.988 Y50 Z-3.27 I1.012 J0
X-12.012 Y50 Z-3.361 I-1.012 J0
X-9.988 Y50 Z-3.451 I1.012 J0
X-12.012 Y50 Z-3.542 I-1.012 J0
X-9.988 Y50 Z-3.633 I1.012 J0
X-12.012 Y50 Z-3.724 I-1.012 J0
X-9.988 Y50 Z-3.815 I1.012 J0
X-12.012 Y50 Z-3.905 I-1.012 J0
X-9.988 Y50 Z-3.996 I1.012 J0
X-12.012 Y50 Z-4.087 I-1.012 J0
X-9.988 Y50 Z-4.178 I1.012 J0
X-12.012 Y50 Z-4.269 I-1.012 J0
X-9.988 Y50 Z-4.359 I1.012 J0
X-12.012 Y50 Z-4.45 I-1.012 J0
X-9.988 Y50 Z-4.541 I1.012 J0
X-12.012 Y50 Z-4.632 I-1.012 J0
X-9.988 Y50 Z-4.723 I1.012 J0
X-12.012 Y50 Z-4.813 I-1.012 J0
X-9.988 Y50 Z-4.904 I1.012 J0
X-12.012 Y50 Z-4.995 I-1.012 J0
X-9.988 Y50 Z-5.086 I1.012 J0
X-12.012 Y50 Z-5.177 I-1.012 J0
X-9.987 Y50 Z-5.267 I1.012 J0
X-12.013 Y50 Z-5.358 I-1.013 J0
X-9.987 Y50 Z-5.449 I1.013 J0
X-12.013 Y50 Z-5.54 I-1.013 J0
X-9.987 Y50 Z-5.63 I1.013 J0
X-12.013 Y50 Z-5.721 I-1.013 J0
X-9.987 Y50 Z-5.812 I1.013 J0
X-12.013 Y50 Z-5.903 I-1.013 J0
X-9.987 Y50 Z-5.994 I1.013 J0
X-12.013 Y50 Z-6.084 I-1.013 J0
X-9.987 Y50 Z-6.175 I1.013 J0
X-12.013 Y50 Z-6.266 I-1.013 J0
X-9.987 Y50 Z-6.357 I1.013 J0
X-12.013 Y50 Z-6.448 I-1.013 J0
X-9.987 Y50 Z-6.538 I1.013 J0
X-12.013 Y50 Z-6.629 I-1.013 J0
X-9.987 Y50 Z-6.72 I1.013 J0
X-12.013 Y50 Z-6.811 I-1.013 J0
X-9.987 Y50 Z-6.902 I1.013 J0
X-12.013 Y50 Z-6.992 I-1.013 J0
X-9.987 Y50 Z-7.083 I1.013 J0
X-12.013 Y50 Z-7.174 I-1.013 J0
X-9.987 Y50 Z-7.265 I1.013 J0
X-12.013 Y50 Z-7.356 I-1.013 J0
X-9.987 Y50 Z-7.446 I1.013 J0
X-12.013 Y50 Z-7.537 I-1.013 J0
X-9.987 Y50 Z-7.628 I1.013 J0
X-12.013 Y50 Z-7.719 I-1.013 J0
X-9.987 Y50 Z-7.81 I1.013 J0
X-12.013 Y50 Z-7.9 I-1.013 J0
X-9.987 Y50 Z-7.991 I1.013 J0
X-12.013 Y50 Z-8.082 I-1.013 J0
X-9.987 Y50 Z-8.173 I1.013 J0
X-12.013 Y50 Z-8.264 I-1.013 J0
X-9.987 Y50 Z-8.354 I1.013 J0
X-12.013 Y50 Z-8.445 I-1.013 J0
X-9.987 Y50 Z-8.536 I1.013 J0
X-12.013 Y50 Z-8.627 I-1.013 J0
X-9.987 Y50 Z-8.717 I1.013 J0
X-12.013 Y50 Z-8.808 I-1.013 J0
X-9.987 Y50 Z-8.899 I1.013 J0
X-12.013 Y50 Z-8.99 I-1.013 J0
X-11.951 Y49.652 Z-9 I1.013 J0
X-10.049 Y50.348 I0.951 J0.348
X-11.951 Y49.652 I-0.951 J-0.348
X-11.544 Y49.463 I0.298 J0.109
G1 X-11.395 Y49.518
X-11.328 Y49.542 Z-8.992
X-11.265 Y49.565 Z-8.969
X-11.209 Y49.586 Z-8.931
X-11.162 Y49.603 Z-8.88
X-11.126 Y49.616 Z-8.82
X-11.104 Y49.624 Z-8.753
X-11.096 Y49.627 Z-8.682
Z5
X-18.78 Y55.256
Z1
Z-0.683 F30
G18 G3 X-19.097 Z-1 I-0.317 K0
G1 X-19.256
G17 G3 X-19.513 Y55 I0 J-0.256
X-18.487 Y55 Z-1.073 I0.513 J0 F100
X-19.513 Y55 Z-1.147 I-0.513 J0
X-18.487 Y55 Z-1.22 I0.513 J0
X-19.513 Y55 Z-1.293 I-0.513 J0
X-18.487 Y55 Z-1.367 I0.513 J0
X-19.513 Y55 Z-1.44 I-0.513 J0
X-18.487 Y55 Z-1.513 I0.513 J0
X-19.513 Y55 Z-1.587 I-0.513 J0
X-18.487 Y55 Z-1.66 I0.513 J0
X-19.513 Y55 Z-1.733 I-0.513 J0
X-18.487 Y55 Z-1.807 I0.513 J0
X-19.513 Y55 Z-1.88 I-0.513 J0
X-18.487 Y55 Z-1.953 I0.513 J0
X-19.513 Y55 Z-2.027 I-0.513 J0
X-18.487 Y55 Z-2.1 I0.513 J0
X-19.513 Y55 Z-2.173 I-0.513 J0
X-18.487 Y55 Z-2.247 I0.513 J0
X-19.513 Y55 Z-2.32 I-0.513 J0
X-18.487 Y55 Z-2.393 I0.513 J0
X-19.513 Y55 Z-2.467 I-0.513 J0
X-18.487 Y55 Z-2.54 I0.513 J0
X-19.513 Y55 Z-2.613 I-0.513 J0
X-18.487 Y55 Z-2.687 I0.513 J0
X-19.513 Y55 Z-2.76 I-0.513 J0
X-18.487 Y55 Z-2.833 I0.513 J0
X-19.513 Y55 Z-2.907 I-0.513 J0
X-18.487 Y55 Z-2.98 I0.513 J0
X-19.513 Y55 Z-3.053 I-0.513 J0
X-18.487 Y55 Z-3.127 I0.513 J0
X-19.513 Y55 Z-3.2 I-0.513 J0
X-18.487 Y55 Z-3.273 I0.513 J0
X-19.513 Y55 Z-3.347 I-0.513 J0
X-18.487 Y55 Z-3.42 I0.513 J0
X-19.513 Y55 Z-3.493 I-0.513 J0
X-18.487 Y55 Z-3.567 I0.513 J0
X-19.513 Y55 Z-3.64 I-0.513 J0
X-18.487 Y55 Z-3.713 I0.513 J0
X-19.513 Y55 Z-3.787 I-0.513 J0
X-18.487 Y55 Z-3.86 I0.513 J0
X-19.513 Y55 Z-3.933 I-0.513 J0
X-18.487 Y55 Z-4.007 I0.513 J0
X-19.513 Y55 Z-4.08 I-0.513 J0
X-18.487 Y55 Z-4.153 I0.513 J0
X-19.513 Y55 Z-4.227 I-0.513 J0
X-18.487 Y55 Z-4.3 I0.513 J0
X-19.513 Y55 Z-4.373 I-0.513 J0
X-18.487 Y55 Z-4.447 I0.513 J0
X-19.513 Y55 Z-4.52 I-0.513 J0
X-18.487 Y55 Z-4.593 I0.513 J0
X-19.513 Y55 Z-4.667 I-0.513 J0
X-18.487 Y55 Z-4.74 I0.513 J0
X-19.513 Y55 Z-4.813 I-0.513 J0
X-18.487 Y55 Z-4.887 I0.513 J0
X-19.513 Y55 Z-4.96 I-0.513 J0
X-18.487 Y55 Z-5.033 I0.513 J0
X-19.513 Y55 Z-5.107 I-0.513 J0
X-18.487 Y55 Z-5.18 I0.513 J0
X-19.513 Y55 Z-5.253 I-0.513 J0
X-18.487 Y55 Z-5.327 I0.513 J0
X-19.513 Y55 Z-5.4 I-0.513 J0
X-18.487 Y55 Z-5.473 I0.513 J0
X-19.513 Y55 Z-5.547 I-0.513 J0
X-18.487 Y55 Z-5.62 I0.513 J0
X-19.512 Y55 Z-5.693 I-0.513 J0
X-18.488 Y55 Z-5.767 I0.512 J0
X-19.512 Y55 Z-5.84 I-0.512 J0
X-18.488 Y55 Z-5.913 I0.512 J0
X-19.512 Y55 Z-5.987 I-0.512 J0
X-18.488 Y55 Z-6.06 I0.512 J0
X-19.512 Y55 Z-6.133 I-0.512 J0
X-18.488 Y55 Z-6.207 I0.512 J0
X-19.512 Y55 Z-6.28 I-0.512 J0
X-18.488 Y55 Z-6.353 I0.512 J0
X-19.512 Y55 Z-6.427 I-0.512 J0
X-18.488 Y55 Z-6.5 I0.512 J0
X-19.512 Y55 Z-6.573 I-0.512 J0
X-18.488 Y55 Z-6.647 I0.512 J0
X-19.512 Y55 Z-6.72 I-0.512 J0
X-18.488 Y55 Z-6.793 I0.512 J0
X-19.512 Y55 Z-6.867 I-0.512 J0
X-18.488 Y55 Z-6.94 I0.512 J0
X-19.512 Y55 Z-7.013 I-0.512 J0
X-18.488 Y55 Z-7.087 I0.512 J0
X-19.512 Y55 Z-7.16 I-0.512 J0
X-18.488 Y55 Z-7.233 I0.512 J0
X-19.512 Y55 Z-7.307 I-0.512 J0
X-18.488 Y55 Z-7.38 I0.512 J0
X-19.512 Y55 Z-7.453 I-0.512 J0
X-18.488 Y55 Z-7.527 I0.512 J0
X-19.512 Y55 Z-7.6 I-0.512 J0
X-18.488 Y55 Z-7.673 I0.512 J0
X-19.512 Y55 Z-7.747 I-0.512 J0
X-18.488 Y55 Z-7.82 I0.512 J0
X-19.512 Y55 Z-7.893 I-0.512 J0
X-18.488 Y55 Z-7.967 I0.512 J0
X-19.512 Y55 Z-8.04 I-0.512 J0
X-18.488 Y55 Z-8.113 I0.512 J0
X-19.512 Y55 Z-8.187 I-0.512 J0
X-18.488 Y55 Z-8.26 I0.512 J0
X-19.512 Y55 Z-8.333 I-0.512 J0
X-18.488 Y55 Z-8.407 I0.512 J0
X-19.512 Y55 Z-8.48 I-0.512 J0
X-18.488 Y55 Z-8.553 I0.512 J0
X-19.512 Y55 Z-8.627 I-0.512 J0
X-18.488 Y55 Z-8.7 I0.512 J0
X-19.512 Y55 Z-8.773 I-0.512 J0
X-18.488 Y55 Z-8.847 I0.512 J0
X-19.512 Y55 Z-8.92 I-0.512 J0
X-18.927 Y54.493 Z-8.96 I0.512 J0
X-18.508 Y55.144 Z-9 I-0.073 J0.507
X-19.492 Y54.856 I-0.492 J-0.144
X-18.508 Y55.144 I0.492 J0.144
X-18.826 Y55.318 I-0.246 J-0.072
G1 X-18.978 Y55.273
X-19.046 Y55.253 Z-8.992
X-19.111 Y55.235 Z-8.969
X-19.168 Y55.218 Z-8.931
X-19.217 Y55.204 Z-8.88
X-19.253 Y55.193 Z-8.82
X-19.275 Y55.186 Z-8.753
X-19.283 Y55.184 Z-8.682
Z5
X-53.22 Y54.744
Z1
Z-0.683 F30
G18 G2 X-52.903 Z-1 I0.318 K0
G1 X-52.744
G17 G3 X-52.487 Y55 I0 J0.256
X-53.513 Y55 Z-1.073 I-0.513 J0 F100
X-52.487 Y55 Z-1.147 I0.513 J0
X-53.513 Y55 Z-1.22 I-0.513 J0
X-52.487 Y55 Z-1.293 I0.513 J0
X-53.513 Y55 Z-1.367 I-0.513 J0
X-52.487 Y55 Z-1.44 I0.513 J0
X-53.513 Y55 Z-1.513 I-0.513 J0
X-52.487 Y55 Z-1.587 I0.513 J0
X-53.513 Y55 Z-1.66 I-0.513 J0
X-52.487 Y55 Z-1.733 I0.513 J0
X-53.513 Y55 Z-1.807 I-0.513 J0
X-52.487 Y55 Z-1.88 I0.513 J0
X-53.513 Y55 Z-1.953 I-0.513 J0
X-52.487 Y55 Z-2.027 I0.513 J0
X-53.513 Y55 Z-2.1 I-0.513 J0
X-52.487 Y55 Z-2.173 I0.513 J0
X-53.513 Y55 Z-2.247 I-0.513 J0
X-52.487 Y55 Z-2.32 I0.513 J0
X-53.513 Y55 Z-2.393 I-0.513 J0
X-52.487 Y55 Z-2.467 I0.513 J0
X-53.513 Y55 Z-2.54 I-0.513 J0
X-52.487 Y55 Z-2.613 I0.513 J0
X-53.513 Y55 Z-2.687 I-0.513 J0
X-52.487 Y55 Z-2.76 I0.513 J0
X-53.513 Y55 Z-2.833 I-0.513 J0
X-52.487 Y55 Z-2.907 I0.513 J0
X-53.513 Y55 Z-2.98 I-0.513 J0
X-52.487 Y55 Z-3.053 I0.513 J0
X-53.513 Y55 Z-3.127 I-0.513 J0
X-52.487 Y55 Z-3.2 I0.513 J0
X-53.513 Y55 Z-3.273 I-0.513 J0
X-52.487 Y55 Z-3.347 I0.513 J0
X-53.513 Y55 Z-3.42 I-0.513 J0
X-52.487 Y55 Z-3.493 I0.513 J0
X-53.513 Y55 Z-3.567 I-0.513 J0
X-52.487 Y55 Z-3.64 I0.513 J0
X-53.513 Y55 Z-3.713 I-0.513 J0
X-52.487 Y55 Z-3.787 I0.513 J0
X-53.513 Y55 Z-3.86 I-0.513 J0
X-52.487 Y55 Z-3.933 I0.513 J0
X-53.513 Y55 Z-4.007 I-0.513 J0
X-52.487 Y55 Z-4.08 I0.513 J0
X-53.513 Y55 Z-4.153 I-0.513 J0
X-52.487 Y55 Z-4.227 I0.513 J0
X-53.513 Y55 Z-4.3 I-0.513 J0
X-52.487 Y55 Z-4.373 I0.513 J0
X-53.513 Y55 Z-4.447 I-0.513 J0
X-52.487 Y55 Z-4.52 I0.513 J0
X-53.513 Y55 Z-4.593 I-0.513 J0
X-52.487 Y55 Z-4.667 I0.513 J0
X-53.513 Y55 Z-4.74 I-0.513 J0
X-52.487 Y55 Z-4.813 I0.513 J0
X-53.513 Y55 Z-4.887 I-0.513 J0
X-52.487 Y55 Z-4.96 I0.513 J0
X-53.513 Y55 Z-5.033 I-0.513 J0
X-52.487 Y55 Z-5.107 I0.513 J0
X-53.513 Y55 Z-5.18 I-0.513 J0
X-52.487 Y55 Z-5.253 I0.513 J0
X-53.513 Y55 Z-5.327 I-0.513 J0
X-52.487 Y55 Z-5.4 I0.513 J0
X-53.513 Y55 Z-5.473 I-0.513 J0
X-52.487 Y55 Z-5.547 I0.513 J0
X-53.513 Y55 Z-5.62 I-0.513 J0
X-52.487 Y55 Z-5.693 I0.513 J0
X-53.513 Y55 Z-5.767 I-0.513 J0
X-52.487 Y55 Z-5.84 I0.513 J0
X-53.513 Y55 Z-5.913 I-0.513 J0
X-52.487 Y55 Z-5.987 I0.513 J0
X-53.513 Y55 Z-6.06 I-0.513 J0
X-52.487 Y55 Z-6.133 I0.513 J0
X-53.513 Y55 Z-6.207 I-0.513 J0
X-52.487 Y55 Z-6.28 I0.513 J0
X-53.513 Y55 Z-6.353 I-0.513 J0
X-52.487 Y55 Z-6.427 I0.513 J0
X-53.513 Y55 Z-6.5 I-0.513 J0
X-52.487 Y55 Z-6.573 I0.513 J0
X-53.513 Y55 Z-6.647 I-0.513 J0
X-52.487 Y55 Z-6.72 I0.513 J0
X-53.513 Y55 Z-6.793 I-0.513 J0
X-52.487 Y55 Z-6.867 I0.513 J0
X-53.513 Y55 Z-6.94 I-0.513 J0
X-52.487 Y55 Z-7.013 I0.513 J0
X-53.513 Y55 Z-7.087 I-0.513 J0
X-52.487 Y55 Z-7.16 I0.513 J0
X-53.513 Y55 Z-7.233 I-0.513 J0
X-52.487 Y55 Z-7.307 I0.513 J0
X-53.513 Y55 Z-7.38 I-0.513 J0
X-52.487 Y55 Z-7.453 I0.513 J0
X-53.513 Y55 Z-7.527 I-0.513 J0
X-52.487 Y55 Z-7.6 I0.513 J0
X-53.513 Y55 Z-7.673 I-0.513 J0
X-52.487 Y55 Z-7.747 I0.513 J0
X-53.513 Y55 Z-7.82 I-0.513 J0
X-52.487 Y55 Z-7.893 I0.513 J0
X-53.513 Y55 Z-7.967 I-0.513 J0
X-52.487 Y55 Z-8.04 I0.513 J0
X-53.513 Y55 Z-8.113 I-0.513 J0
X-52.487 Y55 Z-8.187 I0.513 J0
X-53.513 Y55 Z-8.26 I-0.513 J0
X-52.487 Y55 Z-8.333 I0.513 J0
X-53.513 Y55 Z-8.407 I-0.513 J0
X-52.487 Y55 Z-8.48 I0.513 J0
X-53.513 Y55 Z-8.553 I-0.513 J0
X-52.487 Y55 Z-8.627 I0.513 J0
X-53.513 Y55 Z-8.7 I-0.513 J0
X-52.487 Y55 Z-8.773 I0.513 J0
X-53.513 Y55 Z-8.847 I-0.513 J0
X-52.487 Y55 Z-8.92 I0.513 J0
X-53.073 Y55.507 Z-8.96 I-0.513 J0
X-53.492 Y54.856 Z-9 I0.073 J-0.507
X-52.508 Y55.144 I0.492 J0.144
X-53.492 Y54.856 I-0.492 J-0.144
X-53.174 Y54.682 I0.246 J0.072
G1 X-53.022 Y54.727
X-52.954 Y54.747 Z-8.992
X-52.889 Y54.765 Z-8.969
X-52.832 Y54.782 Z-8.931
X-52.783 Y54.796 Z-8.88
X-52.747 Y54.807 Z-8.82
X-52.725 Y54.814 Z-8.753
X-52.717 Y54.816 Z-8.682
Z5
X-61.219 Y50.318
Z1
Z-0.683 F30
G18 G3 X-61.536 Z-1 I-0.318 K0
G1 X-61.695
G17 G3 X-62.013 Y50 I0 J-0.318
X-59.987 Y50 Z-1.091 I1.013 J0 F100
X-62.013 Y50 Z-1.182 I-1.013 J0
X-59.987 Y50 Z-1.272 I1.013 J0
X-62.013 Y50 Z-1.363 I-1.013 J0
X-59.987 Y50 Z-1.454 I1.013 J0
X-62.013 Y50 Z-1.545 I-1.013 J0
X-59.987 Y50 Z-1.636 I1.013 J0
X-62.013 Y50 Z-1.726 I-1.013 J0
X-59.987 Y50 Z-1.817 I1.013 J0
X-62.013 Y50 Z-1.908 I-1.013 J0
X-59.987 Y50 Z-1.999 I1.013 J0
X-62.013 Y50 Z-2.09 I-1.013 J0
X-59.987 Y50 Z-2.18 I1.013 J0
X-62.013 Y50 Z-2.271 I-1.013 J0
X-59.987 Y50 Z-2.362 I1.013 J0
X-62.013 Y50 Z-2.453 I-1.013 J0
X-59.987 Y50 Z-2.543 I1.013 J0
X-62.013 Y50 Z-2.634 I-1.013 J0
X-59.987 Y50 Z-2.725 I1.013 J0
X-62.013 Y50 Z-2.816 I-1.013 J0
X-59.987 Y50 Z-2.907 I1.013 J0
X-62.013 Y50 Z-2.997 I-1.013 J0
X-59.987 Y50 Z-3.088 I1.013 J0
X-62.013 Y50 Z-3.179 I-1.013 J0
X-59.987 Y50 Z-3.27 I1.013 J0
X-62.013 Y50 Z-3.361 I-1.013 J0
X-59.987 Y50 Z-3.451 I1.013 J0
X-62.013 Y50 Z-3.542 I-1.013 J0
X-59.987 Y50 Z-3.633 I1.013 J0
X-62.013 Y50 Z-3.724 I-1.013 J0
X-59.987 Y50 Z-3.815 I1.013 J0
X-62.013 Y50 Z-3.905 I-1.013 J0
X-59.987 Y50 Z-3.996 I1.013 J0
X-62.013 Y50 Z-4.087 I-1.013 J0
X-59.987 Y50 Z-4.178 I1.013 J0
X-62.013 Y50 Z-4.269 I-1.013 J0
X-59.987 Y50 Z-4.359 I1.013 J0
X-62.013 Y50 Z-4.45 I-1.013 J0
X-59.987 Y50 Z-4.541 I1.013 J0
X-62.013 Y50 Z-4.632 I-1.013 J0
X-59.987 Y50 Z-4.723 I1.013 J0
X-62.013 Y50 Z-4.813 I-1.013 J0
X-59.987 Y50 Z-4.904 I1.013 J0
X-62.013 Y50 Z-4.995 I-1.013 J0
X-59.987 Y50 Z-5.086 I1.013 J0
X-62.013 Y50 Z-5.177 I-1.013 J0
X-59.987 Y50 Z-5.267 I1.013 J0
X-62.013 Y50 Z-5.358 I-1.013 J0
X-59.987 Y50 Z-5.449 I1.013 J0
X-62.013 Y50 Z-5.54 I-1.013 J0
X-59.987 Y50 Z-5.63 I1.013 J0
X-62.013 Y50 Z-5.721 I-1.013 J0
X-59.987 Y50 Z-5.812 I1.013 J0
X-62.013 Y50 Z-5.903 I-1.013 J0
X-59.987 Y50 Z-5.994 I1.013 J0
X-62.013 Y50 Z-6.084 I-1.013 J0
X-59.987 Y50 Z-6.175 I1.013 J0
X-62.013 Y50 Z-6.266 I-1.013 J0
X-59.987 Y50 Z-6.357 I1.013 J0
X-62.013 Y50 Z-6.448 I-1.013 J0
X-59.987 Y50 Z-6.538 I1.013 J0
X-62.013 Y50 Z-6.629 I-1.013 J0
X-59.987 Y50 Z-6.72 I1.013 J0
X-62.013 Y50 Z-6.811 I-1.013 J0
X-59.987 Y50 Z-6.902 I1.013 J0
X-62.013 Y50 Z-6.992 I-1.013 J0
X-59.987 Y50 Z-7.083 I1.013 J0
X-62.013 Y50 Z-7.174 I-1.013 J0
X-59.987 Y50 Z-7.265 I1.013 J0
X-62.013 Y50 Z-7.356 I-1.013 J0
X-59.987 Y50 Z-7.446 I1.013 J0
X-62.013 Y50 Z-7.537 I-1.013 J0
X-59.987 Y50 Z-7.628 I1.013 J0
X-62.013 Y50 Z-7.719 I-1.013 J0
X-59.987 Y50 Z-7.81 I1.013 J0
X-62.013 Y50 Z-7.9 I-1.013 J0
X-59.987 Y50 Z-7.991 I1.013 J0
X-62.013 Y50 Z-8.082 I-1.013 J0
X-59.987 Y50 Z-8.173 I1.013 J0
X-62.013 Y50 Z-8.264 I-1.013 J0
X-59.987 Y50 Z-8.354 I1.013 J0
X-62.013 Y50 Z-8.445 I-1.013 J0
X-59.987 Y50 Z-8.536 I1.013 J0
X-62.013 Y50 Z-8.627 I-1.013 J0
X-59.987 Y50 Z-8.717 I1.013 J0
X-62.013 Y50 Z-8.808 I-1.013 J0
X-59.987 Y50 Z-8.899 I1.013 J0
X-62.013 Y50 Z-8.99 I-1.013 J0
X-61.951 Y49.652 Z-9 I1.013 J0
X-60.049 Y50.348 I0.951 J0.348
X-61.951 Y49.652 I-0.951 J-0.348
X-61.544 Y49.463 I0.298 J0.109
G1 X-61.395 Y49.518
X-61.328 Y49.542 Z-8.992
X-61.265 Y49.565 Z-8.969
X-61.209 Y49.586 Z-8.931
X-61.162 Y49.603 Z-8.88
X-61.126 Y49.616 Z-8.82
X-61.104 Y49.624 Z-8.753
X-61.096 Y49.627 Z-8.682
Z15
M5
M30
