(1001)
(T1  D=3.175 CR=0 - ZMIN=0 - flat end mill)
G90 G94
G17
G21
(When using Fusion 360 for Personal Use, the feedrate of)
(rapid moves is reduced to match the feedrate of cutting)
(moves, which can increase machining time. Unrestricted rapid)
(moves are available with a Fusion 360 Subscription.)

(Flat1)
T1
S5000 M3
G54
G0 X-9.432 Y-31.876
Z3.5
G1 Z1.918 F50
Z0.718 F16.7
X-9.439 Y-31.873 Z0.647 F20
X-9.46 Y-31.862 Z0.58
X-9.494 Y-31.845 Z0.52
X-9.539 Y-31.823 Z0.469
X-9.593 Y-31.796 Z0.431
X-9.653 Y-31.766 Z0.408
X-9.716 Y-31.734 Z0.4
X-10 Y-31.592
G2 X-12.074 Y-30.235 I4.791 J9.583 F50
G3 X-14.403 Y-29.391 I-2.33 J-2.792
G1 X-18.744
G2 X-19.379 Y-28.756 I0 J0.635
G1 Y-28.744
G2 X-18.744 Y-28.109 I0.635 J0
G1 X-1.256
G2 X-0.621 Y-28.744 I0 J-0.635
G1 Y-28.756
G2 X-1.256 Y-29.391 I-0.635 J0
G1 X-14.403
X-14.721
G18 G3 X-15.038 Z0.718 I0 K0.318
G1 Z1.5
X-13.835 Y-31.876
Z0.517 F16.7
X-13.843 Y-31.873 Z0.447 F20
X-13.864 Y-31.862 Z0.38
X-13.897 Y-31.845 Z0.32
X-13.942 Y-31.823 Z0.269
X-13.996 Y-31.796 Z0.231
X-14.056 Y-31.766 Z0.208
X-14.119 Y-31.734 Z0.2
X-14.403 Y-31.592
G17 G2 X-16.511 Y-30.295 I6.284 J12.569 F50
G3 X-18.815 Y-29.387 I-2.827 J-3.796
G2 X-19.379 Y-28.756 I0.07 J0.631
G1 Y-28.744
G2 X-18.744 Y-28.109 I0.635 J0
G1 X-1.256
G2 X-0.621 Y-28.744 I0 J-0.635
G1 Y-28.756
G2 X-1.256 Y-29.391 I-0.635 J0
G1 X-18.815 Y-29.387
X-19.132
X-19.203 Z0.208
X-19.27 Z0.231
X-19.33 Z0.269
X-19.38 Z0.32
X-19.418 Z0.38
X-19.442 Z0.447
X-19.45 Z0.517
Z1.5
X-12.941 Y-31.876
Z0.317 F16.7
X-12.948 Y-31.873 Z0.247 F20
X-12.969 Y-31.862 Z0.18
X-13.003 Y-31.845 Z0.12
X-13.048 Y-31.823 Z0.069
X-13.102 Y-31.796 Z0.031
X-13.162 Y-31.766 Z0.008
X-13.225 Y-31.734 Z0
X-13.509 Y-31.592
G2 X-15.583 Y-30.235 I4.791 J9.583 F50
G3 X-17.913 Y-29.391 I-2.33 J-2.792
G1 X-18.744
G2 X-19.379 Y-28.756 I0 J0.635
G1 Y-28.744
G2 X-18.744 Y-28.109 I0.635 J0
G1 X-1.256
G2 X-0.621 Y-28.744 I0 J-0.635
G1 Y-28.756
G2 X-1.256 Y-29.391 I-0.635 J0
G1 X-17.913
X-18.23
G18 G3 X-18.548 Z0.317 I0 K0.318
G1 Z3.5
G17
M5
M30
