(1001razer)
(Machine)
(  vendor: Nikodem Bartnik)
(  model: Generic 3-axis Router)
(  description: This machine has XYZ axis on the Head)
(T1  D=3.175 CR=0 - ZMIN=-5.195 - flat end mill)
G90 G94
G17
G21
(When using Fusion 360 for Personal Use, the feedrate of)
(rapid moves is reduced to match the feedrate of cutting)
(moves, which can increase machining time. Unrestricted rapid)
(moves are available with a Fusion 360 Subscription.)

(Pocket1 2)
T1
S5000 M3
G54
G0 X-12.044 Y-8.425
Z3
G1 Z-1.692 F50
Z-2.374 F16.7
X-12.038 Y-8.434 Z-2.456 F50
X-12.021 Y-8.46 Z-2.531
X-11.992 Y-8.5 Z-2.597
X-11.953 Y-8.55 Z-2.647
X-11.905 Y-8.605 Z-2.679
X-11.851 Y-8.663 Z-2.692
G3 X-9.72 Y-6.528 Z-2.85 I1.065 J1.068
X-11.851 Y-8.663 Z-3.009 I-1.065 J-1.068
X-9.72 Y-6.528 Z-3.168 I1.065 J1.068
X-11.851 Y-8.663 Z-3.327 I-1.065 J-1.068
X-9.72 Y-6.528 Z-3.485 I1.065 J1.068
X-11.851 Y-8.663 Z-3.644 I-1.065 J-1.068
X-9.72 Y-6.528 Z-3.803 I1.065 J1.068
X-10.785 Y-6.087 Z-3.842 I-1.065 J-1.068
X-10.785 Y-8.216 I0 J-1.065
G1 X10.819 Y-8.219
G3 X11.003 Y-8.036 I0 J0.184
G1 Y-7.967
G3 X10.819 Y-7.784 I-0.184 J0
G1 X-10.819 Y-7.781
G3 X-11.003 Y-7.964 I0 J-0.184
G1 Y-8.033
G3 X-10.819 Y-8.216 I0.184 J0
G1 X-10.785
G2 X-9.513 Y-9.065 I0 J-1.379
G3 X-8.24 Y-9.913 I1.273 J0.53
G1 X12.7 Y-9.916
Y-6.087
X-12.7 Y-6.084
Y-9.913
X-8.24
X-8.191 Y-9.91 Z-3.835
X-8.144 Y-9.898 Z-3.827
X-8.102 Y-9.882 Z-3.804
X-8.064 Y-9.86 Z-3.782
X-8.01 Y-9.815 Z-3.712
X-7.982 Y-9.78 Z-3.623
X-7.973 Y-9.768 Z-3.525
Z1.317
X10.803 Y-7.25
Z-2.692
X10.795 Y-7.238 Z-2.788
X10.773 Y-7.201 Z-2.875
X10.736 Y-7.144 Z-2.945
X10.685 Y-7.075 Z-2.991
X10.624 Y-7.002 Z-3.009
G3 X8.366 Y-9.001 Z-3.168 I-1.129 J-1
X10.624 Y-7.002 Z-3.327 I1.129 J1
X8.366 Y-9.001 Z-3.485 I-1.129 J-1
X10.624 Y-7.002 Z-3.644 I1.129 J1
X8.366 Y-9.001 Z-3.803 I-1.129 J-1
X11.003 Y-8.002 Z-3.925 I1.129 J1
G1 Y-7.967
G3 X10.819 Y-7.784 I-0.184 J0
G1 X-10.819 Y-7.781
G3 X-11.003 Y-7.964 I0 J-0.184
G1 Y-8.033
G3 X-10.819 Y-8.216 I0.184 J0
G1 X10.819 Y-8.219
G3 X11.003 Y-8.036 I0 J0.184
G1 Y-8.002
G2 X11.508 Y-7.089 I1.076 J0
G3 X11.22 Y-6.087 I-0.288 J0.46
G1 X-12.7 Y-6.084
Y-9.913
X12.7 Y-9.916
Y-6.087
X11.22
X11.172 Y-6.091 Z-3.917
X11.124 Y-6.102 Z-3.909
X11.083 Y-6.118 Z-3.887
X11.044 Y-6.14 Z-3.864
X10.991 Y-6.185 Z-3.794
X10.962 Y-6.22 Z-3.706
X10.953 Y-6.233 Z-3.608
Z1.317
X-0.209 Y2.61
Z-2.374
X-0.195 Y2.607 Z-2.47
X-0.152 Y2.599 Z-2.557
X-0.085 Y2.591 Z-2.627
X0 Y2.588 Z-2.673
X0.095 Y2.592 Z-2.692
G3 X-0.095 Y4.587 Z-2.802 I-0.095 J0.997
X0.095 Y2.592 Z-2.911 I0.095 J-0.997
X-0.095 Y4.587 Z-3.021 I-0.095 J0.997
X0.095 Y2.592 Z-3.131 I0.095 J-0.997
X-0.095 Y4.587 Z-3.241 I-0.095 J0.997
X0.095 Y2.592 Z-3.351 I0.095 J-0.997
X-0.095 Y4.587 Z-3.461 I-0.095 J0.997
X0.095 Y2.592 Z-3.571 I0.095 J-0.997
X-0.095 Y4.587 Z-3.681 I-0.095 J0.997
X0.095 Y2.592 Z-3.791 I0.095 J-0.997
X1.002 Y3.592 Z-3.842 I-0.095 J0.997
G1 X0.97 Y15.5
X-0.97
X-1.005 Y2.588
X1.005
X1.002 Y3.592
X0.998 Y3.641 Z-3.835
X0.987 Y3.689 Z-3.827
X0.97 Y3.73 Z-3.804
X0.948 Y3.768 Z-3.782
X0.903 Y3.822 Z-3.712
X0.868 Y3.85 Z-3.623
X0.855 Y3.859 Z-3.525
Z1.317
X0.211 Y4.525
Z-2.374
X0.197 Y4.528 Z-2.47
X0.154 Y4.536 Z-2.557
X0.087 Y4.544 Z-2.627
X0.002 Y4.548 Z-2.673
X-0.093 Y4.543 Z-2.692
G3 X0.094 Y2.592 Z-2.799 I0.093 J-0.976
X-0.093 Y4.543 Z-2.907 I-0.093 J0.976
X0.094 Y2.592 Z-3.014 I0.093 J-0.976
X-0.093 Y4.543 Z-3.122 I-0.093 J0.976
X0.094 Y2.592 Z-3.229 I0.093 J-0.976
X-0.093 Y4.543 Z-3.337 I-0.093 J0.976
X0.094 Y2.592 Z-3.444 I0.093 J-0.976
X-0.093 Y4.543 Z-3.552 I-0.093 J0.976
X0.094 Y2.592 Z-3.659 I0.093 J-0.976
X-0.093 Y4.543 Z-3.767 I-0.093 J0.976
X0.094 Y2.592 Z-3.874 I0.093 J-0.976
X0.98 Y3.57 Z-3.925 I-0.093 J0.976
G1 X0.948 Y15.5
X-0.949
X-0.946 Y15.436
X-0.945 Y15.399
X-0.983 Y2.588
X0.983
X0.98 Y3.57
X0.976 Y3.619 Z-3.917
X0.965 Y3.667 Z-3.909
X0.949 Y3.708 Z-3.887
X0.927 Y3.746 Z-3.864
X0.881 Y3.8 Z-3.794
X0.847 Y3.828 Z-3.706
X0.834 Y3.837 Z-3.608
Z1.317
X-0.146 Y2.599
Z-2.374
X-0.129 Y2.597 Z-2.478
X-0.078 Y2.591 Z-2.571
X-0.001 Y2.588 Z-2.641
X0.076 Y2.591 Z-2.677
X0.159 Y2.602 Z-2.692
G3 X-0.16 Y4.346 Z-2.789 I-0.16 J0.872
X0.159 Y2.602 Z-2.886 I0.16 J-0.872
X-0.16 Y4.346 Z-2.983 I-0.16 J0.872
X0.159 Y2.602 Z-3.081 I0.16 J-0.872
X-0.16 Y4.346 Z-3.178 I-0.16 J0.872
X0.159 Y2.602 Z-3.275 I0.16 J-0.872
X-0.16 Y4.346 Z-3.373 I-0.16 J0.872
X0.159 Y2.602 Z-3.47 I0.16 J-0.872
X-0.16 Y4.346 Z-3.567 I-0.16 J0.872
X0.159 Y2.602 Z-3.664 I0.16 J-0.872
X-0.16 Y4.346 Z-3.762 I-0.16 J0.872
X0.159 Y2.602 Z-3.859 I0.16 J-0.872
X-0.16 Y4.346 Z-3.956 I-0.16 J0.872
X0.159 Y2.602 Z-4.054 I0.16 J-0.872
X-0.16 Y4.346 Z-4.151 I-0.16 J0.872
X-0.001 Y2.588 Z-4.242 I0.16 J-0.872
G1 X0.888
X0.877 Y8.704
X0.86 Y15.5
X-0.857
X-0.889 Y2.901
Y2.588
X-0.001
X0.048 Y2.591 Z-4.235
X0.096 Y2.603 Z-4.227
X0.137 Y2.619 Z-4.204
X0.175 Y2.641 Z-4.182
X0.229 Y2.686 Z-4.112
X0.258 Y2.721 Z-4.023
X0.267 Y2.733 Z-3.925
Z1.317
X0.744 Y4.001
Z-2.374
Y4.009 Z-2.444
Y4.032 Z-2.511
Y4.069 Z-2.571
Y4.119 Z-2.621
Y4.179 Z-2.659
Y4.245 Z-2.683
Y4.315 Z-2.692
X0.741 Y13.168 Z-2.793
X0.733 Y15.5 Z-2.82
X-0.733 Z-2.837
X-0.746 Y10.044 Z-2.9
X-0.745 Y3.175 Z-2.979
X0.745 Z-2.996
X0.741 Y13.168 Z-3.111
X0.733 Y15.5 Z-3.138
X-0.733 Z-3.155
X-0.746 Y10.044 Z-3.217
X-0.745 Y3.175 Z-3.296
X0.745 Z-3.314
X0.741 Y13.168 Z-3.428
X0.733 Y15.5 Z-3.455
X-0.733 Z-3.472
X-0.746 Y10.044 Z-3.535
X-0.745 Y3.175 Z-3.614
X0.745 Z-3.631
X0.741 Y13.168 Z-3.746
X0.733 Y15.5 Z-3.773
X-0.733 Z-3.79
X-0.746 Y10.044 Z-3.852
X-0.745 Y3.175 Z-3.931
X0.745 Z-3.949
X0.741 Y13.168 Z-4.063
X0.733 Y15.5 Z-4.09
X-0.733 Z-4.107
X-0.746 Y10.044 Z-4.17
X-0.745 Y3.175 Z-4.249
X0.745 Z-4.266
X0.741 Y13.168 Z-4.381
X0.733 Y15.5 Z-4.408
X-0.733 Z-4.425
X-0.746 Y10.044 Z-4.487
X-0.745 Y3.729 Z-4.56
Y3.175
X0.745
X0.741 Y13.168
X0.733 Y15.5
X-0.733
X-0.746 Y10.044
X-0.745 Y3.729
X-0.741 Y3.68 Z-4.552
X-0.73 Y3.632 Z-4.544
X-0.714 Y3.591 Z-4.522
X-0.692 Y3.553 Z-4.499
X-0.647 Y3.499 Z-4.429
X-0.612 Y3.471 Z-4.341
X-0.599 Y3.462 Z-4.243
Z1.317
X0.529 Y8.039
Z-2.374
Y8.047 Z-2.444
Y8.07 Z-2.511
X0.528 Y8.107 Z-2.571
Y8.157 Z-2.621
Y8.216 Z-2.659
Y8.283 Z-2.683
X0.527 Y8.352 Z-2.692
X0.5 Y15.5 Z-2.79
X-0.497 Z-2.803
X-0.54 Y4.947 Z-2.948
X0.541 Z-2.962
X0.5 Y15.5 Z-3.107
X-0.497 Z-3.121
X-0.54 Y4.947 Z-3.265
X0.541 Z-3.28
X0.5 Y15.5 Z-3.425
X-0.497 Z-3.438
X-0.54 Y4.947 Z-3.583
X0.541 Z-3.597
X0.5 Y15.5 Z-3.742
X-0.497 Z-3.756
X-0.54 Y4.947 Z-3.9
X0.541 Z-3.915
X0.5 Y15.5 Z-4.06
X-0.497 Z-4.073
X-0.54 Y4.947 Z-4.218
X0.541 Z-4.232
X0.5 Y15.5 Z-4.377
X-0.497 Z-4.391
X-0.54 Y4.947 Z-4.535
X0.541 Z-4.55
X0.5 Y15.5 Z-4.695
X-0.497 Z-4.708
X-0.54 Y4.947 Z-4.853
X0.541 Z-4.867
X0.538 Y5.678 Z-4.878
X0.5 Y15.5
X-0.497
X-0.54 Y4.947
X0.541
X0.538 Y5.678
X0.534 Y5.727 Z-4.87
X0.522 Y5.775 Z-4.862
X0.506 Y5.816 Z-4.839
X0.484 Y5.854 Z-4.817
X0.438 Y5.908 Z-4.747
X0.404 Y5.936 Z-4.658
X0.391 Y5.945 Z-4.56
Z1.317
X-0.276 Y8.016
Z-2.374
Y8.008 Z-2.444
Y7.985 Z-2.511
Y7.948 Z-2.57
Y7.899 Z-2.62
Y7.84 Z-2.659
Y7.774 Z-2.683
Y7.704 Z-2.692
X-0.275 Y6.72 Z-2.708
X0.275 Z-2.718
Y12.275 Z-2.812
X0.264 Y15.5 Z-2.867
X-0.262 Z-2.876
Y15.494
X-0.278 Y10.044 Z-2.969
X-0.275 Y6.72 Z-3.026
X0.275 Z-3.035
Y12.275 Z-3.13
X0.264 Y15.5 Z-3.185
X-0.262 Z-3.194
Y15.494
X-0.278 Y10.044 Z-3.287
X-0.275 Y6.72 Z-3.343
X0.275 Z-3.353
Y12.275 Z-3.447
X0.264 Y15.5 Z-3.502
X-0.262 Z-3.511
Y15.494
X-0.278 Y10.044 Z-3.604
X-0.275 Y6.72 Z-3.661
X0.275 Z-3.67
Y12.275 Z-3.765
X0.264 Y15.5 Z-3.82
X-0.262 Z-3.829
Y15.494
X-0.278 Y10.044 Z-3.922
X-0.275 Y6.72 Z-3.978
X0.275 Z-3.988
Y12.275 Z-4.082
X0.264 Y15.5 Z-4.137
X-0.262 Z-4.146
Y15.494
X-0.278 Y10.044 Z-4.239
X-0.275 Y6.72 Z-4.296
X0.275 Z-4.305
Y12.275 Z-4.4
X0.264 Y15.5 Z-4.455
X-0.262 Z-4.464
Y15.494
X-0.278 Y10.044 Z-4.557
X-0.275 Y6.72 Z-4.613
X0.275 Z-4.623
Y12.275 Z-4.717
X0.264 Y15.5 Z-4.772
X-0.262 Z-4.781
Y15.494
X-0.278 Y10.044 Z-4.874
X-0.275 Y6.72 Z-4.931
X0.275 Z-4.94
Y12.275 Z-5.035
X0.264 Y15.5 Z-5.09
X-0.262 Z-5.099
Y15.494
X-0.278 Y10.044 Z-5.192
Y9.854 Z-5.195
X-0.275 Y6.72
X0.275
Y12.275
X0.264 Y15.5
X-0.262
Y15.494
X-0.278 Y10.044
Y9.854
X-0.277 Y9.783 Z-5.187
Y9.716 Z-5.164
Y9.656 Z-5.126
Y9.606 Z-5.075
Y9.568 Z-5.015
Y9.544 Z-4.948
Y9.536 Z-4.878
Z3
M5
M30
