; generated by PrusaSlicer 2.5.0+win64 on 2023-02-14 at 03:03:22 UTC

; 

; external perimeters extrusion width = 0.60mm
; perimeters extrusion width = 0.75mm
; infill extrusion width = 0.60mm
; solid infill extrusion width = 0.75mm
; top infill extrusion width = 0.75mm
; support material extrusion width = 0.35mm
; first layer extrusion width = 0.75mm

; external perimeters extrusion width = 0.60mm
; perimeters extrusion width = 0.75mm
; infill extrusion width = 0.60mm
; solid infill extrusion width = 0.75mm
; top infill extrusion width = 0.75mm
; support material extrusion width = 0.35mm
; first layer extrusion width = 0.75mm

; external perimeters extrusion width = 0.60mm
; perimeters extrusion width = 0.75mm
; infill extrusion width = 0.60mm
; solid infill extrusion width = 0.75mm
; top infill extrusion width = 0.75mm
; support material extrusion width = 0.35mm
; first layer extrusion width = 0.75mm

M73 P0 R0
M73 Q0 S0
M201 X9000 Y9000 Z500 E10000 ; sets maximum accelerations, mm/sec^2
M203 X500 Y500 Z12 E120 ; sets maximum feedrates, mm / sec
M204 P1500 R1500 T1500 ; sets acceleration (P, T) and retract acceleration (R), mm/sec^2
M205 X10.00 Y10.00 Z0.20 E2.50 ; sets the jerk limits, mm/sec
M205 S0 T0 ; sets the minimum extruding and travel feed rate, mm/sec
M107
;TYPE:Custom
M115 U3.1.3 ; tell printer latest fw version
M201 X1000 Y1000 Z200 E5000 ; sets maximum accelerations, mm/sec^2
M203 X200 Y200 Z12 E120 ; sets maximum feedrates, mm/sec
M204 S1250 T1250 ; sets acceleration (S) and retract acceleration (T)
M205 X10 Y10 Z0.4 E2.5 ; sets the jerk limits, mm/sec
M205 S0 T0 ; sets the minimum extruding and travel feed rate, mm/sec
M83  ; extruder relative mode
M104 S265 ; set extruder temp
M140 S85 ; set bed temp
M190 S85 ; wait for bed temp
M109 S265 ; wait for extruder temp
G28 W ; home all without mesh bed level
G80 ; mesh bed leveling
G1 Y-3.0 F1000.0 ; go outside print area
G92 E0.0
G1 X60.0 E9.0  F1000.0 ; intro line
G1 X100.0 E12.5  F1000.0 ; intro line
G92 E0.0
M221 S95
G21 ; set units to millimeters
G90 ; use absolute coordinates
M83 ; use relative distances for extrusion
M900 K22 ; Filament gcode
M107
;LAYER_CHANGE
;Z:0.3
;HEIGHT:0.3
;BEFORE_LAYER_CHANGE
;0.3
G92 E0
M73 P18 R0
M73 Q18 S0
G1 Z.3 F599940
;AFTER_LAYER_CHANGE
;0.3
M73 P30 R0
M73 Q30 S0
G1 E-1 F2100
G1 X80.35 Y109 F599940
G1 E1 F600
M204 S1000
;TYPE:External perimeter
;WIDTH:0.700001
M73 P34 R0
M73 Q34 S0
G1 X119.65 Y109 E3.89453
M73 P35 R0
M73 Q35 S0
G1 E-1 F2100
G1 X119.65 Y100 F599940
G1 E1 F600
G1 X80.35 Y100 E3.89453
G1 E-1 F2100
; weld
G1 X100 Y108.15 F599940
G1 E1 F600
G1 X100 Y100.85 E.72341
G1 E-1 F2100;
; iron
G1 Z0.6 F599940
G1 X96 Y108 
G1 X104 Y108 E.1 
G1 X96 Y109 
G1 X104 Y109 E.1
M107
;TYPE:Custom
; Filament-specific end gcode
G4 ; wait
M221 S100
M104 S0 ; turn off temperature
M140 S0 ; turn off heatbed
M107 ; turn off fan
M73 P81 R0
M73 Q81 S0
G1 X0 Y200; home X axis
M84 ; disable motors
M104 S0 ; turn off extruder
M140 S0 ; turn off bed
G28 X0  ; home X axis
M84     ; disable motors
M300 S987 P133 ; ghost busters
M300 S987 P133
M300 S2489 P267
M300 S987 P267
M300 S2217 P267
M300 S880 P267
M300 S0 P1071
M300 S987 P133
M300 S987 P133
M300 S987 P133
M300 S987 P133
M300 S880 P267
M300 S987 P267
M300 S0 P1071
M73 P100 R0
M73 Q100 S0
; filament used [mm] = 8.51
; filament used [cm3] = 0.02
; filament used [g] = 0.02
; filament cost = 0.00
; total filament used [g] = 0.02
; total filament cost = 0.00
; estimated printing time (normal mode) = 20s
; estimated printing time (silent mode) = 20s

; prusaslicer_config = begin
; avoid_crossing_perimeters = 0
; avoid_crossing_perimeters_max_detour = 0
; bed_custom_model = 
; bed_custom_texture = 
; bed_shape = 0x0,250x0,250x210,0x210
; bed_temperature = 85
; before_layer_gcode = ;BEFORE_LAYER_CHANGE\n;[layer_z]\nG92 E0
; between_objects_gcode = 
; bottom_fill_pattern = monotonic
; bottom_solid_layers = 4
; bottom_solid_min_thickness = 0
; bridge_acceleration = 1000
; bridge_angle = 180
; bridge_fan_speed = 100
; bridge_flow_ratio = 0.9
; bridge_speed = 30
; brim_separation = 0
; brim_type = outer_only
; brim_width = 0
; clip_multipart_objects = 1
; color_change_gcode = M600
; complete_objects = 0
; cooling = 1
; cooling_tube_length = 5
; cooling_tube_retraction = 91.5
; default_acceleration = 1000
; default_filament_profile = ""
; default_print_profile = 
; deretract_speed = 10
; disable_fan_first_layers = 1
; dont_support_bridges = 1
; draft_shield = disabled
; duplicate_distance = 6
; elefant_foot_compensation = 0.1
; end_filament_gcode = "; Filament-specific end gcode"
; end_gcode = G4 ; wait\nM221 S100\nM104 S0 ; turn off temperature\nM140 S0 ; turn off heatbed\nM107 ; turn off fan\nG1 X0 Y200; home X axis\nM84 ; disable motors\nM104 S0 ; turn off extruder\nM140 S0 ; turn off bed\nG28 X0  ; home X axis\nM84     ; disable motors\nM300 S987 P133 ; ghost busters\nM300 S987 P133\nM300 S2489 P267\nM300 S987 P267\nM300 S2217 P267\nM300 S880 P267\nM300 S0 P1071\nM300 S987 P133\nM300 S987 P133\nM300 S987 P133\nM300 S987 P133\nM300 S880 P267\nM300 S987 P267\nM300 S0 P1071\n
; ensure_vertical_shell_thickness = 1
; external_perimeter_extrusion_width = 0.6
; external_perimeter_speed = 90
; external_perimeters_first = 0
; extra_loading_move = -2
; extra_perimeters = 0
; extruder_clearance_height = 20
; extruder_clearance_radius = 20
; extruder_colour = ""
; extruder_offset = 0x0
; extrusion_axis = E
; extrusion_multiplier = 1.25
; extrusion_width = 0.75
; fan_always_on = 0
; fan_below_layer_time = 20
; filament_colour = #FFFFFF
; filament_cooling_final_speed = 3.4
; filament_cooling_initial_speed = 2.2
; filament_cooling_moves = 1
; filament_cost = 1
; filament_density = 1.04
; filament_diameter = 1.75
; filament_load_time = 0
; filament_loading_speed = 28
; filament_loading_speed_start = 3
; filament_max_volumetric_speed = 6
; filament_minimal_purge_on_wipe_tower = 15
; filament_notes = "tested with Pepsi bottle"
; filament_ramming_parameters = "120 100 6.6 6.8 7.2 7.6 7.9 8.2 8.7 9.4 9.9 10.0| 0.05 6.6 0.45 6.8 0.95 7.8 1.45 8.3 1.95 9.7 2.45 10 2.95 7.6 3.45 7.6 3.95 7.6 4.45 7.6 4.95 7.6"
; filament_settings_id = rPET
; filament_soluble = 0
; filament_spool_weight = 0
; filament_toolchange_delay = 0
; filament_type = PET
; filament_unload_time = 0
; filament_unloading_speed = 90
; filament_unloading_speed_start = 100
; filament_vendor = (Unknown)
; fill_angle = 45
; fill_density = 40%
; fill_pattern = cubic
; first_layer_acceleration = 1000
; first_layer_acceleration_over_raft = 0
; first_layer_bed_temperature = 85
; first_layer_extrusion_width = 0.75
; first_layer_height = 0.3
; first_layer_speed = 50%
; first_layer_speed_over_raft = 30
; first_layer_temperature = 265
; full_fan_speed_layer = 0
; fuzzy_skin = none
; fuzzy_skin_point_dist = 0.8
; fuzzy_skin_thickness = 0.3
; gap_fill_enabled = 1
; gap_fill_speed = 90
; gcode_comments = 0
; gcode_flavor = marlin
; gcode_label_objects = 0
; gcode_resolution = 0.0125
; gcode_substitutions = 
; high_current_on_filament_swap = 0
; host_type = octoprint
; infill_acceleration = 1250
; infill_anchor = 600%
; infill_anchor_max = 50
; infill_every_layers = 1
; infill_extruder = 1
; infill_extrusion_width = 0.6
; infill_first = 0
; infill_only_where_needed = 1
; infill_overlap = 25%
; infill_speed = 90
; interface_shells = 0
; ironing = 0
; ironing_flowrate = 15%
; ironing_spacing = 0.1
; ironing_speed = 15
; ironing_type = top
; layer_gcode = ;AFTER_LAYER_CHANGE\n;[layer_z]
; layer_height = 0.3
; machine_limits_usage = emit_to_gcode
; machine_max_acceleration_e = 10000,5000
; machine_max_acceleration_extruding = 1500,1250
; machine_max_acceleration_retracting = 1500,1250
; machine_max_acceleration_travel = 1500,1250
; machine_max_acceleration_x = 9000,1000
; machine_max_acceleration_y = 9000,1000
; machine_max_acceleration_z = 500,200
; machine_max_feedrate_e = 120,120
; machine_max_feedrate_x = 500,200
; machine_max_feedrate_y = 500,200
; machine_max_feedrate_z = 12,12
; machine_max_jerk_e = 2.5,2.5
; machine_max_jerk_x = 10,10
; machine_max_jerk_y = 10,10
; machine_max_jerk_z = 0.2,0.4
; machine_min_extruding_rate = 0,0
; machine_min_travel_rate = 0,0
; max_fan_speed = 100
; max_layer_height = 0.45
; max_print_height = 200
; max_print_speed = 200
; max_volumetric_extrusion_rate_slope_negative = 0
; max_volumetric_extrusion_rate_slope_positive = 0
; max_volumetric_speed = 15
; min_bead_width = 85%
; min_fan_speed = 0
; min_feature_size = 25%
; min_layer_height = 0.1
; min_print_speed = 10
; min_skirt_length = 4
; mmu_segmented_region_max_width = 0
; notes = 
; nozzle_diameter = 0.6
; only_retract_when_crossing_perimeters = 1
; ooze_prevention = 0
; output_filename_format = {input_filename_base}_{layer_height}mm_{filament_type[0]}_{printer_model}.gcode
; overhangs = 1
; parking_pos_retraction = 92
; pause_print_gcode = M601
; perimeter_acceleration = 800
; perimeter_extruder = 1
; perimeter_extrusion_width = 0.75
; perimeter_generator = arachne
; perimeter_speed = 90
; perimeters = 8
; physical_printer_settings_id = Elastigirl MK3S
; post_process = 
; print_settings_id = 0.30mm 0.60 nozzle STRONG
; printer_model = 
; printer_notes = Don't remove the following keywords! These keywords are used in the "compatible printer" condition of the print and filament profiles to link the particular print and filament profiles to this printer profile.\nPRINTER_VENDOR_PRUSA3D\nPRINTER_MODEL_MK3\n
; printer_settings_id = MK3S 0.6
; printer_technology = FFF
; printer_variant = 
; printer_vendor = 
; raft_contact_distance = 0.1
; raft_expansion = 1.5
; raft_first_layer_density = 90%
; raft_first_layer_expansion = 3
; raft_layers = 0
; remaining_times = 1
; resolution = 0
; retract_before_travel = 1
; retract_before_wipe = 0%
; retract_layer_change = 0
; retract_length = 1
; retract_length_toolchange = 3
; retract_lift = 0
; retract_lift_above = 0
; retract_lift_below = 209
; retract_restart_extra = 0
; retract_restart_extra_toolchange = 0
; retract_speed = 35
; seam_position = nearest
; silent_mode = 1
; single_extruder_multi_material = 1
; single_extruder_multi_material_priming = 0
; skirt_distance = 2
; skirt_height = 1
; skirts = 0
; slice_closing_radius = 0.049
; slicing_mode = regular
; slowdown_below_layer_time = 10
; small_perimeter_speed = 90
; solid_infill_below_area = 0
; solid_infill_every_layers = 0
; solid_infill_extruder = 1
; solid_infill_extrusion_width = 0.75
; solid_infill_speed = 90
; spiral_vase = 0
; standby_temperature_delta = -5
; start_filament_gcode = "M900 K{if printer_notes=~/.*PRINTER_HAS_BOWDEN.*/}200{elsif nozzle_diameter[0]==0.6}22{else}45{endif} ; Filament gcode"
; start_gcode = M115 U3.1.3 ; tell printer latest fw version\nM201 X1000 Y1000 Z200 E5000 ; sets maximum accelerations, mm/sec^2\nM203 X200 Y200 Z12 E120 ; sets maximum feedrates, mm/sec\nM204 S1250 T1250 ; sets acceleration (S) and retract acceleration (T)\nM205 X10 Y10 Z0.4 E2.5 ; sets the jerk limits, mm/sec\nM205 S0 T0 ; sets the minimum extruding and travel feed rate, mm/sec\nM83  ; extruder relative mode\nM104 S[first_layer_temperature] ; set extruder temp\nM140 S[first_layer_bed_temperature] ; set bed temp\nM190 S[first_layer_bed_temperature] ; wait for bed temp\nM109 S[first_layer_temperature] ; wait for extruder temp\nG28 W ; home all without mesh bed level\nG80 ; mesh bed leveling\nG1 Y-3.0 F1000.0 ; go outside print area\nG92 E0.0\nG1 X60.0 E9.0  F1000.0 ; intro line\nG1 X100.0 E12.5  F1000.0 ; intro line\nG92 E0.0\nM221 S{if layer_height<0.075}100{else}95{endif}
; support_material = 1
; support_material_angle = 0
; support_material_auto = 1
; support_material_bottom_contact_distance = 0
; support_material_bottom_interface_layers = -1
; support_material_buildplate_only = 0
; support_material_closing_radius = 2
; support_material_contact_distance = 0.1
; support_material_enforce_layers = 0
; support_material_extruder = 0
; support_material_extrusion_width = 0.35
; support_material_interface_contact_loops = 0
; support_material_interface_extruder = 0
; support_material_interface_layers = 2
; support_material_interface_pattern = rectilinear
; support_material_interface_spacing = 0.2
; support_material_interface_speed = 100%
; support_material_pattern = rectilinear
; support_material_spacing = 2
; support_material_speed = 69
; support_material_style = grid
; support_material_synchronize_layers = 0
; support_material_threshold = 55
; support_material_with_sheath = 0
; support_material_xy_spacing = 50%
; temperature = 255
; template_custom_gcode = 
; thick_bridges = 1
; thin_walls = 0
; threads = 8
; thumbnails = 
; thumbnails_format = PNG
; toolchange_gcode = M600
; top_fill_pattern = monotonic
; top_infill_extrusion_width = 0.75
; top_solid_infill_speed = 90
; top_solid_layers = 4
; top_solid_min_thickness = 0
; travel_speed = 9999
; travel_speed_z = 0
; use_firmware_retraction = 0
; use_relative_e_distances = 1
; use_volumetric_e = 0
; variable_layer_height = 1
; wall_distribution_count = 1
; wall_transition_angle = 10
; wall_transition_filter_deviation = 25%
; wall_transition_length = 100%
; wipe = 0
; wipe_into_infill = 0
; wipe_into_objects = 0
; wipe_tower = 1
; wipe_tower_bridging = 10
; wipe_tower_brim_width = 2
; wipe_tower_no_sparse_layers = 0
; wipe_tower_rotation_angle = 0
; wipe_tower_width = 60
; wipe_tower_x = 170
; wipe_tower_y = 125
; wiping_volumes_extruders = 70,70
; wiping_volumes_matrix = 0
; xy_size_compensation = 0
; z_offset = 0
; prusaslicer_config = end
