(1001face)
(Machine)
(  vendor: Nikodem Bartnik)
(  model: Generic 3-axis Router)
(  description: This machine has XYZ axis on the Head)
(T1  D=3.175 CR=0 - ZMIN=-3.525 - flat end mill)
G90 G94
G17
G21
(When using Fusion 360 for Personal Use, the feedrate of)
(rapid moves is reduced to match the feedrate of cutting)
(moves, which can increase machining time. Unrestricted rapid)
(moves are available with a Fusion 360 Subscription.)

(Face1)
T1
S5000 M3
G54
G0 X15.764 Y-15.863
Z5
G1 Z1 F50
Z-0.007 F20
G18 G3 X15.446 Z-0.325 I-0.318 K0
G1 X15.297
X-15.297 F50
G17 G2 X-15.297 Y-13.661 I0 J1.101
G1 X15.297
G3 X15.297 Y-11.458 I0 J1.101
G1 X-15.297
G2 X-15.297 Y-9.256 I0 J1.101
G1 X15.297
G3 X15.297 Y-7.054 I0 J1.101
G1 X-15.297
G2 X-15.297 Y-4.851 I0 J1.101
G1 X15.297
G3 X15.297 Y-2.649 I0 J1.101
G1 X-15.297
G2 X-15.297 Y-0.447 I0 J1.101
G1 X15.297
G3 X15.297 Y1.756 I0 J1.101
G1 X-15.297
G2 X-15.297 Y3.958 I0 J1.101
G1 X15.297
G3 X15.297 Y6.16 I0 J1.101
G1 X-15.297
G2 X-15.297 Y8.363 I0 J1.101
G1 X15.297
G3 X15.297 Y10.565 I0 J1.101
G1 X-15.297
G2 X-15.297 Y12.767 I0 J1.101
G1 X15.297
G3 X15.297 Y14.97 I0 J1.101
G1 X-15.297
G18 G3 X-15.615 Z-0.007 I0 K0.317
G1 Z2
X-15.764 Y-15.863
Z1
Z-0.407 F20
G2 X-15.446 Z-0.725 I0.318 K0
G1 X-15.297
X15.297 F50
G17 G3 X15.297 Y-13.661 I0 J1.101
G1 X-15.297
G2 X-15.297 Y-11.458 I0 J1.101
G1 X15.297
G3 X15.297 Y-9.256 I0 J1.101
G1 X-15.297
G2 X-15.297 Y-7.054 I0 J1.101
G1 X15.297
G3 X15.297 Y-4.851 I0 J1.101
G1 X-15.297
G2 X-15.297 Y-2.649 I0 J1.101
G1 X15.297
G3 X15.297 Y-0.447 I0 J1.101
G1 X-15.297
G2 X-15.297 Y1.756 I0 J1.101
G1 X15.297
G3 X15.297 Y3.958 I0 J1.101
G1 X-15.297
G2 X-15.297 Y6.16 I0 J1.101
G1 X15.297
G3 X15.297 Y8.363 I0 J1.101
G1 X-15.297
G2 X-15.297 Y10.565 I0 J1.101
G1 X15.297
G3 X15.297 Y12.767 I0 J1.101
G1 X-15.297
G2 X-15.297 Y14.97 I0 J1.101
G1 X15.297
G18 G2 X15.615 Z-0.407 I0 K0.318
G1 Z2
X15.764 Y-15.863
Z1
Z-0.808 F20
G3 X15.446 Z-1.125 I-0.318 K0
G1 X15.297
X-15.297 F50
G17 G2 X-15.297 Y-13.661 I0 J1.101
G1 X15.297
G3 X15.297 Y-11.458 I0 J1.101
G1 X-15.297
G2 X-15.297 Y-9.256 I0 J1.101
G1 X15.297
G3 X15.297 Y-7.054 I0 J1.101
G1 X-15.297
G2 X-15.297 Y-4.851 I0 J1.101
G1 X15.297
G3 X15.297 Y-2.649 I0 J1.101
G1 X-15.297
G2 X-15.297 Y-0.447 I0 J1.101
G1 X15.297
G3 X15.297 Y1.756 I0 J1.101
G1 X-15.297
G2 X-15.297 Y3.958 I0 J1.101
G1 X15.297
G3 X15.297 Y6.16 I0 J1.101
G1 X-15.297
G2 X-15.297 Y8.363 I0 J1.101
G1 X15.297
G3 X15.297 Y10.565 I0 J1.101
G1 X-15.297
G2 X-15.297 Y12.767 I0 J1.101
G1 X15.297
G3 X15.297 Y14.97 I0 J1.101
G1 X-15.297
G18 G3 X-15.615 Z-0.808 I0 K0.317
G1 Z2
X-15.764 Y-15.863
Z1
Z-1.207 F20
G2 X-15.446 Z-1.525 I0.318 K0
G1 X-15.297
X15.297 F50
G17 G3 X15.297 Y-13.661 I0 J1.101
G1 X-15.297
G2 X-15.297 Y-11.458 I0 J1.101
G1 X15.297
G3 X15.297 Y-9.256 I0 J1.101
G1 X-15.297
G2 X-15.297 Y-7.054 I0 J1.101
G1 X15.297
G3 X15.297 Y-4.851 I0 J1.101
G1 X-15.297
G2 X-15.297 Y-2.649 I0 J1.101
G1 X15.297
G3 X15.297 Y-0.447 I0 J1.101
G1 X-15.297
G2 X-15.297 Y1.756 I0 J1.101
G1 X15.297
G3 X15.297 Y3.958 I0 J1.101
G1 X-15.297
G2 X-15.297 Y6.16 I0 J1.101
G1 X15.297
G3 X15.297 Y8.363 I0 J1.101
G1 X-15.297
G2 X-15.297 Y10.565 I0 J1.101
G1 X15.297
G3 X15.297 Y12.767 I0 J1.101
G1 X-15.297
G2 X-15.297 Y14.97 I0 J1.101
G1 X15.297
G18 G2 X15.615 Z-1.207 I0 K0.317
G1 Z2
X15.764 Y-15.863
Z1
Z-1.607 F20
G3 X15.446 Z-1.925 I-0.318 K0
G1 X15.297
X-15.297 F50
G17 G2 X-15.297 Y-13.661 I0 J1.101
G1 X15.297
G3 X15.297 Y-11.458 I0 J1.101
G1 X-15.297
G2 X-15.297 Y-9.256 I0 J1.101
G1 X15.297
G3 X15.297 Y-7.054 I0 J1.101
G1 X-15.297
G2 X-15.297 Y-4.851 I0 J1.101
G1 X15.297
G3 X15.297 Y-2.649 I0 J1.101
G1 X-15.297
G2 X-15.297 Y-0.447 I0 J1.101
G1 X15.297
G3 X15.297 Y1.756 I0 J1.101
G1 X-15.297
G2 X-15.297 Y3.958 I0 J1.101
G1 X15.297
G3 X15.297 Y6.16 I0 J1.101
G1 X-15.297
G2 X-15.297 Y8.363 I0 J1.101
G1 X15.297
G3 X15.297 Y10.565 I0 J1.101
G1 X-15.297
G2 X-15.297 Y12.767 I0 J1.101
G1 X15.297
G3 X15.297 Y14.97 I0 J1.101
G1 X-15.297
G18 G3 X-15.615 Z-1.607 I0 K0.317
G1 Z2
X-15.764 Y-15.863
Z1
Z-2.007 F20
G2 X-15.446 Z-2.325 I0.318 K0
G1 X-15.297
X15.297 F50
G17 G3 X15.297 Y-13.661 I0 J1.101
G1 X-15.297
G2 X-15.297 Y-11.458 I0 J1.101
G1 X15.297
G3 X15.297 Y-9.256 I0 J1.101
G1 X-15.297
G2 X-15.297 Y-7.054 I0 J1.101
G1 X15.297
G3 X15.297 Y-4.851 I0 J1.101
G1 X-15.297
G2 X-15.297 Y-2.649 I0 J1.101
G1 X15.297
G3 X15.297 Y-0.447 I0 J1.101
G1 X-15.297
G2 X-15.297 Y1.756 I0 J1.101
G1 X15.297
G3 X15.297 Y3.958 I0 J1.101
G1 X-15.297
G2 X-15.297 Y6.16 I0 J1.101
G1 X15.297
G3 X15.297 Y8.363 I0 J1.101
G1 X-15.297
G2 X-15.297 Y10.565 I0 J1.101
G1 X15.297
G3 X15.297 Y12.767 I0 J1.101
G1 X-15.297
G2 X-15.297 Y14.97 I0 J1.101
G1 X15.297
G18 G2 X15.615 Z-2.007 I0 K0.318
G1 Z2
X15.764 Y-15.863
Z1
Z-2.408 F20
G3 X15.446 Z-2.725 I-0.318 K0
G1 X15.297
X-15.297 F50
G17 G2 X-15.297 Y-13.661 I0 J1.101
G1 X15.297
G3 X15.297 Y-11.458 I0 J1.101
G1 X-15.297
G2 X-15.297 Y-9.256 I0 J1.101
G1 X15.297
G3 X15.297 Y-7.054 I0 J1.101
G1 X-15.297
G2 X-15.297 Y-4.851 I0 J1.101
G1 X15.297
G3 X15.297 Y-2.649 I0 J1.101
G1 X-15.297
G2 X-15.297 Y-0.447 I0 J1.101
G1 X15.297
G3 X15.297 Y1.756 I0 J1.101
G1 X-15.297
G2 X-15.297 Y3.958 I0 J1.101
G1 X15.297
G3 X15.297 Y6.16 I0 J1.101
G1 X-15.297
G2 X-15.297 Y8.363 I0 J1.101
G1 X15.297
G3 X15.297 Y10.565 I0 J1.101
G1 X-15.297
G2 X-15.297 Y12.767 I0 J1.101
G1 X15.297
G3 X15.297 Y14.97 I0 J1.101
G1 X-15.297
G18 G3 X-15.615 Z-2.408 I0 K0.317
G1 Z2
X-15.764 Y-15.863
Z1
Z-2.807 F20
G2 X-15.446 Z-3.125 I0.318 K0
G1 X-15.297
X15.297 F50
G17 G3 X15.297 Y-13.661 I0 J1.101
G1 X-15.297
G2 X-15.297 Y-11.458 I0 J1.101
G1 X15.297
G3 X15.297 Y-9.256 I0 J1.101
G1 X-15.297
G2 X-15.297 Y-7.054 I0 J1.101
G1 X15.297
G3 X15.297 Y-4.851 I0 J1.101
G1 X-15.297
G2 X-15.297 Y-2.649 I0 J1.101
G1 X15.297
G3 X15.297 Y-0.447 I0 J1.101
G1 X-15.297
G2 X-15.297 Y1.756 I0 J1.101
G1 X15.297
G3 X15.297 Y3.958 I0 J1.101
G1 X-15.297
G2 X-15.297 Y6.16 I0 J1.101
G1 X15.297
G3 X15.297 Y8.363 I0 J1.101
G1 X-15.297
G2 X-15.297 Y10.565 I0 J1.101
G1 X15.297
G3 X15.297 Y12.767 I0 J1.101
G1 X-15.297
G2 X-15.297 Y14.97 I0 J1.101
G1 X15.297
G18 G2 X15.615 Z-2.807 I0 K0.318
G1 Z2
X15.764 Y-15.863
Z1
Z-3.207 F20
G3 X15.446 Z-3.525 I-0.318 K0
G1 X15.297
X-15.297 F50
G17 G2 X-15.297 Y-13.661 I0 J1.101
G1 X15.297
G3 X15.297 Y-11.458 I0 J1.101
G1 X-15.297
G2 X-15.297 Y-9.256 I0 J1.101
G1 X15.297
G3 X15.297 Y-7.054 I0 J1.101
G1 X-15.297
G2 X-15.297 Y-4.851 I0 J1.101
G1 X15.297
G3 X15.297 Y-2.649 I0 J1.101
G1 X-15.297
G2 X-15.297 Y-0.447 I0 J1.101
G1 X15.297
G3 X15.297 Y1.756 I0 J1.101
G1 X-15.297
G2 X-15.297 Y3.958 I0 J1.101
G1 X15.297
G3 X15.297 Y6.16 I0 J1.101
G1 X-15.297
G2 X-15.297 Y8.363 I0 J1.101
G1 X15.297
G3 X15.297 Y10.565 I0 J1.101
G1 X-15.297
G2 X-15.297 Y12.767 I0 J1.101
G1 X15.297
G3 X15.297 Y14.97 I0 J1.101
G1 X-15.297
G18 G3 X-15.615 Z-3.207 I0 K0.318
G1 Z5
G17
M5
M30
