(1002bore)
(Machine)
(  vendor: Nikodem Bartnik)
(  model: Generic 3-axis Router)
(  description: This machine has XYZ axis on the Head)
(T1  D=3.175 CR=0 - ZMIN=-10.525 - flat end mill)
G90 G94
G17
G21
(When using Fusion 360 for Personal Use, the feedrate of)
(rapid moves is reduced to match the feedrate of cutting)
(moves, which can increase machining time. Unrestricted rapid)
(moves are available with a Fusion 360 Subscription.)

(Bore1)
T1
S5000 M3
G54
G0 X6.781 Y-1.077
Z15
G1 Z-1.842 F50
Z-3.525 F20
Y-0.919
X6.775 Y-0.888
X6.757 Y-0.861
X6.731 Y-0.844
X6.7 Y-0.837
G3 X6.7 Y-1.163 Z-3.586 I0 J-0.163 F50
X6.7 Y-0.837 Z-3.647 I0 J0.163
X6.7 Y-1.163 Z-3.708 I0 J-0.163
X6.7 Y-0.837 Z-3.769 I0 J0.163
X6.7 Y-1.163 Z-3.831 I0 J-0.163
X6.7 Y-0.837 Z-3.892 I0 J0.163
X6.7 Y-1.163 Z-3.953 I0 J-0.163
X6.7 Y-0.837 Z-4.014 I0 J0.163
X6.7 Y-1.163 Z-4.075 I0 J-0.163
X6.7 Y-0.837 Z-4.136 I0 J0.163
X6.7 Y-1.163 Z-4.197 I0 J-0.163
X6.7 Y-0.837 Z-4.258 I0 J0.163
X6.7 Y-1.162 Z-4.319 I0 J-0.163
X6.7 Y-0.838 Z-4.381 I0 J0.162
X6.7 Y-1.162 Z-4.442 I0 J-0.162
X6.7 Y-0.838 Z-4.503 I0 J0.162
X6.7 Y-1.162 Z-4.564 I0 J-0.162
X6.7 Y-0.838 Z-4.625 I0 J0.162
X6.7 Y-1.162 Z-4.686 I0 J-0.162
X6.7 Y-0.838 Z-4.747 I0 J0.162
X6.7 Y-1.162 Z-4.808 I0 J-0.162
X6.7 Y-0.838 Z-4.869 I0 J0.162
X6.7 Y-1.162 Z-4.931 I0 J-0.162
X6.7 Y-0.838 Z-4.992 I0 J0.162
X6.7 Y-1.162 Z-5.053 I0 J-0.162
X6.7 Y-0.838 Z-5.114 I0 J0.162
X6.7 Y-1.162 Z-5.175 I0 J-0.162
X6.7 Y-0.838 Z-5.236 I0 J0.162
X6.7 Y-1.162 Z-5.297 I0 J-0.162
X6.7 Y-0.838 Z-5.358 I0 J0.162
X6.7 Y-1.162 Z-5.419 I0 J-0.162
X6.7 Y-0.838 Z-5.481 I0 J0.162
X6.7 Y-1.162 Z-5.542 I0 J-0.162
X6.7 Y-0.838 Z-5.603 I0 J0.162
X6.7 Y-1.162 Z-5.664 I0 J-0.162
X6.7 Y-0.838 Z-5.725 I0 J0.162
X6.7 Y-1.162 Z-5.786 I0 J-0.162
X6.7 Y-0.838 Z-5.847 I0 J0.162
X6.7 Y-1.162 Z-5.908 I0 J-0.162
X6.7 Y-0.838 Z-5.969 I0 J0.162
X6.7 Y-1.162 Z-6.031 I0 J-0.162
X6.7 Y-0.838 Z-6.092 I0 J0.162
X6.7 Y-1.162 Z-6.153 I0 J-0.162
X6.7 Y-0.838 Z-6.214 I0 J0.162
X6.7 Y-1.162 Z-6.275 I0 J-0.162
X6.7 Y-0.838 Z-6.336 I0 J0.162
X6.7 Y-1.162 Z-6.397 I0 J-0.162
X6.7 Y-0.838 Z-6.458 I0 J0.162
X6.7 Y-1.162 Z-6.519 I0 J-0.162
X6.7 Y-0.838 Z-6.581 I0 J0.162
X6.7 Y-1.162 Z-6.642 I0 J-0.162
X6.7 Y-0.838 Z-6.703 I0 J0.162
X6.7 Y-1.162 Z-6.764 I0 J-0.162
X6.7 Y-0.838 Z-6.825 I0 J0.162
X6.7 Y-1.162 Z-6.886 I0 J-0.162
X6.7 Y-0.838 Z-6.947 I0 J0.162
X6.7 Y-1.162 Z-7.008 I0 J-0.162
X6.7 Y-0.838 Z-7.069 I0 J0.162
X6.7 Y-1.162 Z-7.131 I0 J-0.162
X6.7 Y-0.838 Z-7.192 I0 J0.162
X6.7 Y-1.162 Z-7.253 I0 J-0.162
X6.7 Y-0.838 Z-7.314 I0 J0.162
X6.7 Y-1.162 Z-7.375 I0 J-0.162
X6.7 Y-0.838 Z-7.436 I0 J0.162
X6.7 Y-1.162 Z-7.497 I0 J-0.162
X6.7 Y-0.838 Z-7.558 I0 J0.162
X6.7 Y-1.162 Z-7.619 I0 J-0.162
X6.7 Y-0.838 Z-7.681 I0 J0.162
X6.7 Y-1.162 Z-7.742 I0 J-0.162
X6.7 Y-0.838 Z-7.803 I0 J0.162
X6.7 Y-1.162 Z-7.864 I0 J-0.162
X6.7 Y-0.838 Z-7.925 I0 J0.162
X6.7 Y-1.162 Z-7.986 I0 J-0.162
X6.7 Y-0.838 Z-8.047 I0 J0.162
X6.7 Y-1.162 Z-8.108 I0 J-0.162
X6.7 Y-0.838 Z-8.169 I0 J0.162
X6.7 Y-1.162 Z-8.231 I0 J-0.162
X6.7 Y-0.838 Z-8.292 I0 J0.162
X6.7 Y-1.162 Z-8.353 I0 J-0.162
X6.7 Y-0.838 Z-8.414 I0 J0.162
X6.7 Y-1.162 Z-8.475 I0 J-0.162
X6.7 Y-0.838 Z-8.536 I0 J0.162
X6.7 Y-1.162 Z-8.597 I0 J-0.162
X6.7 Y-0.838 Z-8.658 I0 J0.162
X6.7 Y-1.162 Z-8.719 I0 J-0.162
X6.7 Y-0.838 Z-8.781 I0 J0.162
X6.7 Y-1.162 Z-8.842 I0 J-0.162
X6.7 Y-0.838 Z-8.903 I0 J0.162
X6.7 Y-1.162 Z-8.964 I0 J-0.162
X6.7 Y-0.838 Z-9.025 I0 J0.162
X6.7 Y-1.162 Z-9.086 I0 J-0.162
X6.7 Y-0.838 Z-9.147 I0 J0.162
X6.7 Y-1.162 Z-9.208 I0 J-0.162
X6.7 Y-0.838 Z-9.269 I0 J0.162
X6.7 Y-1.162 Z-9.331 I0 J-0.162
X6.7 Y-0.838 Z-9.392 I0 J0.162
X6.7 Y-1.162 Z-9.453 I0 J-0.162
X6.7 Y-0.838 Z-9.514 I0 J0.162
X6.7 Y-1.162 Z-9.575 I0 J-0.162
X6.7 Y-0.838 Z-9.636 I0 J0.162
X6.7 Y-1.162 Z-9.697 I0 J-0.162
X6.7 Y-0.838 Z-9.758 I0 J0.162
X6.7 Y-1.162 Z-9.819 I0 J-0.162
X6.7 Y-0.838 Z-9.881 I0 J0.162
X6.7 Y-1.162 Z-9.942 I0 J-0.162
X6.7 Y-0.838 Z-10.003 I0 J0.162
X6.7 Y-1.162 Z-10.064 I0 J-0.162
X6.7 Y-0.838 Z-10.125 I0 J0.162
X6.7 Y-1.162 Z-10.186 I0 J-0.162
X6.7 Y-0.838 Z-10.247 I0 J0.162
X6.7 Y-1.162 Z-10.308 I0 J-0.162
X6.7 Y-0.838 Z-10.369 I0 J0.162
X6.7 Y-1.162 Z-10.431 I0 J-0.162
X6.7 Y-0.838 Z-10.492 I0 J0.162
X6.539 Y-1.023 Z-10.525 I0 J-0.162
X6.861 Y-0.977 I0.161 J0.023
X6.539 Y-1.023 I-0.161 J-0.023
G1 X6.55 Y-1.053
X6.571 Y-1.076
X6.599 Y-1.09
X6.631 Y-1.092
X6.788 Y-1.07
Z5
X-6.619 Y-1.077
Z-1.842
Z-3.525 F20
Y-0.919
X-6.625 Y-0.888
X-6.643 Y-0.861
X-6.669 Y-0.844
X-6.7 Y-0.837
G3 X-6.7 Y-1.163 Z-3.586 I0 J-0.163 F50
X-6.7 Y-0.837 Z-3.647 I0 J0.163
X-6.7 Y-1.163 Z-3.708 I0 J-0.163
X-6.7 Y-0.837 Z-3.769 I0 J0.163
X-6.7 Y-1.163 Z-3.831 I0 J-0.163
X-6.7 Y-0.837 Z-3.892 I0 J0.163
X-6.7 Y-1.163 Z-3.953 I0 J-0.163
X-6.7 Y-0.837 Z-4.014 I0 J0.163
X-6.7 Y-1.163 Z-4.075 I0 J-0.163
X-6.7 Y-0.837 Z-4.136 I0 J0.163
X-6.7 Y-1.163 Z-4.197 I0 J-0.163
X-6.7 Y-0.837 Z-4.258 I0 J0.163
X-6.7 Y-1.163 Z-4.319 I0 J-0.163
X-6.7 Y-0.837 Z-4.381 I0 J0.163
X-6.7 Y-1.163 Z-4.442 I0 J-0.163
X-6.7 Y-0.837 Z-4.503 I0 J0.163
X-6.7 Y-1.163 Z-4.564 I0 J-0.163
X-6.7 Y-0.837 Z-4.625 I0 J0.163
X-6.7 Y-1.163 Z-4.686 I0 J-0.163
X-6.7 Y-0.837 Z-4.747 I0 J0.163
X-6.7 Y-1.163 Z-4.808 I0 J-0.163
X-6.7 Y-0.837 Z-4.869 I0 J0.163
X-6.7 Y-1.163 Z-4.931 I0 J-0.163
X-6.7 Y-0.837 Z-4.992 I0 J0.163
X-6.7 Y-1.163 Z-5.053 I0 J-0.163
X-6.7 Y-0.837 Z-5.114 I0 J0.163
X-6.7 Y-1.163 Z-5.175 I0 J-0.163
X-6.7 Y-0.837 Z-5.236 I0 J0.163
X-6.7 Y-1.163 Z-5.297 I0 J-0.163
X-6.7 Y-0.837 Z-5.358 I0 J0.163
X-6.7 Y-1.163 Z-5.419 I0 J-0.163
X-6.7 Y-0.837 Z-5.481 I0 J0.163
X-6.7 Y-1.163 Z-5.542 I0 J-0.163
X-6.7 Y-0.837 Z-5.603 I0 J0.163
X-6.7 Y-1.163 Z-5.664 I0 J-0.163
X-6.7 Y-0.837 Z-5.725 I0 J0.163
X-6.7 Y-1.163 Z-5.786 I0 J-0.163
X-6.7 Y-0.837 Z-5.847 I0 J0.163
X-6.7 Y-1.163 Z-5.908 I0 J-0.163
X-6.7 Y-0.837 Z-5.969 I0 J0.163
X-6.7 Y-1.163 Z-6.031 I0 J-0.163
X-6.7 Y-0.837 Z-6.092 I0 J0.163
X-6.7 Y-1.163 Z-6.153 I0 J-0.163
X-6.7 Y-0.837 Z-6.214 I0 J0.163
X-6.7 Y-1.163 Z-6.275 I0 J-0.163
X-6.7 Y-0.837 Z-6.336 I0 J0.163
X-6.7 Y-1.163 Z-6.397 I0 J-0.163
X-6.7 Y-0.837 Z-6.458 I0 J0.163
X-6.7 Y-1.163 Z-6.519 I0 J-0.163
X-6.7 Y-0.837 Z-6.581 I0 J0.163
X-6.7 Y-1.163 Z-6.642 I0 J-0.163
X-6.7 Y-0.837 Z-6.703 I0 J0.163
X-6.7 Y-1.163 Z-6.764 I0 J-0.163
X-6.7 Y-0.837 Z-6.825 I0 J0.163
X-6.7 Y-1.163 Z-6.886 I0 J-0.163
X-6.7 Y-0.837 Z-6.947 I0 J0.163
X-6.7 Y-1.163 Z-7.008 I0 J-0.163
X-6.7 Y-0.837 Z-7.069 I0 J0.163
X-6.7 Y-1.163 Z-7.131 I0 J-0.163
X-6.7 Y-0.837 Z-7.192 I0 J0.163
X-6.7 Y-1.163 Z-7.253 I0 J-0.163
X-6.7 Y-0.837 Z-7.314 I0 J0.163
X-6.7 Y-1.163 Z-7.375 I0 J-0.163
X-6.7 Y-0.837 Z-7.436 I0 J0.163
X-6.7 Y-1.163 Z-7.497 I0 J-0.163
X-6.7 Y-0.837 Z-7.558 I0 J0.163
X-6.7 Y-1.163 Z-7.619 I0 J-0.163
X-6.7 Y-0.837 Z-7.681 I0 J0.163
X-6.7 Y-1.163 Z-7.742 I0 J-0.163
X-6.7 Y-0.837 Z-7.803 I0 J0.163
X-6.7 Y-1.163 Z-7.864 I0 J-0.163
X-6.7 Y-0.837 Z-7.925 I0 J0.163
X-6.7 Y-1.163 Z-7.986 I0 J-0.163
X-6.7 Y-0.837 Z-8.047 I0 J0.163
X-6.7 Y-1.163 Z-8.108 I0 J-0.163
X-6.7 Y-0.837 Z-8.169 I0 J0.163
X-6.7 Y-1.163 Z-8.231 I0 J-0.163
X-6.7 Y-0.837 Z-8.292 I0 J0.163
X-6.7 Y-1.163 Z-8.353 I0 J-0.163
X-6.7 Y-0.837 Z-8.414 I0 J0.163
X-6.7 Y-1.163 Z-8.475 I0 J-0.163
X-6.7 Y-0.837 Z-8.536 I0 J0.163
X-6.7 Y-1.163 Z-8.597 I0 J-0.163
X-6.7 Y-0.837 Z-8.658 I0 J0.163
X-6.7 Y-1.163 Z-8.719 I0 J-0.163
X-6.7 Y-0.837 Z-8.781 I0 J0.163
X-6.7 Y-1.163 Z-8.842 I0 J-0.163
X-6.7 Y-0.837 Z-8.903 I0 J0.163
X-6.7 Y-1.163 Z-8.964 I0 J-0.163
X-6.7 Y-0.837 Z-9.025 I0 J0.163
X-6.7 Y-1.163 Z-9.086 I0 J-0.163
X-6.7 Y-0.837 Z-9.147 I0 J0.163
X-6.7 Y-1.163 Z-9.208 I0 J-0.163
X-6.7 Y-0.837 Z-9.269 I0 J0.163
X-6.7 Y-1.163 Z-9.331 I0 J-0.163
X-6.7 Y-0.837 Z-9.392 I0 J0.163
X-6.7 Y-1.163 Z-9.453 I0 J-0.163
X-6.7 Y-0.837 Z-9.514 I0 J0.163
X-6.7 Y-1.163 Z-9.575 I0 J-0.163
X-6.7 Y-0.837 Z-9.636 I0 J0.163
X-6.7 Y-1.163 Z-9.697 I0 J-0.163
X-6.7 Y-0.837 Z-9.758 I0 J0.163
X-6.7 Y-1.163 Z-9.819 I0 J-0.163
X-6.7 Y-0.837 Z-9.881 I0 J0.163
X-6.7 Y-1.163 Z-9.942 I0 J-0.163
X-6.7 Y-0.837 Z-10.003 I0 J0.163
X-6.7 Y-1.163 Z-10.064 I0 J-0.163
X-6.7 Y-0.837 Z-10.125 I0 J0.163
X-6.7 Y-1.163 Z-10.186 I0 J-0.163
X-6.7 Y-0.837 Z-10.247 I0 J0.163
X-6.7 Y-1.163 Z-10.308 I0 J-0.163
X-6.7 Y-0.837 Z-10.369 I0 J0.163
X-6.7 Y-1.163 Z-10.431 I0 J-0.163
X-6.7 Y-0.837 Z-10.492 I0 J0.163
X-6.861 Y-1.023 Z-10.525 I0 J-0.163
X-6.539 Y-0.977 I0.161 J0.023
X-6.861 Y-1.023 I-0.161 J-0.023
G1 X-6.85 Y-1.053
X-6.829 Y-1.076
X-6.801 Y-1.09
X-6.769 Y-1.092
X-6.612 Y-1.07
Z15
M5
M30
