(1003pocket1)
(Machine)
(  vendor: Nikodem Bartnik)
(  model: Generic 3-axis Router)
(  description: This machine has XYZ axis on the Head)
(T1  D=1.75 CR=0 - ZMIN=-5.675 - flat end mill)
G90 G94
G17
G21
(When using Fusion 360 for Personal Use, the feedrate of)
(rapid moves is reduced to match the feedrate of cutting)
(moves, which can increase machining time. Unrestricted rapid)
(moves are available with a Fusion 360 Subscription.)

(Pocket1)
T1
S8000 M3
G54
G0 X10.382 Y-8.671
Z15
G1 Z-1.841 F30
Z-2.666 F10
X10.394 Y-8.667 Z-2.732 F30
X10.428 Y-8.652 Z-2.788
X10.476 Y-8.627 Z-2.826
X10.532 Y-8.593 Z-2.841
G3 X9.616 Y-7.206 Z-2.929 I-0.458 J0.694
X10.532 Y-8.593 Z-3.016 I0.458 J-0.694
X9.616 Y-7.206 Z-3.104 I-0.458 J0.694
X10.532 Y-8.593 Z-3.191 I0.458 J-0.694
X9.616 Y-7.206 Z-3.279 I-0.458 J0.694
X10.532 Y-8.593 Z-3.366 I0.458 J-0.694
X9.616 Y-7.206 Z-3.454 I-0.458 J0.694
X10.532 Y-8.593 Z-3.541 I0.458 J-0.694
X9.616 Y-7.206 Z-3.629 I-0.458 J0.694
X10.074 Y-8.731 Z-3.7 I0.458 J-0.694
G1 X10.469
G3 X10.805 Y-8.395 I0 J0.335
G1 Y-7.605
G3 X10.469 Y-7.269 I-0.335 J0
G1 X-10.469
G3 X-10.805 Y-7.605 I0 J-0.335
G1 Y-8.395
G3 X-10.469 Y-8.731 I0.335 J0
G1 X10.074
G2 X10.839 Y-9.253 I0 J-0.822
G3 X11.75 Y-9.081 I0.439 J0.172
G1 Y-6.66
G3 X11.414 Y-6.324 I-0.335 J0
G1 X-11.414
G3 X-11.75 Y-6.66 I0 J-0.335
G1 Y-9.34
G3 X-11.414 Y-9.676 I0.335 J0
G1 X11.414
G3 X11.75 Y-9.34 I0 J0.335
G1 Y-9.081
G2 X12.225 Y-8.368 I0.772 J0
G3 X12.7 Y-7.656 I-0.297 J0.713
G1 Y-5.374
X-12.7
Y-10.626
X12.7
Y-7.656
X12.697 Y-7.623 Z-3.693
X12.687 Y-7.59 Z-3.687
X12.675 Y-7.565 Z-3.668
X12.658 Y-7.542 Z-3.649
X12.63 Y-7.516 Z-3.592
X12.62 Y-7.509 Z-3.525
Z5
X-10.382 Y-7.329
Z-2.841
X-10.394 Y-7.333 Z-2.907
X-10.428 Y-7.348 Z-2.963
X-10.476 Y-7.373 Z-3.001
X-10.532 Y-7.407 Z-3.016
G3 X-9.616 Y-8.794 Z-3.104 I0.458 J-0.694
X-10.532 Y-7.407 Z-3.191 I-0.458 J0.694
X-9.616 Y-8.794 Z-3.279 I0.458 J-0.694
X-10.532 Y-7.407 Z-3.366 I-0.458 J0.694
X-9.616 Y-8.794 Z-3.454 I0.458 J-0.694
X-10.532 Y-7.407 Z-3.541 I-0.458 J0.694
X-9.616 Y-8.794 Z-3.629 I0.458 J-0.694
X-10.532 Y-7.407 Z-3.716 I-0.458 J0.694
X-9.616 Y-8.794 Z-3.804 I0.458 J-0.694
X-10.074 Y-7.269 Z-3.875 I-0.458 J0.694
G1 X-10.469
G3 X-10.805 Y-7.605 I0 J-0.335
G1 Y-8.395
G3 X-10.469 Y-8.731 I0.335 J0
G1 X10.469
G3 X10.805 Y-8.395 I0 J0.335
G1 Y-7.605
G3 X10.469 Y-7.269 I-0.335 J0
G1 X-10.074
G2 X-10.839 Y-6.747 I0 J0.822
G3 X-11.75 Y-6.919 I-0.439 J-0.172
G1 Y-9.34
G3 X-11.414 Y-9.676 I0.335 J0
G1 X11.414
G3 X11.75 Y-9.34 I0 J0.335
G1 Y-6.66
G3 X11.414 Y-6.324 I-0.335 J0
G1 X-11.414
G3 X-11.75 Y-6.66 I0 J-0.335
G1 Y-6.919
G2 X-12.225 Y-7.632 I-0.772 J0
G3 X-12.7 Y-8.344 I0.297 J-0.713
G1 Y-10.626
X12.7
Y-5.374
X-12.7
Y-8.344
X-12.697 Y-8.377 Z-3.868
X-12.687 Y-8.41 Z-3.862
X-12.675 Y-8.435 Z-3.843
X-12.658 Y-8.458 Z-3.824
X-12.63 Y-8.484 Z-3.767
X-12.62 Y-8.491 Z-3.7
Z5
X10.895 Y-7.972
Z-3.016
X10.893 Y-7.959 Z-3.082
X10.886 Y-7.923 Z-3.138
X10.873 Y-7.87 Z-3.176
X10.852 Y-7.809 Z-3.191
G3 X9.296 Y-8.393 Z-3.279 I-0.778 J-0.292
X10.852 Y-7.809 Z-3.366 I0.778 J0.292
X9.296 Y-8.393 Z-3.454 I-0.778 J-0.292
X10.852 Y-7.809 Z-3.541 I0.778 J0.292
X9.296 Y-8.393 Z-3.629 I-0.778 J-0.292
X10.852 Y-7.809 Z-3.716 I0.778 J0.292
X9.296 Y-8.393 Z-3.804 I-0.778 J-0.292
X10.852 Y-7.809 Z-3.891 I0.778 J0.292
X10.074 Y-7.269 Z-3.925 I-0.778 J-0.292
G1 X-10.469
G3 X-10.805 Y-7.605 I0 J-0.335
G1 Y-8.395
G3 X-10.469 Y-8.731 I0.335 J0
G1 X10.469
G3 X10.805 Y-8.395 I0 J0.335
G1 Y-7.605
G3 X10.469 Y-7.269 I-0.335 J0
G1 X10.074
G2 X9.365 Y-6.797 I0 J0.768
G3 X8.657 Y-6.324 I-0.709 J-0.295
G1 X-11.414
G3 X-11.75 Y-6.66 I0 J-0.335
G1 Y-9.34
G3 X-11.414 Y-9.676 I0.335 J0
G1 X11.414
G3 X11.75 Y-9.34 I0 J0.335
G1 Y-6.66
G3 X11.414 Y-6.324 I-0.335 J0
G1 X8.657
G2 X7.944 Y-5.849 I0 J0.772
G3 X7.231 Y-5.374 I-0.713 J-0.297
G1 X-12.7
Y-10.626
X12.7
Y-5.374
X7.231
X7.198 Y-5.377 Z-3.918
X7.166 Y-5.387 Z-3.912
X7.141 Y-5.399 Z-3.893
X7.118 Y-5.416 Z-3.874
X7.092 Y-5.444 Z-3.817
X7.084 Y-5.455 Z-3.75
Z5
X-0.729 Y3.305
Z-2.666
X-0.724 Y3.294 Z-2.732
X-0.709 Y3.26 Z-2.788
X-0.684 Y3.211 Z-2.826
X-0.651 Y3.156 Z-2.841
G3 X0.738 Y4.069 Z-2.929 I0.695 J0.457
X-0.651 Y3.156 Z-3.016 I-0.695 J-0.457
X0.738 Y4.069 Z-3.104 I0.695 J0.457
X-0.651 Y3.156 Z-3.191 I-0.695 J-0.457
X0.738 Y4.069 Z-3.279 I0.695 J0.457
X-0.651 Y3.156 Z-3.366 I-0.695 J-0.457
X0.738 Y4.069 Z-3.454 I0.695 J0.457
X-0.651 Y3.156 Z-3.541 I-0.695 J-0.457
X0.738 Y4.069 Z-3.629 I0.695 J0.457
X-0.787 Y3.614 Z-3.7 I-0.695 J-0.457
G1 X-0.788 Y3.161
G3 X-0.453 Y2.825 I0.335 J0
G1 X0.452
G3 X0.787 Y3.161 I0 J0.335
G1 X0.77 Y14.214
G3 X0.433 Y14.55 I-0.336 J-0.001
G1 X0
X-0.432
G3 X-0.769 Y14.214 I0 J-0.336
G1 X-0.787 Y3.614
G2 X-1.263 Y2.901 I-0.774 J0.001
G3 X-1.738 Y2.189 I0.296 J-0.712
G1 Y1.875
X1.738
X1.731 Y10.023
X1.716 Y15.5
X-1.721
X-1.718 Y14.626
X-1.738 Y5.422
Y2.189
X-1.735 Y2.156 Z-3.693
X-1.726 Y2.124 Z-3.687
X-1.713 Y2.098 Z-3.668
X-1.696 Y2.075 Z-3.649
X-1.669 Y2.049 Z-3.592
X-1.658 Y2.042 Z-3.525
Z5
X0.693 Y3.888
Z-2.841
X0.688 Y3.9 Z-2.907
X0.673 Y3.933 Z-2.963
X0.648 Y3.982 Z-3.001
X0.614 Y4.038 Z-3.016
G3 X-0.771 Y3.118 Z-3.104 I-0.692 J-0.46
X0.614 Y4.038 Z-3.191 I0.692 J0.46
X-0.771 Y3.118 Z-3.279 I-0.692 J-0.46
X0.614 Y4.038 Z-3.366 I0.692 J0.46
X-0.771 Y3.118 Z-3.454 I-0.692 J-0.46
X0.614 Y4.038 Z-3.541 I0.692 J0.46
X-0.771 Y3.118 Z-3.629 I-0.692 J-0.46
X0.614 Y4.038 Z-3.716 I0.692 J0.46
X-0.771 Y3.118 Z-3.804 I-0.692 J-0.46
X0.753 Y3.58 Z-3.875 I0.692 J0.46
G1 X0.723 Y14.214
G3 X0.386 Y14.55 I-0.336 J-0.001
G1 X0
X-0.386
G3 X-0.723 Y14.214 I0 J-0.336
G1 X-0.754 Y3.16
G3 X-0.42 Y2.825 I0.334 J-0.001
G1 X0.42
G3 X0.754 Y3.16 I0 J0.334
G1 X0.753 Y3.58
G2 X1.226 Y4.294 I0.772 J0.002
G3 X1.699 Y5.008 I-0.299 J0.712
G1 X1.669 Y15.5
X-1.669
X-1.708 Y1.875
X1.708
X1.699 Y5.008
G3 X1.385 Y5.114 I-0.175 J0
G1 X-0.139 Y3.106 Z-3.925
G3 X0 Y2.825 I0.139 J-0.106
G1 X0.409
G3 X0.743 Y3.16 I0 J0.334
G1 X0.712 Y14.214
G3 X0.375 Y14.55 I-0.336 J-0.001
G1 X0
X-0.375
G3 X-0.712 Y14.214 I0 J-0.336
G1 X-0.743 Y3.16
G3 X-0.409 Y2.825 I0.334 J-0.001
G1 X0
G2 X0.713 Y2.35 I0 J-0.772
G3 X1.425 Y1.875 I0.713 J0.297
G1 X1.697
X1.659 Y15.5
X-1.659
X-1.697 Y1.875
X1.425
X1.459 Y1.878 Z-3.918
X1.491 Y1.888 Z-3.912
X1.516 Y1.9 Z-3.893
X1.539 Y1.917 Z-3.874
X1.565 Y1.945 Z-3.817
X1.573 Y1.955 Z-3.75
Z5
X0.633 Y3.829
Z-3.066
X0.628 Y3.841 Z-3.132
X0.613 Y3.874 Z-3.188
X0.588 Y3.923 Z-3.226
X0.555 Y3.978 Z-3.241
G3 X-0.83 Y3.058 Z-3.329 I-0.692 J-0.46
X0.555 Y3.978 Z-3.416 I0.692 J0.46
X-0.83 Y3.058 Z-3.504 I-0.692 J-0.46
X0.555 Y3.978 Z-3.591 I0.692 J0.46
X-0.83 Y3.058 Z-3.679 I-0.692 J-0.46
X0.555 Y3.978 Z-3.766 I0.692 J0.46
X-0.83 Y3.058 Z-3.854 I-0.692 J-0.46
X0.555 Y3.978 Z-3.941 I0.692 J0.46
X-0.83 Y3.058 Z-4.029 I-0.692 J-0.46
X0.693 Y3.521 Z-4.1 I0.692 J0.46
G1 X0.662 Y14.214
G3 X0.326 Y14.55 I-0.337 J-0.001
G1 X0
X-0.326
G3 X-0.662 Y14.214 I0 J-0.337
G1 X-0.694 Y3.16
G3 X-0.36 Y2.825 I0.334 J-0.001
G1 X0.36
G3 X0.694 Y3.16 I0 J0.334
G1 X0.693 Y3.521
G2 X1.166 Y4.235 I0.772 J0.002
G3 X1.639 Y4.949 I-0.299 J0.712
G1 X1.609 Y15.5
X-1.609
X-1.648 Y1.875
X1.648
X1.639 Y4.949
X1.636 Y4.982 Z-4.093
X1.627 Y5.014 Z-4.087
X1.614 Y5.039 Z-4.068
X1.597 Y5.062 Z-4.049
X1.57 Y5.088 Z-3.992
X1.559 Y5.096 Z-3.925
Z5
X-0.579 Y3.155
Z-3.241
X-0.574 Y3.143 Z-3.307
X-0.559 Y3.11 Z-3.363
X-0.534 Y3.061 Z-3.401
X-0.501 Y3.005 Z-3.416
G3 X0.889 Y3.918 Z-3.504 I0.695 J0.456
X-0.501 Y3.005 Z-3.591 I-0.695 J-0.456
X0.889 Y3.918 Z-3.679 I0.695 J0.456
X-0.501 Y3.005 Z-3.766 I-0.695 J-0.456
X0.889 Y3.918 Z-3.854 I0.695 J0.456
X-0.501 Y3.005 Z-3.941 I-0.695 J-0.456
X0.889 Y3.918 Z-4.029 I0.695 J0.456
X-0.501 Y3.005 Z-4.116 I-0.695 J-0.456
X0.889 Y3.918 Z-4.204 I0.695 J0.456
X-0.637 Y3.464 Z-4.275 I-0.695 J-0.456
G1 X-0.638 Y3.161
G3 X-0.303 Y2.825 I0.335 J0
G1 X0.301
G3 X0.636 Y3.16 I0 J0.335
G1 X0.615 Y14.214
G3 X0.279 Y14.55 I-0.336 J-0.001
G1 X0
X-0.278
G3 X-0.614 Y14.214 I0 J-0.336
G1 X-0.637 Y3.464
G2 X-1.113 Y2.751 I-0.773 J0.002
G3 X-1.588 Y2.039 I0.296 J-0.712
G1 Y1.875
X1.588
X1.58 Y9.037
X1.562 Y15.5
X-1.566
X-1.563 Y14.626
X-1.588 Y4.436
Y2.039
Z-4.1
Z5
X0.308 Y2.885
Z-3.416
X0.32 Y2.889 Z-3.482
X0.353 Y2.904 Z-3.538
X0.402 Y2.929 Z-3.576
X0.458 Y2.963 Z-3.591
G3 X-0.458 Y4.35 Z-3.679 I-0.458 J0.694
X0.458 Y2.963 Z-3.766 I0.458 J-0.694
X-0.458 Y4.35 Z-3.854 I-0.458 J0.694
X0.458 Y2.963 Z-3.941 I0.458 J-0.694
X-0.458 Y4.35 Z-4.029 I-0.458 J0.694
X0.458 Y2.963 Z-4.116 I0.458 J-0.694
X-0.458 Y4.35 Z-4.204 I-0.458 J0.694
X0.458 Y2.963 Z-4.291 I0.458 J-0.694
X-0.458 Y4.35 Z-4.379 I-0.458 J0.694
X0 Y2.825 Z-4.45 I0.458 J-0.694
G1 X0.235
G3 X0.571 Y3.161 I0 J0.335
G1 X0.567 Y14.214
G3 X0.231 Y14.55 I-0.335 J0
G1 X0
X-0.231
G3 X-0.567 Y14.214 I0 J-0.335
G1 X-0.571 Y3.161
G3 X-0.235 Y2.825 I0.335 J0
G1 X0
G2 X0.713 Y2.35 I0 J-0.772
G3 X1.425 Y1.875 I0.713 J0.297
G1 X1.521
X1.517 Y15.5
X-1.517
X-1.521 Y1.875
X1.425
Z-4.275
Z5
X-0.412 Y3.938
Z-3.591
X-0.407 Y3.926 Z-3.657
X-0.392 Y3.893 Z-3.713
X-0.368 Y3.844 Z-3.751
X-0.334 Y3.789 Z-3.766
G3 X1.055 Y4.702 Z-3.854 I0.695 J0.457
X-0.334 Y3.789 Z-3.941 I-0.695 J-0.457
X1.055 Y4.702 Z-4.029 I0.695 J0.457
X-0.334 Y3.789 Z-4.116 I-0.695 J-0.457
X1.055 Y4.702 Z-4.204 I0.695 J0.457
X-0.334 Y3.789 Z-4.291 I-0.695 J-0.457
X1.055 Y4.702 Z-4.379 I0.695 J0.457
X-0.334 Y3.789 Z-4.466 I-0.695 J-0.457
X1.055 Y4.702 Z-4.554 I0.695 J0.457
X-0.471 Y4.247 Z-4.625 I-0.695 J-0.457
G1 Y4.111
G3 X-0.136 Y3.775 I0.335 J0
G1 X0.135
G3 X0.47 Y4.111 I0 J0.335
G1 X0.452 Y14.214
G3 X0.115 Y14.55 I-0.337 J-0.001
G1 X0
X-0.114
G3 X-0.45 Y14.214 I0 J-0.337
G1 X-0.471 Y4.247
G2 X-0.883 Y3.585 I-0.74 J0.002
G3 X-0.706 Y2.825 I0.177 J-0.359
G1 X1.421
X1.417 Y10.351
X1.397 Y15.5
X-1.401
X-1.398 Y14.955
X-1.422 Y8.051
X-1.421 Y2.825
X-0.706
X-0.673 Y2.828 Z-4.618
X-0.641 Y2.838 Z-4.612
X-0.615 Y2.85 Z-4.593
X-0.592 Y2.867 Z-4.574
X-0.566 Y2.895 Z-4.517
X-0.559 Y2.906 Z-4.45
Z5
X0.303 Y5.398
Z-1.85
Z-3.766 F10
X0.298 Y5.409 Z-3.832 F30
X0.283 Y5.443 Z-3.888
X0.258 Y5.491 Z-3.926
X0.224 Y5.547 Z-3.941
G3 X-1.16 Y4.625 Z-4.029 I-0.692 J-0.461
X0.224 Y5.547 Z-4.116 I0.692 J0.461
X-1.16 Y4.625 Z-4.204 I-0.692 J-0.461
X0.224 Y5.547 Z-4.291 I0.692 J0.461
X-1.16 Y4.625 Z-4.379 I-0.692 J-0.461
X0.224 Y5.547 Z-4.466 I0.692 J0.461
X-1.16 Y4.625 Z-4.554 I-0.692 J-0.461
X0.224 Y5.547 Z-4.641 I0.692 J0.461
X-1.16 Y4.625 Z-4.729 I-0.692 J-0.461
X0.363 Y5.09 Z-4.8 I0.692 J0.461
G1 X0.326 Y14.219
G3 X-0.326 Y14.219 I-0.326 J-0.001
G1 X-0.363 Y5.06
G3 X-0.03 Y4.725 I0.334 J-0.001
G1 X0.03
G3 X0.363 Y5.06 I0 J0.334
G1 Y5.09
G2 X0.835 Y5.804 I0.772 J0.003
G3 X1.308 Y6.519 I-0.3 J0.711
G1 X1.271 Y15.5
X-1.271
X-1.319 Y3.775
X1.319
X1.308 Y6.519
X1.304 Y6.552 Z-4.793
X1.295 Y6.584 Z-4.787
X1.282 Y6.609 Z-4.768
X1.265 Y6.632 Z-4.749
X1.238 Y6.658 Z-4.692
X1.227 Y6.666 Z-4.625
Z5
X-1.111 Y5.643
Z-1.85
Z-3.941 F10
X-1.106 Y5.631 Z-4.007 F30
X-1.091 Y5.598 Z-4.063
X-1.066 Y5.549 Z-4.101
X-1.032 Y5.494 Z-4.116
G3 X0.352 Y6.415 Z-4.204 I0.692 J0.461
X-1.032 Y5.494 Z-4.291 I-0.692 J-0.461
X0.352 Y6.415 Z-4.379 I0.692 J0.461
X-1.032 Y5.494 Z-4.466 I-0.692 J-0.461
X0.352 Y6.415 Z-4.554 I0.692 J0.461
X-1.032 Y5.494 Z-4.641 I-0.692 J-0.461
X0.352 Y6.415 Z-4.729 I0.692 J0.461
X-1.032 Y5.494 Z-4.816 I-0.692 J-0.461
X0.352 Y6.415 Z-4.904 I0.692 J0.461
X-1.172 Y5.951 Z-4.975 I-0.692 J-0.461
X0.226 Y5.957 I0.699 J0.003
G1 X0.193 Y14.283
G3 X-0.192 Y14.283 I-0.192 J-0.001
G1 X-0.226 Y5.914
G3 X-0.042 Y5.73 I0.184 J-0.001
G1 X0.042
G3 X0.226 Y5.914 I0 J0.184
G1 Y5.957
G2 X0.698 Y6.671 I0.772 J0.003
G3 X1.171 Y7.386 I-0.3 J0.711
G1 X1.138 Y15.5
X-1.142 Y15.498
X-1.139 Y14.955
X-1.181 Y4.779
X1.181
X1.171 Y7.386
X1.167 Y7.419 Z-4.968
X1.158 Y7.451 Z-4.962
X1.145 Y7.476 Z-4.943
X1.128 Y7.499 Z-4.924
X1.101 Y7.525 Z-4.867
X1.09 Y7.533 Z-4.8
Z5
X0.95 Y8.027
Z-1.85
Z-4.116 F10
X0.946 Y8.039 Z-4.182 F30
X0.931 Y8.072 Z-4.238
X0.906 Y8.121 Z-4.276
X0.873 Y8.177 Z-4.291
G3 X-0.517 Y7.265 Z-4.379 I-0.695 J-0.456
X0.873 Y8.177 Z-4.466 I0.695 J0.456
X-0.517 Y7.265 Z-4.554 I-0.695 J-0.456
X0.873 Y8.177 Z-4.641 I0.695 J0.456
X-0.517 Y7.265 Z-4.729 I-0.695 J-0.456
X0.873 Y8.177 Z-4.816 I0.695 J0.456
X-0.517 Y7.265 Z-4.904 I-0.695 J-0.456
X0.873 Y8.177 Z-4.991 I0.695 J0.456
X-0.517 Y7.265 Z-5.079 I-0.695 J-0.456
X1.009 Y7.718 Z-5.15 I0.695 J0.456
X-0.116 Y7.721 I-0.563 J0.002
G1 X-0.119 Y6.887
X-0.112 Y6.846
X-0.091 Y6.811
X-0.06 Y6.785
X-0.021 Y6.771
X0.02
X0.058 Y6.785
X0.089 Y6.811
X0.11 Y6.847
X0.117 Y6.887
X0.098 Y14.388
X0.091 Y14.425
X0.069 Y14.457
X0.038 Y14.478
X0 Y14.485
X-0.037 Y14.478
X-0.069 Y14.457
X-0.09 Y14.425
X-0.098 Y14.388
X-0.116 Y7.721
G2 X-0.575 Y7.034 I-0.747 J0.002
G3 X-1.033 Y6.347 I0.285 J-0.687
G1 Y5.756
X1.032
X1.03 Y10.022
X1.009 Y15.5
X-1.009
X-1.034 Y7.722
X-1.033 Y6.347
X-1.03 Y6.314 Z-5.143
X-1.021 Y6.282 Z-5.137
X-1.008 Y6.256 Z-5.118
X-0.991 Y6.233 Z-5.099
X-0.964 Y6.207 Z-5.042
X-0.953 Y6.2 Z-4.975
Z5
X0.308 Y6.793
Z-1.85
Z-4.291 F10
X0.32 Y6.798 Z-4.357 F30
X0.353 Y6.812 Z-4.413
X0.402 Y6.837 Z-4.451
X0.458 Y6.871 Z-4.466
G3 X-0.458 Y8.259 Z-4.554 I-0.458 J0.694
X0.458 Y6.871 Z-4.641 I0.458 J-0.694
X-0.458 Y8.259 Z-4.729 I-0.458 J0.694
X0.458 Y6.871 Z-4.816 I0.458 J-0.694
X-0.458 Y8.259 Z-4.904 I-0.458 J0.694
X0.458 Y6.871 Z-4.991 I0.458 J-0.694
X-0.458 Y8.259 Z-5.079 I-0.458 J0.694
X0.458 Y6.871 Z-5.166 I0.458 J-0.694
X-0.458 Y8.259 Z-5.254 I-0.458 J0.694
X0 Y6.734 Z-5.325 I0.458 J-0.694
G1 X0.854
X0.84 Y14.293
X0.828 Y15.499
X-0.828 Y15.497
X-0.847 Y12.651
X-0.854 Y6.734
X0
X0.033 Y6.737 Z-5.318
X0.065 Y6.746 Z-5.312
X0.09 Y6.759 Z-5.293
X0.113 Y6.776 Z-5.274
X0.139 Y6.803 Z-5.217
X0.147 Y6.814 Z-5.15
Z5
X0 Y15.5
Z-3.65 F10
Z-5.5 F30
X-0.554
Y14.953
X-0.618 Y8.378
X-0.62 Y7.711
X0.618
X0.609 Y9.691
X0.55 Y15.5
X0
Z-5.675
X-0.275
Y14.953
X-0.315 Y10.678
X-0.323 Y8.688
X0.322
X0.303 Y12.32
X0.271 Y15.5
X0
X-0.033 Y15.497 Z-5.668
X-0.065 Y15.487 Z-5.662
X-0.091 Y15.475 Z-5.643
X-0.114 Y15.458 Z-5.624
X-0.14 Y15.43 Z-5.567
X-0.147 Y15.42 Z-5.5
Z15
M5
M30
