(1004)
(Machine)
(  vendor: Nikodem Bartnik)
(  model: Generic 3-axis Router)
(  description: This machine has XYZ axis on the Head)
(T2  D=3.175 CR=0 - ZMIN=-4.9 - flat end mill)
G90 G94
G17
G21
(When using Fusion 360 for Personal Use, the feedrate of)
(rapid moves is reduced to match the feedrate of cutting)
(moves, which can increase machining time. Unrestricted rapid)
(moves are available with a Fusion 360 Subscription.)

(Face7)
T2
S5000 M3
G54
G0 X6.375 Y22.536
Z6
G1 Z1 F50
Z-0.582 F10
G19 G2 Y22.218 Z-0.9 J-0.318 K0
G1 Y20.998
Y-20.998 F50
Y-21
G17 G2 X5.409 Y-21 I-0.483 J0
G1 Y21
G3 X4.444 Y21 I-0.483 J0
G1 Y-21
G2 X3.479 Y-21 I-0.483 J0
G1 Y21
G3 X2.513 Y21 I-0.483 J0
G1 Y-21
G2 X1.548 Y-21 I-0.483 J0
G1 Y21
G3 X0.582 Y21 I-0.483 J0
G1 Y-21
G2 X-0.383 Y-21 I-0.483 J0
G1 Y21
G3 X-1.348 Y21 I-0.483 J0
G1 Y-21
G2 X-2.314 Y-21 I-0.483 J0
G1 Y21
G3 X-3.279 Y21 I-0.483 J0
G1 Y-21
G2 X-4.244 Y-21 I-0.483 J0
G1 Y21
G19 G3 Y21.317 Z-0.582 J0 K0.317
G1 Z3
X6.375 Y22.536
Z1
Z-2.582 F10
G2 Y22.218 Z-2.9 J-0.318 K0
G1 Y20.998
Y-20.998 F50
Y-21
G17 G2 X5.409 Y-21 I-0.483 J0
G1 Y21
G3 X4.444 Y21 I-0.483 J0
G1 Y-21
G2 X3.479 Y-21 I-0.483 J0
G1 Y21
G3 X2.513 Y21 I-0.483 J0
G1 Y-21
G2 X1.548 Y-21 I-0.483 J0
G1 Y21
G3 X0.582 Y21 I-0.483 J0
G1 Y-21
G2 X-0.383 Y-21 I-0.483 J0
G1 Y21
G3 X-1.348 Y21 I-0.483 J0
G1 Y-21
G2 X-2.314 Y-21 I-0.483 J0
G1 Y21
G3 X-3.279 Y21 I-0.483 J0
G1 Y-21
G2 X-4.244 Y-21 I-0.483 J0
G1 Y21
G19 G3 Y21.317 Z-2.582 J0 K0.318
G1 Z3
X6.375 Y22.536
Z1
Z-4.582 F10
G2 Y22.218 Z-4.9 J-0.318 K0
G1 Y20.998
Y-20.998 F50
Y-21
G17 G2 X5.409 Y-21 I-0.483 J0
G1 Y21
G3 X4.444 Y21 I-0.483 J0
G1 Y-21
G2 X3.479 Y-21 I-0.483 J0
G1 Y21
G3 X2.513 Y21 I-0.483 J0
G1 Y-21
G2 X1.548 Y-21 I-0.483 J0
G1 Y21
G3 X0.582 Y21 I-0.483 J0
G1 Y-21
G2 X-0.383 Y-21 I-0.483 J0
G1 Y21
G3 X-1.348 Y21 I-0.483 J0
G1 Y-21
G2 X-2.314 Y-21 I-0.483 J0
G1 Y21
G3 X-3.279 Y21 I-0.483 J0
G1 Y-21
G2 X-4.244 Y-21 I-0.483 J0
G1 Y21
G19 G3 Y21.317 Z-4.582 J0 K0.318
G1 Z6
G17
M5
M30
