(1011)
(Machine)
(  vendor: Nikodem Bartnik)
(  model: Generic 3-axis Router)
(  description: This machine has XYZ axis on the Head)
(T1  D=3.175 CR=0 - ZMIN=-8.9 - flat end mill)
G90 G94
G17
G21
(When using Fusion 360 for Personal Use, the feedrate of)
(rapid moves is reduced to match the feedrate of cutting)
(moves, which can increase machining time. Unrestricted rapid)
(moves are available with a Fusion 360 Subscription.)

(Bore1 2)
T1
S5000 M3
G54
G0 X0.119 Y-1.317
Z15
G1 Z-2.9 F50
Z-4.582 F10
G18 G2 X0.436 Z-4.9 I0.318 K0
G1 X0.595
G17 G3 X0.913 Y-1 I0 J0.317
X-0.913 Y-1 Z-4.987 I-0.913 J0 F50
X0.913 Y-1 Z-5.075 I0.913 J0
X-0.913 Y-1 Z-5.162 I-0.913 J0
X0.913 Y-1 Z-5.249 I0.913 J0
X-0.913 Y-1 Z-5.337 I-0.913 J0
X0.913 Y-1 Z-5.424 I0.913 J0
X-0.913 Y-1 Z-5.511 I-0.913 J0
X0.913 Y-1 Z-5.598 I0.913 J0
X-0.913 Y-1 Z-5.686 I-0.913 J0
X0.913 Y-1 Z-5.773 I0.913 J0
X-0.913 Y-1 Z-5.86 I-0.913 J0
X0.913 Y-1 Z-5.948 I0.913 J0
X-0.913 Y-1 Z-6.035 I-0.913 J0
X0.913 Y-1 Z-6.122 I0.913 J0
X-0.913 Y-1 Z-6.21 I-0.913 J0
X0.913 Y-1 Z-6.297 I0.913 J0
X-0.913 Y-1 Z-6.384 I-0.913 J0
X0.913 Y-1 Z-6.471 I0.913 J0
X-0.913 Y-1 Z-6.559 I-0.913 J0
X0.913 Y-1 Z-6.646 I0.913 J0
X-0.913 Y-1 Z-6.733 I-0.913 J0
X0.913 Y-1 Z-6.821 I0.913 J0
X-0.913 Y-1 Z-6.908 I-0.913 J0
X0.913 Y-1 Z-6.995 I0.913 J0
X-0.913 Y-1 Z-7.083 I-0.913 J0
X0.913 Y-1 Z-7.17 I0.913 J0
X-0.913 Y-1 Z-7.257 I-0.913 J0
X0.913 Y-1 Z-7.344 I0.913 J0
X-0.913 Y-1 Z-7.432 I-0.913 J0
X0.913 Y-1 Z-7.519 I0.913 J0
X-0.913 Y-1 Z-7.606 I-0.913 J0
X0.913 Y-1 Z-7.694 I0.913 J0
X-0.913 Y-1 Z-7.781 I-0.913 J0
X0.913 Y-1 Z-7.868 I0.913 J0
X-0.913 Y-1 Z-7.956 I-0.913 J0
X0.913 Y-1 Z-8.043 I0.913 J0
X-0.913 Y-1 Z-8.13 I-0.913 J0
X0.913 Y-1 Z-8.217 I0.913 J0
X-0.913 Y-1 Z-8.305 I-0.913 J0
X0.913 Y-1 Z-8.392 I0.913 J0
X-0.913 Y-1 Z-8.479 I-0.913 J0
X0.913 Y-1 Z-8.567 I0.913 J0
X-0.913 Y-1 Z-8.654 I-0.913 J0
X0.913 Y-1 Z-8.741 I0.913 J0
X-0.913 Y-1 Z-8.829 I-0.913 J0
X0.767 Y-1.494 Z-8.9 I0.913 J0
X-0.767 Y-0.506 I-0.767 J0.494
X0.767 Y-1.494 I0.767 J-0.494
X0.672 Y-1.055 I-0.267 J0.172
G1 X0.539 Y-0.969
X0.479 Y-0.931 Z-8.892
X0.423 Y-0.895 Z-8.869
X0.372 Y-0.862 Z-8.831
X0.33 Y-0.835 Z-8.78
X0.298 Y-0.814 Z-8.72
X0.278 Y-0.802 Z-8.653
X0.272 Y-0.797 Z-8.583
Z15
M5
M30
