(1012)
(Machine)
(  vendor: Nikodem Bartnik)
(  model: Generic 3-axis Router)
(  description: This machine has XYZ axis on the Head)
(T1  D=2 CR=0 - ZMIN=-9.9 - flat end mill)
G90 G94
G17
G21
(When using Fusion 360 for Personal Use, the feedrate of)
(rapid moves is reduced to match the feedrate of cutting)
(moves, which can increase machining time. Unrestricted rapid)
(moves are available with a Fusion 360 Subscription.)

(Bore small)
T1
S5000 M3
G54
G0 X-0.175 Y6.175
Z15
G1 Z-2.9 F50
Z-4.7 F10
G18 G2 X0.025 Z-4.9 I0.2 K0
G1 X0.125
X0.164 Y6.181
X0.198 Y6.199
X0.226 Y6.227
X0.244 Y6.261
X0.25 Y6.3
G17 G3 X-0.25 Y6.3 Z-4.944 I-0.25 J0 F50
X0.25 Y6.3 Z-4.987 I0.25 J0
X-0.25 Y6.3 Z-5.031 I-0.25 J0
X0.25 Y6.3 Z-5.075 I0.25 J0
X-0.25 Y6.3 Z-5.118 I-0.25 J0
X0.25 Y6.3 Z-5.162 I0.25 J0
X-0.25 Y6.3 Z-5.206 I-0.25 J0
X0.25 Y6.3 Z-5.249 I0.25 J0
X-0.25 Y6.3 Z-5.293 I-0.25 J0
X0.25 Y6.3 Z-5.337 I0.25 J0
X-0.25 Y6.3 Z-5.38 I-0.25 J0
X0.25 Y6.3 Z-5.424 I0.25 J0
X-0.25 Y6.3 Z-5.467 I-0.25 J0
X0.25 Y6.3 Z-5.511 I0.25 J0
X-0.25 Y6.3 Z-5.555 I-0.25 J0
X0.25 Y6.3 Z-5.598 I0.25 J0
X-0.25 Y6.3 Z-5.642 I-0.25 J0
X0.25 Y6.3 Z-5.686 I0.25 J0
X-0.25 Y6.3 Z-5.729 I-0.25 J0
X0.25 Y6.3 Z-5.773 I0.25 J0
X-0.25 Y6.3 Z-5.817 I-0.25 J0
X0.25 Y6.3 Z-5.86 I0.25 J0
X-0.25 Y6.3 Z-5.904 I-0.25 J0
X0.25 Y6.3 Z-5.948 I0.25 J0
X-0.25 Y6.3 Z-5.991 I-0.25 J0
X0.25 Y6.3 Z-6.035 I0.25 J0
X-0.25 Y6.3 Z-6.079 I-0.25 J0
X0.25 Y6.3 Z-6.122 I0.25 J0
X-0.25 Y6.3 Z-6.166 I-0.25 J0
X0.25 Y6.3 Z-6.21 I0.25 J0
X-0.25 Y6.3 Z-6.253 I-0.25 J0
X0.25 Y6.3 Z-6.297 I0.25 J0
X-0.25 Y6.3 Z-6.34 I-0.25 J0
X0.25 Y6.3 Z-6.384 I0.25 J0
X-0.25 Y6.3 Z-6.428 I-0.25 J0
X0.25 Y6.3 Z-6.471 I0.25 J0
X-0.25 Y6.3 Z-6.515 I-0.25 J0
X0.25 Y6.3 Z-6.559 I0.25 J0
X-0.25 Y6.3 Z-6.602 I-0.25 J0
X0.25 Y6.3 Z-6.646 I0.25 J0
X-0.25 Y6.3 Z-6.69 I-0.25 J0
X0.25 Y6.3 Z-6.733 I0.25 J0
X-0.25 Y6.3 Z-6.777 I-0.25 J0
X0.25 Y6.3 Z-6.821 I0.25 J0
X-0.25 Y6.3 Z-6.864 I-0.25 J0
X0.25 Y6.3 Z-6.908 I0.25 J0
X-0.25 Y6.3 Z-6.952 I-0.25 J0
X0.25 Y6.3 Z-6.995 I0.25 J0
X-0.25 Y6.3 Z-7.039 I-0.25 J0
X0.25 Y6.3 Z-7.083 I0.25 J0
X-0.25 Y6.3 Z-7.126 I-0.25 J0
X0.25 Y6.3 Z-7.17 I0.25 J0
X-0.25 Y6.3 Z-7.214 I-0.25 J0
X0.25 Y6.3 Z-7.257 I0.25 J0
X-0.25 Y6.3 Z-7.301 I-0.25 J0
X0.25 Y6.3 Z-7.344 I0.25 J0
X-0.25 Y6.3 Z-7.388 I-0.25 J0
X0.25 Y6.3 Z-7.432 I0.25 J0
X-0.25 Y6.3 Z-7.475 I-0.25 J0
X0.25 Y6.3 Z-7.519 I0.25 J0
X-0.25 Y6.3 Z-7.563 I-0.25 J0
X0.25 Y6.3 Z-7.606 I0.25 J0
X-0.25 Y6.3 Z-7.65 I-0.25 J0
X0.25 Y6.3 Z-7.694 I0.25 J0
X-0.25 Y6.3 Z-7.737 I-0.25 J0
X0.25 Y6.3 Z-7.781 I0.25 J0
X-0.25 Y6.3 Z-7.825 I-0.25 J0
X0.25 Y6.3 Z-7.868 I0.25 J0
X-0.25 Y6.3 Z-7.912 I-0.25 J0
X0.25 Y6.3 Z-7.956 I0.25 J0
X-0.25 Y6.3 Z-7.999 I-0.25 J0
X0.25 Y6.3 Z-8.043 I0.25 J0
X-0.25 Y6.3 Z-8.087 I-0.25 J0
X0.25 Y6.3 Z-8.13 I0.25 J0
X-0.25 Y6.3 Z-8.174 I-0.25 J0
X0.25 Y6.3 Z-8.217 I0.25 J0
X-0.25 Y6.3 Z-8.261 I-0.25 J0
X0.25 Y6.3 Z-8.305 I0.25 J0
X-0.25 Y6.3 Z-8.348 I-0.25 J0
X0.25 Y6.3 Z-8.392 I0.25 J0
X-0.25 Y6.3 Z-8.436 I-0.25 J0
X0.25 Y6.3 Z-8.479 I0.25 J0
X-0.25 Y6.3 Z-8.523 I-0.25 J0
X0.25 Y6.3 Z-8.567 I0.25 J0
X-0.25 Y6.3 Z-8.61 I-0.25 J0
X0.25 Y6.3 Z-8.654 I0.25 J0
X-0.25 Y6.3 Z-8.698 I-0.25 J0
X0.25 Y6.3 Z-8.741 I0.25 J0
X-0.25 Y6.3 Z-8.785 I-0.25 J0
X0.25 Y6.3 Z-8.829 I0.25 J0
X-0.25 Y6.3 Z-8.872 I-0.25 J0
X0.25 Y6.3 Z-8.916 I0.25 J0
X-0.25 Y6.3 Z-8.96 I-0.25 J0
X0.25 Y6.3 Z-9.003 I0.25 J0
X-0.25 Y6.3 Z-9.047 I-0.25 J0
X0.25 Y6.3 Z-9.09 I0.25 J0
X-0.25 Y6.3 Z-9.134 I-0.25 J0
X0.25 Y6.3 Z-9.178 I0.25 J0
X-0.25 Y6.3 Z-9.221 I-0.25 J0
X0.25 Y6.3 Z-9.265 I0.25 J0
X-0.25 Y6.3 Z-9.309 I-0.25 J0
X0.25 Y6.3 Z-9.352 I0.25 J0
X-0.25 Y6.3 Z-9.396 I-0.25 J0
X0.25 Y6.3 Z-9.44 I0.25 J0
X-0.25 Y6.3 Z-9.483 I-0.25 J0
X0.25 Y6.3 Z-9.527 I0.25 J0
X-0.25 Y6.3 Z-9.571 I-0.25 J0
X0.25 Y6.3 Z-9.614 I0.25 J0
X-0.25 Y6.3 Z-9.658 I-0.25 J0
X0.25 Y6.3 Z-9.702 I0.25 J0
X-0.25 Y6.3 Z-9.745 I-0.25 J0
X0.25 Y6.3 Z-9.789 I0.25 J0
X-0.25 Y6.3 Z-9.833 I-0.25 J0
X0.25 Y6.3 Z-9.876 I0.25 J0
X-0.035 Y6.548 Z-9.9 I-0.25 J0
X0.035 Y6.052 I0.035 J-0.248
X-0.035 Y6.548 I-0.035 J0.248
G1 X-0.073 Y6.536
X-0.105 Y6.514
X-0.128 Y6.482
X-0.141 Y6.445
Y6.406
X-0.127 Y6.307
X-0.12 Y6.256 Z-9.893
X-0.113 Y6.208 Z-9.873
X-0.107 Y6.167 Z-9.841
X-0.103 Y6.136 Z-9.8
X-0.1 Y6.116 Z-9.752
X-0.099 Y6.109 Z-9.7
Z15
M5
M30
