(1021 face)
(Machine)
(  vendor: Nikodem Bartnik)
(  model: Generic 3-axis Router)
(  description: This machine has XYZ axis on the Head)
(T1  D=3.175 CR=0 - ZMIN=9 - flat end mill)
G90 G94
G17
G21
(When using Fusion 360 for Personal Use, the feedrate of)
(rapid moves is reduced to match the feedrate of cutting)
(moves, which can increase machining time. Unrestricted rapid)
(moves are available with a Fusion 360 Subscription.)

(Face4)
T1
S5000 M3
G54
G0 X28.064 Y0.538
Z26
G1 Z16 F50
Z10.318 F20
G18 G3 X27.746 Z10 I-0.317 K0
G1 X27.597
X-1.597 F50
G17 G2 X-1.597 Y2.642 I0 J1.052
G1 X27.597
G3 X27.597 Y4.745 I0 J1.052
G1 X-1.597
G2 X-1.597 Y6.849 I0 J1.052
G1 X27.597
G3 X27.597 Y8.952 I0 J1.052
G1 X-1.597
G2 X-1.597 Y11.056 I0 J1.052
G1 X27.597
G3 X27.597 Y13.159 I0 J1.052
G1 X-1.597
G2 X-1.597 Y15.263 I0 J1.052
G1 X27.597
G3 X27.597 Y17.366 I0 J1.052
G1 X-1.597
G2 X-1.597 Y19.47 I0 J1.052
G1 X27.597
G18 G2 X27.915 Z10.318 I0 K0.318
G1 Z16
X28.064 Y0.538
Z9.318 F20
G3 X27.746 Z9 I-0.317 K0
G1 X27.597
X-1.597 F50
G17 G2 X-1.597 Y2.642 I0 J1.052
G1 X27.597
G3 X27.597 Y4.745 I0 J1.052
G1 X-1.597
G2 X-1.597 Y6.849 I0 J1.052
G1 X27.597
G3 X27.597 Y8.952 I0 J1.052
G1 X-1.597
G2 X-1.597 Y11.056 I0 J1.052
G1 X27.597
G3 X27.597 Y13.159 I0 J1.052
G1 X-1.597
G2 X-1.597 Y15.263 I0 J1.052
G1 X27.597
G3 X27.597 Y17.366 I0 J1.052
G1 X-1.597
G2 X-1.597 Y19.47 I0 J1.052
G1 X27.597
G18 G2 X27.915 Z9.318 I0 K0.318
G1 Z26
G17
M5
M30
