(1021face)
(Machine)
(  vendor: Nikodem Bartnik)
(  model: Generic 3-axis Router)
(  description: This machine has XYZ axis on the Head)
(T1  D=3.175 CR=0 - ZMIN=9 - flat end mill)
G90 G94
G17
G21
(When using Fusion 360 for Personal Use, the feedrate of)
(rapid moves is reduced to match the feedrate of cutting)
(moves, which can increase machining time. Unrestricted rapid)
(moves are available with a Fusion 360 Subscription.)

(Face4)
T1
S5000 M3
G54
G0 X28.774 Y-2.092
Z26
G1 Z16 F50
Z9.318 F20
G18 G3 X28.456 Z9 I-0.318 K0
G1 X-2.456 F50
X-2.596
G17 G2 X-2.596 Y-1.601 I0 J0.245
G1 X28.596
X28.597
G3 X28.597 Y-1.11 I0 J0.245
G1 X-2.598
G2 X-2.598 Y-0.619 I0 J0.245
G1 X28.597
G3 X28.597 Y-0.128 I0 J0.245
G1 X-2.598
G2 X-2.598 Y0.363 I0 J0.245
G1 X28.597
G3 X28.597 Y0.853 I0 J0.245
G1 X-2.598
G2 X-2.598 Y1.344 I0 J0.245
G1 X28.597
G3 X28.597 Y1.835 I0 J0.245
G1 X-2.598
G2 X-2.598 Y2.326 I0 J0.245
G1 X28.597
G3 X28.597 Y2.817 I0 J0.245
G1 X-2.598
G2 X-2.598 Y3.308 I0 J0.245
G1 X28.597
G3 X28.597 Y3.798 I0 J0.245
G1 X-2.598
G2 X-2.598 Y4.289 I0 J0.245
G1 X28.597
G3 X28.597 Y4.78 I0 J0.245
G1 X-2.598
G2 X-2.598 Y5.271 I0 J0.245
G1 X28.597
G3 X28.597 Y5.762 I0 J0.245
G1 X-2.598
G2 X-2.598 Y6.253 I0 J0.245
G1 X28.597
G3 X28.597 Y6.743 I0 J0.245
G1 X-2.598
G2 X-2.598 Y7.234 I0 J0.245
G1 X28.597
G3 X28.597 Y7.725 I0 J0.245
G1 X-2.598
G2 X-2.598 Y8.216 I0 J0.245
G1 X28.597
G3 X28.597 Y8.707 I0 J0.245
G1 X-2.598
G2 X-2.598 Y9.198 I0 J0.245
G1 X28.597
G3 X28.597 Y9.688 I0 J0.245
G1 X-2.598
G2 X-2.598 Y10.179 I0 J0.245
G1 X28.597
G3 X28.597 Y10.67 I0 J0.245
G1 X-2.598
G2 X-2.598 Y11.161 I0 J0.245
G1 X28.597
G3 X28.597 Y11.652 I0 J0.245
G1 X-2.598
G2 X-2.598 Y12.143 I0 J0.245
G1 X28.597
G3 X28.597 Y12.633 I0 J0.245
G1 X-2.598
G2 X-2.598 Y13.124 I0 J0.245
G1 X28.597
G3 X28.597 Y13.615 I0 J0.245
G1 X-2.598
G2 X-2.598 Y14.106 I0 J0.245
G1 X28.597
G3 X28.597 Y14.597 I0 J0.245
G1 X-2.598
G2 X-2.598 Y15.088 I0 J0.245
G1 X28.597
G3 X28.597 Y15.578 I0 J0.245
G1 X-2.598
G2 X-2.598 Y16.069 I0 J0.245
G1 X28.597
G3 X28.597 Y16.56 I0 J0.245
G1 X-2.598
G2 X-2.598 Y17.051 I0 J0.245
G1 X28.597
G3 X28.597 Y17.542 I0 J0.245
G1 X-2.598
G2 X-2.598 Y18.033 I0 J0.245
G1 X28.597
G3 X28.597 Y18.524 I0 J0.245
G1 X-2.598
G2 X-2.598 Y19.014 I0 J0.245
G1 X28.597
G3 X28.597 Y19.505 I0 J0.245
G1 X-2.598
G2 X-2.598 Y19.996 I0 J0.245
G1 X28.597
G3 X28.597 Y20.487 I0 J0.245
G1 X-2.598
G18 G3 X-2.915 Z9.318 I0 K0.318
G1 Z26
G17
M5
M30
