(1001)
(Machine)
(  vendor: Nikodem Bartnik)
(  model: Generic 3-axis Router)
(  description: This machine has XYZ axis on the Head)
(T1  D=3 CR=0 TAPER=118deg - ZMIN=-2.901 - drill)
G90 G94
G17
G21

(Drill1)
T1
S5000 M3
G54
G0 X5 Y4.5
Z19
Z14
Z10.6
Z7.6
G1 Z3.6 F30
G0 Z10.6
Z5.6
G1 Z1.6 F30
G0 Z10.6
Z3.6
G1 Z-0.4 F30
G0 Z10.6
Z1.6
G1 Z-2.4 F30
G0 Z10.6
Z-0.4
G1 Z-2.901 F30
G0 Z14
Y16.5
Z10.6
Z7.6
G1 Z3.6 F30
G0 Z10.6
Z5.6
G1 Z1.6 F30
G0 Z10.6
Z3.6
G1 Z-0.4 F30
G0 Z10.6
Z1.6
G1 Z-2.4 F30
G0 Z10.6
Z-0.4
G1 Z-2.901 F30
G0 Z14
X21
Z10.6
Z7.6
G1 Z3.6 F30
G0 Z10.6
Z5.6
G1 Z1.6 F30
G0 Z10.6
Z3.6
G1 Z-0.4 F30
G0 Z10.6
Z1.6
G1 Z-2.4 F30
G0 Z10.6
Z-0.4
G1 Z-2.901 F30
G0 Z14
Z19
M5
M30
