(1024fillet)
(Machine)
(  vendor: Nikodem Bartnik)
(  model: Generic 3-axis Router)
(  description: This machine has XYZ axis on the Head)
(T1  D=3.175 CR=1.587 - ZMIN=7.3 - ball end mill)
G90 G94
G17
G21
(When using Fusion 360 for Personal Use, the feedrate of)
(rapid moves is reduced to match the feedrate of cutting)
(moves, which can increase machining time. Unrestricted rapid)
(moves are available with a Fusion 360 Subscription.)

(Contour2)
T1
S5000 M3
G54
G0 X10.516 Y10.123
Z16
G1 Z9.866 F30
Z8.9 F10
G3 X10.11 Y9.7 I-0.116 J-0.296
G1 X10.261 Y9.353 F30
X10.274 Y9.331
X10.789 Y8.802
X10.809 Y8.791
X11.454 Y8.489
X11.471 Y8.482
X12.195 Y8.426
X12.218
X12.914 Y8.628
X12.937 Y8.637
X13.528 Y9.081
X13.539 Y9.096
X13.986 Y9.797
X14.025 Y9.851
X14.076 Y9.906
X14.167 Y9.974
X14.188 Y9.987
X14.281 Y10.027
X14.374 Y10.049
X14.559 Y10.055
X21.604
X21.975 Y10.069
X22.439 Y10.148
X22.462 Y10.156
X22.865 Y10.414
X22.884 Y10.432
X23.154 Y10.826
X23.162 Y10.845
X23.255 Y11.306
X23.259 Y11.328
X23.16 Y11.814
X23.146 Y11.835
X22.885 Y12.216
X22.862 Y12.238
X22.473 Y12.487
X22.452 Y12.5
X21.975 Y12.581
X21.604 Y12.595
X12.334
X11.964 Y12.58
X11.284 Y12.456
X11.263 Y12.452
X10.626 Y12.069
X10.61 Y12.051
X10.161 Y11.483
X10.152 Y11.461
X9.933 Y10.773
X9.932 Y10.751
X9.968 Y10.041
X9.97 Y10.019
X10.11 Y9.7
X10.261 Y9.353
X10.274 Y9.331
X10.789 Y8.802
X10.809 Y8.791
X11.454 Y8.489
X11.471 Y8.482
X12.195 Y8.426
X12.218
X12.914 Y8.628
X12.937 Y8.637
X13.528 Y9.081
X13.539 Y9.096
X13.986 Y9.797
X14.025 Y9.851
X14.076 Y9.906
X14.167 Y9.974
X14.188 Y9.987
X14.281 Y10.027
X14.374 Y10.049
X14.559 Y10.055
X21.604
X21.975 Y10.069
X22.439 Y10.148
X22.462 Y10.156
X22.865 Y10.414
X22.884 Y10.432
X23.154 Y10.826
X23.162 Y10.845
X23.255 Y11.306
X23.259 Y11.328
X23.16 Y11.814
X23.146 Y11.835
X22.885 Y12.216
X22.862 Y12.238
X22.473 Y12.487
X22.452 Y12.5
X21.975 Y12.581
X21.604 Y12.595
X12.334
X11.964 Y12.58
X11.284 Y12.456
X11.263 Y12.452
X10.626 Y12.069
X10.61 Y12.051
X10.161 Y11.483
X10.152 Y11.461
X9.933 Y10.773
X9.932 Y10.751
X9.968 Y10.041
X9.97 Y10.019
X10.11 Y9.7
G3 X10.528 Y9.536 I0.291 J0.127
G1 X10.544 Y9.543
X11.028 Y9.723
G3 X11.097 Y10.433 I-0.139 J0.372
G1 X11.088 Y10.439
G3 X10.691 Y9.751 Z8.856 I-0.198 J-0.344
X11.088 Y10.439 Z8.813 I0.198 J0.344
X10.741 Y10.463 Z8.8 I-0.198 J-0.344
G1 X10.73 Y10.459
X10.539 Y10.375 F10
G3 X10.308 Y9.787 I0.179 J-0.41
G1 X10.444 Y9.477 F30
X10.457 Y9.453
X10.905 Y8.993
X10.919 Y8.979
X11.523 Y8.696
X11.546 Y8.694
X12.172 Y8.645
X12.195
X12.822 Y8.827
X12.836 Y8.833
X13.35 Y9.218
X13.375 Y9.241
X13.616 Y9.619
X13.818 Y9.936
X13.846 Y9.974
X13.931 Y10.067
X14.017 Y10.136
X14.103 Y10.187
X14.188 Y10.224
X14.281 Y10.252
X14.374 Y10.267
X14.559 Y10.271
X21.604
X21.975 Y10.289
X22.369 Y10.356
X22.392 Y10.369
X22.717 Y10.576
X22.729 Y10.59
X22.946 Y10.906
X22.957 Y10.929
X23.034 Y11.306
X23.037 Y11.328
X22.956 Y11.727
X22.942 Y11.75
X22.733 Y12.054
X22.717 Y12.074
X22.386 Y12.285
X22.366 Y12.294
X21.975 Y12.361
X21.604 Y12.379
X12.079
X12.056 Y12.376
X11.361 Y12.25
X11.338 Y12.244
X10.775 Y11.906
X10.761 Y11.892
X10.367 Y11.395
X10.352 Y11.372
X10.153 Y10.751
X10.15 Y10.729
X10.183 Y10.085
X10.188 Y10.063
X10.308 Y9.787
X10.444 Y9.477
X10.457 Y9.453
X10.905 Y8.993
X10.919 Y8.979
X11.523 Y8.696
X11.546 Y8.694
X12.172 Y8.645
X12.195
X12.822 Y8.827
X12.836 Y8.833
X13.35 Y9.218
X13.375 Y9.241
X13.616 Y9.619
X13.818 Y9.936
X13.846 Y9.974
X13.931 Y10.067
X14.017 Y10.136
X14.103 Y10.187
X14.188 Y10.224
X14.281 Y10.252
X14.374 Y10.267
X14.559 Y10.271
X21.604
X21.975 Y10.289
X22.369 Y10.356
X22.392 Y10.369
X22.717 Y10.576
X22.729 Y10.59
X22.946 Y10.906
X22.957 Y10.929
X23.034 Y11.306
X23.037 Y11.328
X22.956 Y11.727
X22.942 Y11.75
X22.733 Y12.054
X22.717 Y12.074
X22.386 Y12.285
X22.366 Y12.294
X21.975 Y12.361
X21.604 Y12.379
X12.079
X12.056 Y12.376
X11.361 Y12.25
X11.338 Y12.244
X10.775 Y11.906
X10.761 Y11.892
X10.367 Y11.395
X10.352 Y11.372
X10.153 Y10.751
X10.15 Y10.729
X10.183 Y10.085
X10.188 Y10.063
X10.308 Y9.787
G3 X10.726 Y9.623 I0.291 J0.127
G1 X10.745 Y9.63
X11.162 Y9.782
G3 X11.235 Y10.493 I-0.136 J0.373
G1 X11.225 Y10.499
G3 X10.828 Y9.811 Z8.756 I-0.198 J-0.344
X11.225 Y10.499 Z8.713 I0.198 J0.344
X10.878 Y10.523 Z8.7 I-0.198 J-0.344
G1 X10.868 Y10.519
X10.677 Y10.435 F10
G3 X10.446 Y9.847 I0.179 J-0.41
G1 X10.574 Y9.553 F30
X10.591 Y9.531
X10.99 Y9.121
X11.013 Y9.101
X11.55 Y8.849
X11.571 Y8.843
X12.172 Y8.796
X12.195 Y8.802
X12.752 Y8.963
X12.775 Y8.974
X13.241 Y9.324
X13.259 Y9.339
X13.664 Y9.974
X13.73 Y10.07
X13.818 Y10.166
X13.876 Y10.218
X13.935 Y10.261
X14.052 Y10.329
X14.12 Y10.359
X14.188 Y10.382
X14.281 Y10.405
X14.374 Y10.418
X14.559 Y10.422
X21.836
X21.859
X22.299 Y10.497
X22.323 Y10.506
X22.582 Y10.672
X22.598 Y10.684
X22.779 Y10.949
X22.794 Y10.971
X22.862 Y11.306
X22.865 Y11.328
X22.798 Y11.661
X22.792 Y11.683
X22.611 Y11.946
X22.596 Y11.967
X22.323 Y12.142
X22.299 Y12.153
X21.859 Y12.228
X21.836
X12.103
X12.079
X11.404 Y12.105
X11.381 Y12.094
X10.874 Y11.79
X10.861 Y11.777
X10.492 Y11.31
X10.485 Y11.296
X10.304 Y10.729
X10.302 Y10.707
X10.332 Y10.108
X10.342 Y10.085
X10.446 Y9.847
X10.574 Y9.553
X10.591 Y9.531
X10.99 Y9.121
X11.013 Y9.101
X11.55 Y8.849
X11.571 Y8.843
X12.172 Y8.796
X12.195 Y8.802
X12.752 Y8.963
X12.775 Y8.974
X13.241 Y9.324
X13.259 Y9.339
X13.664 Y9.974
X13.73 Y10.07
X13.818 Y10.166
X13.876 Y10.218
X13.935 Y10.261
X14.052 Y10.329
X14.12 Y10.359
X14.188 Y10.382
X14.281 Y10.405
X14.374 Y10.418
X14.559 Y10.422
X21.836
X21.859
X22.299 Y10.497
X22.323 Y10.506
X22.582 Y10.672
X22.598 Y10.684
X22.779 Y10.949
X22.794 Y10.971
X22.862 Y11.306
X22.865 Y11.328
X22.798 Y11.661
X22.792 Y11.683
X22.611 Y11.946
X22.596 Y11.967
X22.323 Y12.142
X22.299 Y12.153
X21.859 Y12.228
X21.836
X12.103
X12.079
X11.404 Y12.105
X11.381 Y12.094
X10.874 Y11.79
X10.861 Y11.777
X10.492 Y11.31
X10.485 Y11.296
X10.304 Y10.729
X10.302 Y10.707
X10.332 Y10.108
X10.342 Y10.085
X10.446 Y9.847
G3 X10.864 Y9.683 I0.291 J0.127
G1 X10.883 Y9.691
X11.282 Y9.835
G3 X11.356 Y10.546 I-0.135 J0.373
G1 X11.346 Y10.552
G3 X10.949 Y9.864 Z8.656 I-0.198 J-0.344
X11.346 Y10.552 Z8.613 I0.198 J0.344
X10.999 Y10.576 Z8.6 I-0.198 J-0.344
G1 X10.989 Y10.572
X10.798 Y10.488 F10
G3 X10.567 Y9.9 I0.179 J-0.41
G1 X10.689 Y9.619 F30
X10.709 Y9.599
X11.082 Y9.216
X11.105 Y9.204
X11.593 Y8.975
X11.616 Y8.972
X12.149 Y8.93
X12.172 Y8.932
X12.705 Y9.087
X13.139 Y9.412
X13.159 Y9.429
X13.507 Y9.974
X13.625 Y10.152
X13.702 Y10.241
X13.8 Y10.329
X13.818 Y10.343
X13.91 Y10.405
X14.003 Y10.454
X14.096 Y10.492
X14.188 Y10.52
X14.281 Y10.539
X14.374 Y10.55
X14.559 Y10.554
X21.766
X21.79
X21.975 Y10.586
X22.198 Y10.624
X22.219 Y10.633
X22.443 Y10.776
X22.457 Y10.795
X22.611 Y11.019
X22.618 Y11.04
X22.672 Y11.306
X22.675 Y11.328
X22.625 Y11.572
X22.616 Y11.616
X22.607 Y11.639
X22.458 Y11.855
X22.438 Y11.87
X22.23 Y12.003
X22.207 Y12.014
X21.975 Y12.054
X21.79 Y12.089
X21.766 Y12.095
X21.743 Y12.096
X12.103
X12.079 Y12.094
X11.454 Y11.98
X11.431 Y11.97
X10.97 Y11.694
X10.957 Y11.686
X10.621 Y11.261
X10.605 Y11.239
X10.435 Y10.705
Y10.684
X10.463 Y10.141
X10.468 Y10.127
X10.567 Y9.9
X10.689 Y9.619
X10.709 Y9.599
X11.082 Y9.216
X11.105 Y9.204
X11.593 Y8.975
X11.616 Y8.972
X12.149 Y8.93
X12.172 Y8.932
X12.705 Y9.087
X13.139 Y9.412
X13.159 Y9.429
X13.507 Y9.974
X13.625 Y10.152
X13.702 Y10.241
X13.8 Y10.329
X13.818 Y10.343
X13.91 Y10.405
X14.003 Y10.454
X14.096 Y10.492
X14.188 Y10.52
X14.281 Y10.539
X14.374 Y10.55
X14.559 Y10.554
X21.766
X21.79
X21.975 Y10.586
X22.198 Y10.624
X22.219 Y10.633
X22.443 Y10.776
X22.457 Y10.795
X22.611 Y11.019
X22.618 Y11.04
X22.672 Y11.306
X22.675 Y11.328
X22.625 Y11.572
X22.616 Y11.616
X22.607 Y11.639
X22.458 Y11.855
X22.438 Y11.87
X22.23 Y12.003
X22.207 Y12.014
X21.975 Y12.054
X21.79 Y12.089
X21.766 Y12.095
X21.743 Y12.096
X12.103
X12.079 Y12.094
X11.454 Y11.98
X11.431 Y11.97
X10.97 Y11.694
X10.957 Y11.686
X10.621 Y11.261
X10.605 Y11.239
X10.435 Y10.705
Y10.684
X10.463 Y10.141
X10.468 Y10.127
X10.567 Y9.9
G3 X10.985 Y9.736 I0.291 J0.127
G1 X11.006 Y9.744
X11.375 Y9.875
G3 X11.45 Y10.587 I-0.133 J0.374
G1 X11.441 Y10.593
G3 X11.044 Y9.906 Z8.556 I-0.198 J-0.344
X11.441 Y10.593 Z8.513 I0.198 J0.344
X11.094 Y10.617 Z8.5 I-0.198 J-0.344
G1 X11.083 Y10.613
X10.892 Y10.529 F10
G3 X10.661 Y9.941 I0.179 J-0.41
G1 X10.773 Y9.686 F30
X10.79 Y9.664
X11.127 Y9.317
X11.15 Y9.297
X11.616 Y9.078
X11.639 Y9.074
X12.149 Y9.035
X12.172 Y9.04
X12.659 Y9.181
X13.076 Y9.494
X13.089 Y9.509
X13.412 Y10.017
X13.447 Y10.087
X13.52 Y10.208
X13.565 Y10.269
X13.618 Y10.329
X13.718 Y10.422
X13.818 Y10.493
X13.91 Y10.545
X14.003 Y10.585
X14.096 Y10.614
X14.188 Y10.636
X14.281 Y10.65
X14.374 Y10.656
X14.559 Y10.658
X21.581
X21.604 Y10.66
X21.686 Y10.676
X21.767 Y10.684
X21.975 Y10.723
X22.091 Y10.742
X22.114 Y10.749
X22.253 Y10.838
X22.281 Y10.856
X22.298 Y10.87
X22.346 Y10.932
X22.42 Y11.04
X22.443 Y11.084
X22.45 Y11.106
X22.473 Y11.217
X22.491 Y11.306
X22.494 Y11.328
X22.48 Y11.395
X22.445 Y11.557
X22.436 Y11.578
X22.426 Y11.598
X22.402 Y11.639
X22.346 Y11.72
X22.322 Y11.75
X22.3 Y11.77
X22.149 Y11.867
X22.127 Y11.88
X21.975 Y11.906
X21.882 Y11.924
X21.79 Y11.949
X21.697 Y11.981
X21.674 Y11.99
X21.651 Y11.992
X12.103
X12.079 Y11.988
X11.49 Y11.881
X11.469 Y11.873
X11.04 Y11.615
X11.026 Y11.606
X10.714 Y11.213
X10.698 Y11.191
X10.544 Y10.707
X10.539 Y10.684
X10.565 Y10.174
X10.569 Y10.152
X10.661 Y9.941
X10.773 Y9.686
X10.79 Y9.664
X11.127 Y9.317
X11.15 Y9.297
X11.616 Y9.078
X11.639 Y9.074
X12.149 Y9.035
X12.172 Y9.04
X12.659 Y9.181
X13.076 Y9.494
X13.089 Y9.509
X13.412 Y10.017
X13.447 Y10.087
X13.52 Y10.208
X13.565 Y10.269
X13.618 Y10.329
X13.718 Y10.422
X13.818 Y10.493
X13.91 Y10.545
X14.003 Y10.585
X14.096 Y10.614
X14.188 Y10.636
X14.281 Y10.65
X14.374 Y10.656
X14.559 Y10.658
X21.581
X21.604 Y10.66
X21.686 Y10.676
X21.767 Y10.684
X21.975 Y10.723
X22.091 Y10.742
X22.114 Y10.749
X22.253 Y10.838
X22.281 Y10.856
X22.298 Y10.87
X22.346 Y10.932
X22.42 Y11.04
X22.443 Y11.084
X22.45 Y11.106
X22.473 Y11.217
X22.491 Y11.306
X22.494 Y11.328
X22.48 Y11.395
X22.445 Y11.557
X22.436 Y11.578
X22.426 Y11.598
X22.402 Y11.639
X22.346 Y11.72
X22.322 Y11.75
X22.3 Y11.77
X22.149 Y11.867
X22.127 Y11.88
X21.975 Y11.906
X21.882 Y11.924
X21.79 Y11.949
X21.697 Y11.981
X21.674 Y11.99
X21.651 Y11.992
X12.103
X12.079 Y11.988
X11.49 Y11.881
X11.469 Y11.873
X11.04 Y11.615
X11.026 Y11.606
X10.714 Y11.213
X10.698 Y11.191
X10.544 Y10.707
X10.539 Y10.684
X10.565 Y10.174
X10.569 Y10.152
X10.661 Y9.941
G3 X11.079 Y9.777 I0.291 J0.127
G1 X11.101 Y9.786
X11.463 Y9.914
G3 X11.539 Y10.626 I-0.132 J0.374
G1 X11.529 Y10.632
G3 X11.132 Y9.944 Z8.456 I-0.198 J-0.344
X11.529 Y10.632 Z8.413 I0.198 J0.344
X11.182 Y10.656 Z8.4 I-0.198 J-0.344
G1 X11.172 Y10.652
X10.981 Y10.568 F10
G3 X10.75 Y9.98 I0.179 J-0.41
G1 X10.851 Y9.748 F30
X10.858 Y9.732
X10.873 Y9.716
X11.19 Y9.39
X11.206 Y9.378
X11.616 Y9.185
X11.639 Y9.175
X12.149 Y9.135
X12.172 Y9.141
X12.611 Y9.268
X12.624 Y9.275
X13.001 Y9.557
X13.015 Y9.573
X13.297 Y10.016
X13.307 Y10.037
X13.315 Y10.058
X13.351 Y10.141
X13.394 Y10.225
X13.447 Y10.308
X13.462 Y10.329
X13.54 Y10.424
X13.64 Y10.518
X13.729 Y10.583
X13.818 Y10.635
X13.93 Y10.684
X14.059 Y10.724
X14.188 Y10.747
X14.281 Y10.756
X14.374 Y10.758
X21.419
X21.442 Y10.76
X21.465 Y10.767
X21.512 Y10.781
X21.604 Y10.801
X21.975 Y10.86
X21.99 Y10.862
X22.004 Y10.866
X22.034 Y10.881
X22.063 Y10.9
X22.092 Y10.919
X22.145 Y10.962
X22.162 Y10.979
X22.227 Y11.062
X22.241 Y11.084
X22.272 Y11.15
X22.282 Y11.173
X22.305 Y11.284
X22.309 Y11.306
Y11.328
X22.307 Y11.35
X22.278 Y11.483
X22.269 Y11.506
X22.227 Y11.587
X22.219 Y11.602
X22.162 Y11.667
X22.146 Y11.681
X22.131 Y11.691
X22.079 Y11.727
X22.053 Y11.745
X22.04 Y11.747
X22.027 Y11.75
X21.975 Y11.76
X21.604 Y11.871
X21.512 Y11.892
X21.488
X12.103
X12.079 Y11.888
X11.521 Y11.787
X11.504 Y11.782
X11.101 Y11.54
X11.081 Y11.522
X10.794 Y11.159
X10.783 Y11.135
X10.639 Y10.684
Y10.662
X10.663 Y10.196
X10.665 Y10.174
X10.75 Y9.98
X10.851 Y9.748
X10.858 Y9.732
X10.873 Y9.716
X11.19 Y9.39
X11.206 Y9.378
X11.616 Y9.185
X11.639 Y9.175
X12.149 Y9.135
X12.172 Y9.141
X12.611 Y9.268
X12.624 Y9.275
X13.001 Y9.557
X13.015 Y9.573
X13.297 Y10.016
X13.307 Y10.037
X13.315 Y10.058
X13.351 Y10.141
X13.394 Y10.225
X13.447 Y10.308
X13.462 Y10.329
X13.54 Y10.424
X13.64 Y10.518
X13.729 Y10.583
X13.818 Y10.635
X13.93 Y10.684
X14.059 Y10.724
X14.188 Y10.747
X14.281 Y10.756
X14.374 Y10.758
X21.419
X21.442 Y10.76
X21.465 Y10.767
X21.512 Y10.781
X21.604 Y10.801
X21.975 Y10.86
X21.99 Y10.862
X22.004 Y10.866
X22.034 Y10.881
X22.063 Y10.9
X22.092 Y10.919
X22.145 Y10.962
X22.162 Y10.979
X22.227 Y11.062
X22.241 Y11.084
X22.272 Y11.15
X22.282 Y11.173
X22.305 Y11.284
X22.309 Y11.306
Y11.328
X22.307 Y11.35
X22.278 Y11.483
X22.269 Y11.506
X22.227 Y11.587
X22.219 Y11.602
X22.162 Y11.667
X22.146 Y11.681
X22.131 Y11.691
X22.079 Y11.727
X22.053 Y11.745
X22.04 Y11.747
X22.027 Y11.75
X21.975 Y11.76
X21.604 Y11.871
X21.512 Y11.892
X21.488
X12.103
X12.079 Y11.888
X11.521 Y11.787
X11.504 Y11.782
X11.101 Y11.54
X11.081 Y11.522
X10.794 Y11.159
X10.783 Y11.135
X10.639 Y10.684
Y10.662
X10.663 Y10.196
X10.665 Y10.174
X10.75 Y9.98
G3 X11.168 Y9.816 I0.291 J0.127
G1 X11.189 Y9.824
X11.549 Y9.951
G3 X11.624 Y10.663 I-0.132 J0.374
G1 X11.615 Y10.669
G3 X11.218 Y9.982 Z8.356 I-0.198 J-0.344
X11.615 Y10.669 Z8.313 I0.198 J0.344
X11.268 Y10.693 Z8.3 I-0.198 J-0.344
G1 X11.258 Y10.689
X11.066 Y10.606 F10
G3 X10.836 Y10.017 I0.179 J-0.41
G1 X10.932 Y9.797 F30
X10.945 Y9.775
X11.245 Y9.466
X11.268 Y9.452
X11.649 Y9.274
X11.668 Y9.27
X12.149 Y9.233
X12.167 Y9.237
X12.566 Y9.353
X12.589 Y9.365
X12.929 Y9.619
X12.942 Y9.633
X13.159 Y9.974
X13.327 Y10.329
X13.381 Y10.413
X13.447 Y10.497
X13.501 Y10.554
X13.555 Y10.604
X13.664 Y10.684
X13.741 Y10.729
X13.818 Y10.765
X13.91 Y10.799
X14.003 Y10.824
X14.096 Y10.841
X14.188 Y10.851
X14.559 Y10.855
X21.326
X21.349 Y10.859
X21.372 Y10.868
X21.419 Y10.884
X21.512 Y10.909
X21.604 Y10.925
X21.697 Y10.934
X21.72 Y10.935
X21.743 Y10.939
X21.79 Y10.952
X21.882 Y10.976
X21.906 Y10.986
X21.929 Y10.998
X21.952 Y11.016
X22.004 Y11.058
X22.017 Y11.071
X22.062 Y11.128
X22.077 Y11.15
X22.108 Y11.217
X22.114 Y11.239
X22.128 Y11.306
X22.13 Y11.328
X22.129 Y11.35
X22.11 Y11.436
X22.106 Y11.45
X22.071 Y11.519
X22.061 Y11.533
X22.021 Y11.578
X22.006 Y11.595
X21.975 Y11.616
X21.952 Y11.63
X21.929 Y11.637
X21.882 Y11.652
X21.79 Y11.688
X21.72 Y11.717
X21.697 Y11.725
X21.604 Y11.746
X21.58 Y11.75
X21.493 Y11.765
X21.407 Y11.789
X21.385 Y11.795
X12.103
X12.079 Y11.791
X11.546 Y11.694
X11.523 Y11.685
X11.161 Y11.467
X11.142 Y11.449
X10.888 Y11.128
X10.873 Y11.106
X10.738 Y10.684
X10.736 Y10.662
X10.76 Y10.199
X10.766 Y10.177
X10.836 Y10.017
X10.932 Y9.797
X10.945 Y9.775
X11.245 Y9.466
X11.268 Y9.452
X11.649 Y9.274
X11.668 Y9.27
X12.149 Y9.233
X12.167 Y9.237
X12.566 Y9.353
X12.589 Y9.365
X12.929 Y9.619
X12.942 Y9.633
X13.159 Y9.974
X13.327 Y10.329
X13.381 Y10.413
X13.447 Y10.497
X13.501 Y10.554
X13.555 Y10.604
X13.664 Y10.684
X13.741 Y10.729
X13.818 Y10.765
X13.91 Y10.799
X14.003 Y10.824
X14.096 Y10.841
X14.188 Y10.851
X14.559 Y10.855
X21.326
X21.349 Y10.859
X21.372 Y10.868
X21.419 Y10.884
X21.512 Y10.909
X21.604 Y10.925
X21.697 Y10.934
X21.72 Y10.935
X21.743 Y10.939
X21.79 Y10.952
X21.882 Y10.976
X21.906 Y10.986
X21.929 Y10.998
X21.952 Y11.016
X22.004 Y11.058
X22.017 Y11.071
X22.062 Y11.128
X22.077 Y11.15
X22.108 Y11.217
X22.114 Y11.239
X22.128 Y11.306
X22.13 Y11.328
X22.129 Y11.35
X22.11 Y11.436
X22.106 Y11.45
X22.071 Y11.519
X22.061 Y11.533
X22.021 Y11.578
X22.006 Y11.595
X21.975 Y11.616
X21.952 Y11.63
X21.929 Y11.637
X21.882 Y11.652
X21.79 Y11.688
X21.72 Y11.717
X21.697 Y11.725
X21.604 Y11.746
X21.58 Y11.75
X21.493 Y11.765
X21.407 Y11.789
X21.385 Y11.795
X12.103
X12.079 Y11.791
X11.546 Y11.694
X11.523 Y11.685
X11.161 Y11.467
X11.142 Y11.449
X10.888 Y11.128
X10.873 Y11.106
X10.738 Y10.684
X10.736 Y10.662
X10.76 Y10.199
X10.766 Y10.177
X10.836 Y10.017
G3 X11.254 Y9.853 I0.291 J0.127
G1 X11.275 Y9.862
X11.64 Y9.991
G3 X11.715 Y10.703 I-0.133 J0.374
G1 X11.706 Y10.709
G3 X11.309 Y10.021 Z8.256 I-0.198 J-0.344
X11.706 Y10.709 Z8.213 I0.198 J0.344
X11.359 Y10.733 Z8.2 I-0.198 J-0.344
G1 X11.349 Y10.729
X11.157 Y10.645 F10
G3 X10.927 Y10.057 I0.179 J-0.41
G1 X11.01 Y9.867 F30
X11.036 Y9.824
X11.055 Y9.803
X11.279 Y9.573
X11.301 Y9.553
X11.324 Y9.539
X11.413 Y9.495
X11.662 Y9.378
X11.685 Y9.372
X12.149 Y9.336
X12.172 Y9.343
X12.334 Y9.39
X12.52 Y9.446
X12.543 Y9.456
X12.566 Y9.471
X12.843 Y9.678
X12.856 Y9.693
X12.869 Y9.708
X12.886 Y9.73
X13.1 Y10.066
X13.108 Y10.085
X13.14 Y10.179
X13.198 Y10.329
X13.243 Y10.416
X13.297 Y10.504
X13.364 Y10.591
X13.447 Y10.678
X13.454 Y10.684
X13.545 Y10.758
X13.636 Y10.816
X13.727 Y10.862
X13.818 Y10.897
X13.91 Y10.923
X14.003 Y10.942
X14.096 Y10.953
X14.188 Y10.957
X14.559 Y10.958
X21.233
X21.254 Y10.959
X21.274 Y10.967
X21.315 Y10.983
X21.397 Y11.008
X21.56 Y11.04
X21.642 Y11.051
X21.661 Y11.053
X21.68 Y11.058
X21.717 Y11.069
X21.736 Y11.078
X21.755 Y11.089
X21.792 Y11.109
X21.811 Y11.119
X21.83 Y11.136
X21.876 Y11.178
X21.892 Y11.199
X21.905 Y11.22
X21.919 Y11.242
X21.927 Y11.264
X21.934 Y11.286
X21.937 Y11.307
X21.94 Y11.329
X21.937 Y11.351
X21.929 Y11.395
X21.921 Y11.416
X21.913 Y11.437
X21.902 Y11.459
X21.887 Y11.48
X21.857 Y11.514
X21.842 Y11.525
X21.812 Y11.546
X21.797 Y11.553
X21.726 Y11.582
X21.706 Y11.587
X21.604 Y11.61
X21.419 Y11.644
X21.326 Y11.67
X21.28 Y11.687
X21.257 Y11.692
X12.103
X12.079 Y11.688
X11.964 Y11.667
X11.593 Y11.599
X11.57 Y11.593
X11.548 Y11.584
X11.258 Y11.41
X11.236 Y11.395
X11.222 Y11.383
X11.199 Y11.361
X10.978 Y11.082
X10.967 Y11.061
X10.959 Y11.04
X10.851 Y10.707
X10.838 Y10.667
X10.839 Y10.65
X10.851 Y10.41
X10.855 Y10.329
X10.86 Y10.241
X10.862 Y10.218
X10.866 Y10.196
X10.927 Y10.057
X11.01 Y9.867
X11.036 Y9.824
X11.055 Y9.803
X11.279 Y9.573
X11.301 Y9.553
X11.324 Y9.539
X11.413 Y9.495
X11.662 Y9.378
X11.685 Y9.372
X12.149 Y9.336
X12.172 Y9.343
X12.334 Y9.39
X12.52 Y9.446
X12.543 Y9.456
X12.566 Y9.471
X12.843 Y9.678
X12.856 Y9.693
X12.869 Y9.708
X12.886 Y9.73
X13.1 Y10.066
X13.108 Y10.085
X13.14 Y10.179
X13.198 Y10.329
X13.243 Y10.416
X13.297 Y10.504
X13.364 Y10.591
X13.447 Y10.678
X13.454 Y10.684
X13.545 Y10.758
X13.636 Y10.816
X13.727 Y10.862
X13.818 Y10.897
X13.91 Y10.923
X14.003 Y10.942
X14.096 Y10.953
X14.188 Y10.957
X14.559 Y10.958
X21.233
X21.254 Y10.959
X21.274 Y10.967
X21.315 Y10.983
X21.397 Y11.008
X21.56 Y11.04
X21.642 Y11.051
X21.661 Y11.053
X21.68 Y11.058
X21.717 Y11.069
X21.736 Y11.078
X21.755 Y11.089
X21.792 Y11.109
X21.811 Y11.119
X21.83 Y11.136
X21.876 Y11.178
X21.892 Y11.199
X21.905 Y11.22
X21.919 Y11.242
X21.927 Y11.264
X21.934 Y11.286
X21.937 Y11.307
X21.94 Y11.329
X21.937 Y11.351
X21.929 Y11.395
X21.921 Y11.416
X21.913 Y11.437
X21.902 Y11.459
X21.887 Y11.48
X21.857 Y11.514
X21.842 Y11.525
X21.812 Y11.546
X21.797 Y11.553
X21.726 Y11.582
X21.706 Y11.587
X21.604 Y11.61
X21.419 Y11.644
X21.326 Y11.67
X21.28 Y11.687
X21.257 Y11.692
X12.103
X12.079 Y11.688
X11.964 Y11.667
X11.593 Y11.599
X11.57 Y11.593
X11.548 Y11.584
X11.258 Y11.41
X11.236 Y11.395
X11.222 Y11.383
X11.199 Y11.361
X10.978 Y11.082
X10.967 Y11.061
X10.959 Y11.04
X10.851 Y10.707
X10.838 Y10.667
X10.839 Y10.65
X10.851 Y10.41
X10.855 Y10.329
X10.86 Y10.241
X10.862 Y10.218
X10.866 Y10.196
X10.927 Y10.057
G3 X11.345 Y9.893 I0.291 J0.127
G1 X11.367 Y9.902
X11.719 Y10.025
G3 X11.795 Y10.738 I-0.132 J0.374
G1 X11.786 Y10.744
G3 X11.389 Y10.056 Z8.156 I-0.198 J-0.344
X11.786 Y10.744 Z8.113 I0.198 J0.344
X11.439 Y10.768 Z8.1 I-0.198 J-0.344
G1 X11.428 Y10.764
X11.237 Y10.68 F10
G3 X11.006 Y10.092 I0.179 J-0.41
G1 X11.063 Y9.961 F30
X11.071 Y9.947
X11.13 Y9.851
X11.142 Y9.837
X11.316 Y9.659
X11.334 Y9.642
X11.372 Y9.619
X11.593 Y9.507
X11.685 Y9.463
X11.709 Y9.461
X12.126 Y9.428
X12.149 Y9.427
X12.334 Y9.481
X12.478 Y9.53
X12.531 Y9.552
X12.549 Y9.566
X12.746 Y9.713
X12.768 Y9.734
X12.833 Y9.81
X12.846 Y9.828
X13.01 Y10.087
X13.019 Y10.106
X13.076 Y10.274
X13.095 Y10.329
X13.132 Y10.418
X13.177 Y10.507
X13.233 Y10.596
X13.301 Y10.684
X13.374 Y10.762
X13.447 Y10.825
X13.539 Y10.888
X13.632 Y10.938
X13.725 Y10.977
X13.818 Y11.007
X13.906 Y11.026
X13.995 Y11.04
X14.188 Y11.048
X21.164
X21.187 Y11.052
X21.233 Y11.071
X21.604 Y11.166
X21.641 Y11.178
X21.66 Y11.183
X21.678 Y11.194
X21.709 Y11.215
X21.724 Y11.225
X21.739 Y11.237
X21.752 Y11.28
X21.766 Y11.323
X21.76 Y11.337
X21.741 Y11.395
X21.728 Y11.439
X21.718 Y11.452
X21.7 Y11.466
X21.686 Y11.477
X21.673 Y11.483
X21.604 Y11.497
X21.419 Y11.526
X21.326 Y11.547
X21.233 Y11.577
X21.187 Y11.596
X21.164 Y11.602
X12.103
X12.079 Y11.598
X11.964 Y11.577
X11.593 Y11.504
X11.569 Y11.496
X11.356 Y11.368
X11.333 Y11.354
X11.24 Y11.274
X11.222 Y11.252
X11.075 Y11.066
X11.065 Y11.053
X11.059 Y11.04
X10.936 Y10.684
X10.929 Y10.662
Y10.64
X10.936 Y10.507
X10.945 Y10.329
X10.954 Y10.218
X10.961 Y10.196
X11.006 Y10.092
X11.063 Y9.961
X11.071 Y9.947
X11.13 Y9.851
X11.142 Y9.837
X11.316 Y9.659
X11.334 Y9.642
X11.372 Y9.619
X11.593 Y9.507
X11.685 Y9.463
X11.709 Y9.461
X12.126 Y9.428
X12.149 Y9.427
X12.334 Y9.481
X12.478 Y9.53
X12.531 Y9.552
X12.549 Y9.566
X12.746 Y9.713
X12.768 Y9.734
X12.833 Y9.81
X12.846 Y9.828
X13.01 Y10.087
X13.019 Y10.106
X13.076 Y10.274
X13.095 Y10.329
X13.132 Y10.418
X13.177 Y10.507
X13.233 Y10.596
X13.301 Y10.684
X13.374 Y10.762
X13.447 Y10.825
X13.539 Y10.888
X13.632 Y10.938
X13.725 Y10.977
X13.818 Y11.007
X13.906 Y11.026
X13.995 Y11.04
X14.188 Y11.048
X21.164
X21.187 Y11.052
X21.233 Y11.071
X21.604 Y11.166
X21.641 Y11.178
X21.66 Y11.183
X21.678 Y11.194
X21.709 Y11.215
X21.724 Y11.225
X21.739 Y11.237
X21.752 Y11.28
X21.766 Y11.323
X21.76 Y11.337
X21.741 Y11.395
X21.728 Y11.439
X21.718 Y11.452
X21.7 Y11.466
X21.686 Y11.477
X21.673 Y11.483
X21.604 Y11.497
X21.419 Y11.526
X21.326 Y11.547
X21.233 Y11.577
X21.187 Y11.596
X21.164 Y11.602
X12.103
X12.079 Y11.598
X11.964 Y11.577
X11.593 Y11.504
X11.569 Y11.496
X11.356 Y11.368
X11.333 Y11.354
X11.24 Y11.274
X11.222 Y11.252
X11.075 Y11.066
X11.065 Y11.053
X11.059 Y11.04
X10.936 Y10.684
X10.929 Y10.662
Y10.64
X10.936 Y10.507
X10.945 Y10.329
X10.954 Y10.218
X10.961 Y10.196
X11.006 Y10.092
G3 X11.424 Y9.928 I0.291 J0.127
G1 X11.445 Y9.936
X11.808 Y10.064
G3 X11.883 Y10.777 I-0.132 J0.374
G1 X11.874 Y10.782
G3 X11.477 Y10.095 Z8.056 I-0.198 J-0.344
X11.874 Y10.782 Z8.013 I0.198 J0.344
X11.527 Y10.806 Z8 I-0.198 J-0.344
G1 X11.517 Y10.802
X11.325 Y10.719 F10
G3 X11.095 Y10.13 I0.179 J-0.41
G1 X11.124 Y10.063 F30
X11.136 Y10.041
X11.222 Y9.9
X11.23 Y9.888
X11.239 Y9.875
X11.357 Y9.754
X11.379 Y9.737
X11.402 Y9.723
X11.581 Y9.619
X11.685 Y9.571
X11.709 Y9.562
X12.056 Y9.534
X12.126 Y9.529
X12.149 Y9.528
X12.334 Y9.583
X12.51 Y9.656
X12.528 Y9.669
X12.654 Y9.764
X12.674 Y9.785
X12.787 Y9.917
X12.8 Y9.936
X12.909 Y10.108
X12.921 Y10.13
X12.988 Y10.329
X13.025 Y10.451
X13.076 Y10.573
X13.138 Y10.684
X13.206 Y10.777
X13.293 Y10.869
X13.37 Y10.934
X13.447 Y10.986
X13.546 Y11.04
X13.614 Y11.068
X13.682 Y11.092
X13.818 Y11.125
X13.91 Y11.139
X14.003 Y11.146
X14.188 Y11.148
X21.118
X21.141 Y11.158
X21.233 Y11.194
X21.315 Y11.218
X21.397 Y11.236
X21.478 Y11.25
X21.502 Y11.257
X21.525 Y11.267
X21.547 Y11.277
X21.57 Y11.295
X21.572 Y11.308
Y11.322
X21.56 Y11.395
X21.539 Y11.399
X21.519 Y11.4
X21.478 Y11.404
X21.397 Y11.415
X21.315 Y11.433
X21.233 Y11.457
X21.141 Y11.493
X21.118 Y11.502
X12.103
X12.079 Y11.498
X11.964 Y11.477
X11.778 Y11.443
X11.616 Y11.404
X11.593 Y11.398
X11.45 Y11.312
X11.427 Y11.297
X11.283 Y11.174
X11.272 Y11.161
X11.176 Y11.04
X11.162 Y11.017
X11.098 Y10.862
X11.039 Y10.684
X11.032 Y10.662
X11.028 Y10.64
X11.035 Y10.507
X11.047 Y10.329
X11.054 Y10.241
X11.056 Y10.218
X11.095 Y10.13
X11.124 Y10.063
X11.136 Y10.041
X11.222 Y9.9
X11.23 Y9.888
X11.239 Y9.875
X11.357 Y9.754
X11.379 Y9.737
X11.402 Y9.723
X11.581 Y9.619
X11.685 Y9.571
X11.709 Y9.562
X12.056 Y9.534
X12.126 Y9.529
X12.149 Y9.528
X12.334 Y9.583
X12.51 Y9.656
X12.528 Y9.669
X12.654 Y9.764
X12.674 Y9.785
X12.787 Y9.917
X12.8 Y9.936
X12.909 Y10.108
X12.921 Y10.13
X12.988 Y10.329
X13.025 Y10.451
X13.076 Y10.573
X13.138 Y10.684
X13.206 Y10.777
X13.293 Y10.869
X13.37 Y10.934
X13.447 Y10.986
X13.546 Y11.04
X13.614 Y11.068
X13.682 Y11.092
X13.818 Y11.125
X13.91 Y11.139
X14.003 Y11.146
X14.188 Y11.148
X21.118
X21.141 Y11.158
X21.233 Y11.194
X21.315 Y11.218
X21.397 Y11.236
X21.478 Y11.25
X21.502 Y11.257
X21.525 Y11.267
X21.547 Y11.277
X21.57 Y11.295
X21.572 Y11.308
Y11.322
X21.56 Y11.395
X21.539 Y11.399
X21.519 Y11.4
X21.478 Y11.404
X21.397 Y11.415
X21.315 Y11.433
X21.233 Y11.457
X21.141 Y11.493
X21.118 Y11.502
X12.103
X12.079 Y11.498
X11.964 Y11.477
X11.778 Y11.443
X11.616 Y11.404
X11.593 Y11.398
X11.45 Y11.312
X11.427 Y11.297
X11.283 Y11.174
X11.272 Y11.161
X11.176 Y11.04
X11.162 Y11.017
X11.098 Y10.862
X11.039 Y10.684
X11.032 Y10.662
X11.028 Y10.64
X11.035 Y10.507
X11.047 Y10.329
X11.054 Y10.241
X11.056 Y10.218
X11.095 Y10.13
G3 X11.513 Y9.966 I0.291 J0.127
G1 X11.533 Y9.975
X11.906 Y10.107
G3 X11.981 Y10.819 I-0.133 J0.374
G1 X11.971 Y10.825
G3 X11.574 Y10.137 Z7.956 I-0.198 J-0.344
X11.971 Y10.825 Z7.913 I0.198 J0.344
X11.624 Y10.849 Z7.9 I-0.198 J-0.344
G1 X11.614 Y10.845
X11.423 Y10.761 F10
G3 X11.192 Y10.173 I0.179 J-0.41
G1 X11.198 Y10.159 F30
X11.206 Y10.146
X11.345 Y9.919
X11.361 Y9.9
X11.383 Y9.877
X11.406 Y9.854
X11.593 Y9.74
X11.685 Y9.688
X11.709 Y9.677
X11.732 Y9.671
X12.103 Y9.641
X12.126 Y9.64
X12.149 Y9.639
X12.334 Y9.707
X12.466 Y9.761
X12.488 Y9.771
X12.533 Y9.805
X12.557 Y9.825
X12.723 Y10.019
X12.74 Y10.039
X12.806 Y10.143
X12.814 Y10.164
X12.865 Y10.329
X12.91 Y10.507
X12.94 Y10.596
X12.978 Y10.684
X13.022 Y10.765
X13.076 Y10.846
X13.157 Y10.943
X13.212 Y10.995
X13.266 Y11.04
X13.356 Y11.101
X13.447 Y11.149
X13.539 Y11.187
X13.632 Y11.215
X13.725 Y11.236
X13.818 Y11.249
X14.188 Y11.258
X21.071
X21.094 Y11.261
X21.141 Y11.279
X21.233 Y11.309
X21.302 Y11.326
X21.285 Y11.33
X21.268 Y11.334
X21.233 Y11.343
X21.141 Y11.372
X21.094 Y11.39
X21.071 Y11.392
X12.103
X12.079 Y11.388
X11.964 Y11.367
X11.778 Y11.327
X11.616 Y11.288
X11.593 Y11.275
X11.557 Y11.254
X11.54 Y11.242
X11.346 Y11.076
X11.325 Y11.058
X11.276 Y10.996
X11.267 Y10.974
X11.222 Y10.865
X11.151 Y10.684
X11.144 Y10.662
X11.138 Y10.64
X11.14 Y10.596
X11.145 Y10.507
X11.166 Y10.238
X11.169 Y10.225
X11.192 Y10.173
X11.198 Y10.159
X11.206 Y10.146
X11.345 Y9.919
X11.361 Y9.9
X11.383 Y9.877
X11.406 Y9.854
X11.593 Y9.74
X11.685 Y9.688
X11.709 Y9.677
X11.732 Y9.671
X12.103 Y9.641
X12.126 Y9.64
X12.149 Y9.639
X12.334 Y9.707
X12.466 Y9.761
X12.488 Y9.771
X12.533 Y9.805
X12.557 Y9.825
X12.723 Y10.019
X12.74 Y10.039
X12.806 Y10.143
X12.814 Y10.164
X12.865 Y10.329
X12.91 Y10.507
X12.94 Y10.596
X12.978 Y10.684
X13.022 Y10.765
X13.076 Y10.846
X13.157 Y10.943
X13.212 Y10.995
X13.266 Y11.04
X13.356 Y11.101
X13.447 Y11.149
X13.539 Y11.187
X13.632 Y11.215
X13.725 Y11.236
X13.818 Y11.249
X14.188 Y11.258
X21.071
X21.094 Y11.261
X21.141 Y11.279
X21.233 Y11.309
X21.302 Y11.326
X21.285 Y11.33
X21.268 Y11.334
X21.233 Y11.343
X21.141 Y11.372
X21.094 Y11.39
X21.071 Y11.392
X12.103
X12.079 Y11.388
X11.964 Y11.367
X11.778 Y11.327
X11.616 Y11.288
X11.593 Y11.275
X11.557 Y11.254
X11.54 Y11.242
X11.346 Y11.076
X11.325 Y11.058
X11.276 Y10.996
X11.267 Y10.974
X11.222 Y10.865
X11.151 Y10.684
X11.144 Y10.662
X11.138 Y10.64
X11.14 Y10.596
X11.145 Y10.507
X11.166 Y10.238
X11.169 Y10.225
X11.192 Y10.173
G3 X11.61 Y10.009 I0.291 J0.127
G1 X11.644 Y10.021
X11.679 Y10.03
X12.195 Y10.126
G3 X12.05 Y10.907 I-0.073 J0.39
X11.753 Y10.372 I0.073 J-0.39
G1 X11.757 Y10.362
G3 X12.488 Y10.671 Z7.856 I0.366 J0.155
X11.757 Y10.362 Z7.813 I-0.366 J-0.155
X12.019 Y10.133 Z7.8 I0.366 J0.155
G1 X12.03 Y10.131
X12.233 Y10.082 F10
G3 X12.771 Y10.412 I0.104 J0.435
G1 X12.794 Y10.507 F30
X12.817 Y10.596
X12.846 Y10.684
X12.884 Y10.773
X12.931 Y10.862
X12.99 Y10.951
X13.065 Y11.04
X13.076 Y11.051
X13.169 Y11.133
X13.261 Y11.197
X13.354 Y11.247
X13.447 Y11.286
Y11.292
X12.103
X12.079 Y11.288
X12.056 Y11.284
X11.964 Y11.266
X11.639 Y11.188
X11.616 Y11.169
X11.388 Y10.975
X11.369 Y10.951
X11.24 Y10.64
X11.238 Y10.618
X11.239 Y10.596
X11.266 Y10.263
X11.27 Y10.241
X11.442 Y9.961
X11.453 Y9.947
X11.732 Y9.777
X11.755 Y9.769
X12.126 Y9.74
X12.149 Y9.743
X12.456 Y9.87
X12.471 Y9.884
X12.69 Y10.141
X12.705 Y10.164
X12.715 Y10.185
X12.722 Y10.206
X12.732 Y10.247
X12.771 Y10.412
X12.794 Y10.507
X12.817 Y10.596
X12.846 Y10.684
X12.884 Y10.773
X12.931 Y10.862
X12.99 Y10.951
X13.065 Y11.04
X13.076 Y11.051
X13.169 Y11.133
X13.261 Y11.197
X13.354 Y11.247
X13.447 Y11.286
Y11.292
X12.103
X12.079 Y11.288
X12.056 Y11.284
X11.964 Y11.266
X11.639 Y11.188
X11.616 Y11.169
X11.388 Y10.975
X11.369 Y10.951
X11.24 Y10.64
X11.238 Y10.618
X11.239 Y10.596
X11.266 Y10.263
X11.27 Y10.241
X11.442 Y9.961
X11.453 Y9.947
X11.732 Y9.777
X11.755 Y9.769
X12.126 Y9.74
X12.149 Y9.743
X12.456 Y9.87
X12.471 Y9.884
X12.69 Y10.141
X12.705 Y10.164
X12.715 Y10.185
X12.722 Y10.206
X12.732 Y10.247
X12.771 Y10.412
G3 X12.455 Y10.804 I-0.309 J0.074
G1 X11.99 Y10.792
X11.951 Y10.789
X11.912 Y10.781
X11.901 Y10.777
G3 X12.095 Y10.162 Z7.764 I0.097 J-0.308
X11.901 Y10.777 Z7.729 I-0.097 J0.308
X11.912 Y10.159 Z7.7 I0.097 J-0.308
G1 X11.923 Y10.156
X12.126 Y10.108 F10
G3 X12.665 Y10.438 I0.104 J0.435
G1 X12.705 Y10.607 F30
X12.725 Y10.684
X12.753 Y10.773
X12.79 Y10.862
X12.835 Y10.951
X12.893 Y11.04
X12.954 Y11.116
X12.99 Y11.154
X13.01 Y11.173
X12.996 Y11.192
X12.103
X12.079 Y11.188
X11.71 Y11.1
X11.689 Y11.094
X11.476 Y10.912
X11.455 Y10.889
X11.343 Y10.618
X11.341 Y10.596
X11.366 Y10.286
X11.378 Y10.265
X11.514 Y10.042
X11.53 Y10.022
X11.764 Y9.879
X11.786 Y9.868
X12.103 Y9.843
X12.126 Y9.845
X12.391 Y9.955
X12.41 Y9.974
X12.6 Y10.196
X12.612 Y10.218
X12.665 Y10.438
X12.705 Y10.607
X12.725 Y10.684
X12.753 Y10.773
X12.79 Y10.862
X12.835 Y10.951
X12.893 Y11.04
X12.954 Y11.116
X12.99 Y11.154
X13.01 Y11.173
X12.996 Y11.192
X12.103
X12.079 Y11.188
X11.71 Y11.1
X11.689 Y11.094
X11.476 Y10.912
X11.455 Y10.889
X11.343 Y10.618
X11.341 Y10.596
X11.366 Y10.286
X11.378 Y10.265
X11.514 Y10.042
X11.53 Y10.022
X11.764 Y9.879
X11.786 Y9.868
X12.103 Y9.843
X12.126 Y9.845
X12.391 Y9.955
X12.41 Y9.974
X12.6 Y10.196
X12.612 Y10.218
X12.665 Y10.438
G3 X12.43 Y10.821 I-0.309 J0.074
G1 X12.159 Y11.092
X12.148
X12.126 Z7.699
X12.103 Y11.089 Z7.698
X11.746 Y11.003 Z7.685
X11.727 Y10.989
X11.554 Y10.842 Z7.677
X11.542 Y10.827 Z7.676
X11.446 Y10.596 Z7.667
X11.445 Y10.574 Z7.666
X11.464 Y10.329 Z7.658
X11.469 Y10.316 Z7.657
X11.593 Y10.114 Z7.649
X11.606 Y10.097 Z7.648
X11.807 Y9.974 Z7.64
X11.827 Y9.965 Z7.639
X12.09 Y9.944 Z7.63
X12.102 Y9.948
X12.313 Y10.036 Z7.622
X12.334 Y10.046 Z7.621
X12.501 Y10.241 Z7.612
X12.508 Y10.259 Z7.611
X12.583 Y10.568 Z7.6
X12.585 Y10.579
X12.611 Y10.684
X12.648 Y10.825
X12.674 Y10.896
X12.705 Y10.966
X12.745 Y11.04
X12.761 Y11.066
X12.77 Y11.079
X12.747 Y11.092
X12.126
X12.103 Y11.089
X11.746 Y11.003
X11.727 Y10.989
X11.567 Y10.853
X11.554 Y10.842
X11.542 Y10.827
X11.446 Y10.596
X11.445 Y10.574
X11.464 Y10.329
X11.469 Y10.316
X11.593 Y10.114
X11.606 Y10.097
X11.807 Y9.974
X11.827 Y9.965
X12.09 Y9.944
X12.102 Y9.948
X12.313 Y10.036
X12.334 Y10.046
X12.501 Y10.241
X12.508 Y10.259
X12.558 Y10.463
X12.585 Y10.579
X12.611 Y10.684
X12.648 Y10.825
X12.674 Y10.896
X12.705 Y10.966
X12.745 Y11.04
X12.761 Y11.066
X12.77 Y11.079
X12.747 Y11.092
X12.126
X12.103 Y11.089
X11.746 Y11.003
X11.727 Y10.989
X11.567 Y10.853
X11.554 Y10.842
X11.542 Y10.827
X11.446 Y10.596
X11.445 Y10.574
X11.464 Y10.329
X11.469 Y10.316
X11.593 Y10.114
X11.606 Y10.097
X11.807 Y9.974
X11.827 Y9.965
X12.09 Y9.944
X12.102 Y9.948
X12.313 Y10.036
X12.334 Y10.046
X12.501 Y10.241
X12.508 Y10.259
X12.585 Y10.579
G3 X12.255 Y10.97 I-0.309 J0.074
G1 X11.93 Y10.947
X11.864 Y10.936
X11.802 Y10.91
X11.746 Y10.872
X11.738 Y10.865
X11.64 Y10.781 Z7.595
X11.626 Y10.767
X11.546 Y10.574 Z7.587
X11.547 Y10.551
X11.561 Y10.374 Z7.58
X11.566 Y10.352
X11.666 Y10.189 Z7.573
X11.684 Y10.168 Z7.572
X11.848 Y10.068 Z7.565
X11.871 Y10.061 Z7.564
X12.056 Y10.046 Z7.558
X12.079 Y10.048 Z7.557
X12.265 Y10.125 Z7.55
X12.288 Y10.148 Z7.549
X12.402 Y10.282 Z7.543
X12.412 Y10.298 Z7.542
X12.505 Y10.684 Z7.528
X12.544 Y10.839 Z7.523
X12.571 Y10.916 Z7.52
X12.587 Y10.955 Z7.518
X12.595 Y10.974
X12.581 Y10.993 Z7.517
X12.149 Z7.502
X12.126 Y10.991 Z7.501
X12.108 Y10.987 Z7.5
X12.097 Y10.984
X11.801 Y10.913
X11.778 Y10.9
X11.64 Y10.781
X11.626 Y10.767
X11.546 Y10.574
X11.547 Y10.551
X11.561 Y10.374
X11.566 Y10.352
X11.666 Y10.189
X11.684 Y10.168
X11.848 Y10.068
X11.871 Y10.061
X12.056 Y10.046
X12.079 Y10.048
X12.265 Y10.125
X12.288 Y10.148
X12.402 Y10.282
X12.412 Y10.298
X12.485 Y10.603
X12.505 Y10.684
X12.544 Y10.839
X12.571 Y10.916
X12.587 Y10.955
X12.595 Y10.974
X12.581 Y10.993
X12.149
X12.126 Y10.991
X12.097 Y10.984
X11.801 Y10.913
X11.778 Y10.9
X11.64 Y10.781
X11.626 Y10.767
X11.546 Y10.574
X11.547 Y10.551
X11.561 Y10.374
X11.566 Y10.352
X11.666 Y10.189
X11.684 Y10.168
X11.848 Y10.068
X11.871 Y10.061
X12.056 Y10.046
X12.079 Y10.048
X12.265 Y10.125
X12.288 Y10.148
X12.402 Y10.282
X12.412 Y10.298
X12.505 Y10.684
X12.544 Y10.839
X12.571 Y10.916
X12.587 Y10.955
X12.595 Y10.974
X12.581 Y10.993
X12.149
X12.126 Y10.991
X12.097 Y10.984
G3 X11.863 Y10.601 I0.074 J-0.309
G1 X11.983 Y10.134
X11.994
X12.056 Y10.129 Z7.498
X12.079 Y10.137 Z7.497
X12.218 Y10.195 Z7.492
X12.231 Y10.207 Z7.491
X12.334 Y10.328 Z7.485
X12.335 Y10.329
X12.448 Y10.798 Z7.468
X12.463 Y10.855 Z7.466
X12.472 Y10.883 Z7.465
X12.477 Y10.897
X12.464 Y10.911 Z7.464
X12.149 Z7.453
X12.126 Y10.906 Z7.452
X11.84 Y10.838 Z7.442
X11.822 Y10.829 Z7.441
X11.716 Y10.739 Z7.437
X11.695 Y10.721 Z7.436
X11.634 Y10.574 Z7.43
X11.629 Y10.551 Z7.429
X11.641 Y10.396 Z7.424
X11.648 Y10.374 Z7.423
X11.73 Y10.241 Z7.418
X11.745 Y10.227 Z7.417
X11.874 Y10.148 Z7.412
X11.892 Y10.142 Z7.411
X12.056 Y10.129 Z7.405
X12.079 Y10.137 Z7.404
X12.186 Y10.181 Z7.4
X12.196 Y10.185
X12.218 Y10.195
X12.231 Y10.207
X12.334 Y10.328
X12.335 Y10.329
X12.448 Y10.798
X12.463 Y10.855
X12.472 Y10.883
X12.477 Y10.897
X12.464 Y10.911
X12.149
X12.126 Y10.906
X11.84 Y10.838
X11.822 Y10.829
X11.716 Y10.739
X11.695 Y10.721
X11.634 Y10.574
X11.629 Y10.551
X11.641 Y10.396
X11.647 Y10.378
X11.648 Y10.374
X11.73 Y10.241
X11.745 Y10.227
X11.82 Y10.182
X11.874 Y10.148
X11.892 Y10.142
X12.056 Y10.129
X12.079 Y10.137
X12.196 Y10.185
X12.218 Y10.195
X12.231 Y10.207
X12.334 Y10.328
X12.335 Y10.329
X12.448 Y10.798
X12.463 Y10.855
X12.472 Y10.883
X12.477 Y10.897
X12.464 Y10.911
X12.149
X12.126 Y10.906
X11.84 Y10.838
X11.822 Y10.829
X11.716 Y10.739
X11.695 Y10.721
X11.634 Y10.574
X11.629 Y10.551
X11.641 Y10.396
X11.647 Y10.378
X11.648 Y10.374
X11.73 Y10.241
X11.745 Y10.227
X11.82 Y10.182
X11.874 Y10.148
X11.892 Y10.142
X12.056 Y10.129
X12.079 Y10.137
X12.196 Y10.185
X11.762 Y10.671
X11.755 Y10.662
X11.709 Y10.551 Z7.396
Y10.529 Z7.395
X11.717 Y10.418 Z7.391
X11.726 Y10.396 Z7.39
X11.783 Y10.302 Z7.386
X11.8 Y10.285 Z7.385
X11.89 Y10.23 Z7.382
X11.914 Y10.218 Z7.381
X12.031 Y10.209 Z7.377
X12.048 Y10.208 Z7.376
X12.166 Y10.257 Z7.372
X12.184 Y10.272 Z7.371
X12.251 Y10.35 Z7.367
X12.265 Y10.371 Z7.366
X12.372 Y10.815 Z7.35
X12.353 Y10.834 Z7.349
X12.172 Z7.343
X12.149 Y10.832 Z7.342
X11.868 Y10.765 Z7.332
X11.844 Y10.746 Z7.331
X11.772 Y10.684 Z7.328
X11.755 Y10.662 Z7.327
X11.709 Y10.551 Z7.323
Y10.529 Z7.322
X11.717 Y10.418 Z7.318
X11.726 Y10.396 Z7.317
X11.783 Y10.302 Z7.313
X11.8 Y10.285
X11.89 Y10.23 Z7.309
X11.914 Y10.218 Z7.308
X12.031 Y10.209 Z7.304
X12.048 Y10.208 Z7.303
X12.128 Y10.241 Z7.3
X12.139 Y10.245
X12.166 Y10.257
X12.184 Y10.272
X12.251 Y10.35
X12.265 Y10.371
X12.372 Y10.815
X12.353 Y10.834
X12.172
X12.149 Y10.832
X11.868 Y10.765
X11.844 Y10.746
X11.772 Y10.684
X11.755 Y10.662
X11.709 Y10.551
Y10.529
X11.717 Y10.418
X11.722 Y10.406
X11.726 Y10.396
X11.783 Y10.302
X11.8 Y10.285
X11.865 Y10.245
X11.89 Y10.23
X11.914 Y10.218
X12.031 Y10.209
X12.048 Y10.208
X12.139 Y10.245
X12.166 Y10.257
X12.184 Y10.272
X12.251 Y10.35
X12.265 Y10.371
X12.372 Y10.815
X12.353 Y10.834
X12.172
X12.149 Y10.832
X11.868 Y10.765
X11.844 Y10.746
X11.772 Y10.684
X11.755 Y10.662
X11.709 Y10.551
Y10.529
X11.717 Y10.418
X11.722 Y10.406
X11.726 Y10.396
X11.783 Y10.302
X11.8 Y10.285
X11.865 Y10.245
X11.89 Y10.23
X11.914 Y10.218
X12.031 Y10.209
X12.048 Y10.208
X12.139 Y10.245
X12.164 Y10.263
X12.182 Y10.289
X12.188 Y10.319
X12.181 Y10.35
Z16
M5
M30
