(1025funnel)
(Machine)
(  vendor: Nikodem Bartnik)
(  model: Generic 3-axis Router)
(  description: This machine has XYZ axis on the Head)
(T1  D=1.38 CR=0 - ZMIN=0 - flat end mill)
G90 G94
G17
G21
(When using Fusion 360 for Personal Use, the feedrate of)
(rapid moves is reduced to match the feedrate of cutting)
(moves, which can increase machining time. Unrestricted rapid)
(moves are available with a Fusion 360 Subscription.)

(Pocket4)
T1
S5000 M3
G54
G0 X12.918 Y10.314
Z14
G1 Z10.1 F20
Z9.237 F6.7
X12.919 Y10.317 Z9.208 F20
X12.922 Y10.326 Z9.181
X12.927 Y10.34 Z9.156
X12.933 Y10.359 Z9.134
X12.94 Y10.382 Z9.117
X12.946 Y10.408 Z9.106
X12.951 Y10.436 Z9.1
G3 X11.66 Y10.662 Z8.92 I-0.646 J0.113
X12.951 Y10.436 Z8.74 I0.646 J-0.113
X11.66 Y10.662 Z8.56 I-0.646 J0.113
X12.951 Y10.436 Z8.379 I0.646 J-0.113
X11.66 Y10.662 Z8.199 I-0.646 J0.113
X12.951 Y10.436 Z8.019 I0.646 J-0.113
X12.953 Y10.652 Z8 I-0.646 J0.113
X11.808 Y10.469 I-0.573 J-0.091
G1 X11.824 Y10.417
X11.853 Y10.371
X11.894 Y10.335
X11.932 Y10.315
X11.972 Y10.305
X12.014 Y10.303
X12.056 Y10.31
X12.101 Y10.33
X12.14 Y10.359
X12.172 Y10.397
X12.194 Y10.441
X12.205 Y10.489
G3 X11.99 Y10.704 I-0.194 J0.022
G1 X11.937 Y10.691
X11.889 Y10.665
X11.85 Y10.627
X11.821 Y10.58
X11.807 Y10.527
Y10.472
X11.808 Y10.469
G2 X11.666 Y10.021 I-0.519 J-0.083
G3 X11.795 Y9.568 I0.195 J-0.189
G1 X11.865 Y9.55
X12.071 Y9.544
X12.27 Y9.579
X12.457 Y9.657
X12.626 Y9.774
X12.652 Y9.8
X12.766 Y9.923
X12.871 Y10.1
X12.938 Y10.297
X12.972 Y10.605
X12.981 Y10.652
X12.989 Y10.685
X12.999 Y10.717
X13.011 Y10.749
X13.025 Y10.781
X13.04 Y10.814
X13.058 Y10.846
X13.078 Y10.878
X13.101 Y10.91
X13.126 Y10.942
X13.155 Y10.973
X13.187 Y11.005
X13.217 Y11.032
X13.247 Y11.054
X13.276 Y11.074
X13.305 Y11.092
X13.334 Y11.108
X13.363 Y11.122
X13.399 Y11.138
X13.444 Y11.154
X13.483 Y11.165
X13.516 Y11.173
X13.549 Y11.179
X13.581 Y11.183
X13.625 Y11.186
X14.217 Y11.187
X21.201
X21.214 Y11.188
X21.234 Y11.19
X21.377 Y11.198
X21.403 Y11.206
X21.422 Y11.216
X21.446 Y11.236
X21.451 Y11.24
X21.472 Y11.278
X21.474 Y11.283
X21.475 Y11.286
X21.478 Y11.324
X21.475 Y11.364
X21.474 Y11.367
X21.472 Y11.371
X21.451 Y11.409
X21.442 Y11.419
X21.428 Y11.43
X21.401 Y11.445
X21.377 Y11.452
X21.216 Y11.462
X21.202 Y11.463
X12.118
X12.006 Y11.46
X11.793 Y11.436
X11.6 Y11.372
X11.428 Y11.27
X11.274 Y11.127
X11.16 Y10.963
X11.081 Y10.773
X11.043 Y10.568
X11.05 Y10.364
X11.101 Y10.165
X11.106 Y10.155
X11.193 Y9.981
X11.319 Y9.824
X11.483 Y9.692
X11.664 Y9.602
X11.675 Y9.598
X11.795 Y9.568
X11.827
X11.856 Y9.583
X11.875 Y9.609
X11.88 Y9.641
X11.777 Y10.867
X11.775 Y10.88
X11.709 Y11.112
X11.681 Y11.197
X11.673 Y11.207
X11.659 Y11.21
X11.648 Y11.203
G3 X12.683 Y10.398 Z7.82 I0.517 J-0.402
X11.648 Y11.203 Z7.64 I-0.517 J0.402
X12.683 Y10.398 Z7.46 I0.517 J-0.402
X11.648 Y11.203 Z7.279 I-0.517 J0.402
X12.683 Y10.398 Z7.099 I0.517 J-0.402
X12.481 Y11.375 Z7 I-0.517 J0.402
X11.675 Y11.141 I-0.286 J-0.52
X11.909 Y10.335 I0.52 J-0.286
G1 X11.956 Y10.316
X12.006 Y10.309
X12.056 Y10.314
X12.095 Y10.328
X12.13 Y10.35
X12.16 Y10.38
X12.181 Y10.416
X12.194 Y10.45
X12.201 Y10.486
G3 X11.987 Y10.701 I-0.194 J0.022
G1 X11.94 Y10.69
X11.897 Y10.668
X11.861 Y10.637
X11.833 Y10.598
X11.815 Y10.553
X11.808 Y10.505
X11.814 Y10.457
X11.832 Y10.412
X11.86 Y10.373
X11.897 Y10.342
X11.909 Y10.335
G2 X12.18 Y9.951 I-0.258 J-0.47
G3 X12.612 Y9.768 I0.274 J0.045
G1 X12.626 Y9.778
X12.766 Y9.927
X12.868 Y10.101
X12.934 Y10.298
X12.969 Y10.605
X12.979 Y10.657
X12.992 Y10.706
X13.009 Y10.754
X13.03 Y10.802
X13.051 Y10.843
X13.071 Y10.875
X13.094 Y10.908
X13.121 Y10.943
X13.152 Y10.977
X13.188 Y11.012
X13.225 Y11.043
X13.264 Y11.072
X13.303 Y11.096
X13.342 Y11.117
X13.375 Y11.133
X13.401 Y11.143
X13.436 Y11.155
X13.48 Y11.168
X13.527 Y11.178
X13.576 Y11.186
X13.625 Y11.189
X20.525 Y11.19
X20.712 Y11.197
X20.746 Y11.207
X20.769 Y11.219
X20.776 Y11.224
X20.795 Y11.243
X20.814 Y11.277
X20.816 Y11.283
X20.817 Y11.287
X20.821 Y11.324
X20.817 Y11.363
X20.81 Y11.382
X20.796 Y11.405
X20.795 Y11.407
X20.784 Y11.419
X20.768 Y11.432
X20.759 Y11.437
X20.747 Y11.443
X20.712 Y11.453
X20.649 Y11.456
X20.526 Y11.46
X12.033
X11.797 Y11.434
X11.6 Y11.368
X11.429 Y11.267
X11.277 Y11.126
X11.162 Y10.96
X11.156 Y10.945
X11.083 Y10.771
X11.081 Y10.759
X11.046 Y10.568
X11.054 Y10.364
X11.106 Y10.162
X11.197 Y9.982
X11.322 Y9.826
X11.35 Y9.803
X11.483 Y9.696
X11.668 Y9.604
X11.866 Y9.554
X12.071 Y9.547
X12.269 Y9.583
X12.457 Y9.66
X12.612 Y9.768
X12.632 Y9.789
X12.641 Y9.816
X12.639 Y9.845
X12.22 Y11.227
X12.207 Y11.25
X12.187 Y11.267
X12.162 Y11.275
X12.135 Y11.273
G3 X12.485 Y10.01 Z6.82 I0.175 J-0.632
X12.135 Y11.273 Z6.64 I-0.175 J0.632
X12.485 Y10.01 Z6.46 I0.175 J-0.632
X12.135 Y11.273 Z6.279 I-0.175 J0.632
X12.485 Y10.01 Z6.099 I0.175 J-0.632
X12.907 Y10.914 Z6 I-0.175 J0.632
X11.826 Y10.421 I-0.54 J-0.247
G1 X11.855 Y10.375
X11.896 Y10.338
X11.932 Y10.319
X11.972 Y10.308
X12.014 Y10.306
X12.055 Y10.313
X12.092 Y10.328
X12.125 Y10.35
X12.154 Y10.377
X12.177 Y10.41
X12.193 Y10.447
X12.201 Y10.486
G3 X11.987 Y10.701 I-0.194 J0.022
G1 X11.935 Y10.688
X11.889 Y10.663
X11.85 Y10.625
X11.823 Y10.579
X11.81 Y10.528
Y10.475
X11.816 Y10.447
X11.826 Y10.421
G2 X11.814 Y9.952 I-0.485 J-0.222
G3 X12.05 Y9.548 I0.245 J-0.128
G1 X12.071 Y9.547
X12.269 Y9.583
X12.457 Y9.66
X12.626 Y9.778
X12.766 Y9.927
X12.868 Y10.101
X12.934 Y10.298
X12.969 Y10.605
X12.979 Y10.657
X12.992 Y10.706
X13.009 Y10.754
X13.03 Y10.802
X13.051 Y10.843
X13.071 Y10.875
X13.094 Y10.908
X13.121 Y10.943
X13.152 Y10.977
X13.188 Y11.012
X13.225 Y11.043
X13.264 Y11.072
X13.303 Y11.096
X13.342 Y11.117
X13.375 Y11.133
X13.401 Y11.143
X13.436 Y11.155
X13.48 Y11.168
X13.527 Y11.178
X13.576 Y11.186
X13.625 Y11.189
X19.867 Y11.19
X20.056 Y11.197
X20.092 Y11.207
X20.104 Y11.214
X20.11 Y11.217
X20.121 Y11.225
X20.141 Y11.245
X20.156 Y11.272
X20.157 Y11.275
X20.161 Y11.285
X20.165 Y11.326
X20.162 Y11.362
X20.154 Y11.381
X20.142 Y11.403
X20.139 Y11.407
X20.125 Y11.421
X20.114 Y11.431
X20.092 Y11.443
X20.055 Y11.453
X19.867 Y11.46
X12.033
X11.797 Y11.434
X11.6 Y11.368
X11.429 Y11.267
X11.277 Y11.126
X11.162 Y10.96
X11.156 Y10.945
X11.083 Y10.771
X11.081 Y10.759
X11.046 Y10.568
X11.054 Y10.364
X11.106 Y10.162
X11.197 Y9.982
X11.322 Y9.826
X11.35 Y9.803
X11.483 Y9.696
X11.668 Y9.604
X11.866 Y9.554
X12.05 Y9.548
X12.079 Y9.553
X12.102 Y9.569
X12.927 Y10.441
X12.937 Y10.455
X12.943 Y10.471
G3 X11.677 Y10.812 Z5.82 I-0.633 J0.171
X12.943 Y10.471 Z5.64 I0.633 J-0.171
X12.907 Y10.914 Z5.6 I-0.633 J0.171
X11.826 Y10.421 I-0.54 J-0.247
G1 X11.855 Y10.375
X11.896 Y10.338
X11.932 Y10.319
X11.972 Y10.308
X12.014 Y10.306
X12.055 Y10.313
X12.092 Y10.328
X12.125 Y10.35
X12.154 Y10.377
X12.177 Y10.41
X12.193 Y10.447
X12.201 Y10.486
G3 X11.987 Y10.701 I-0.194 J0.022
G1 X11.935 Y10.688
X11.889 Y10.663
X11.85 Y10.625
X11.823 Y10.579
X11.81 Y10.528
Y10.475
X11.816 Y10.447
X11.826 Y10.421
G2 X11.814 Y9.952 I-0.485 J-0.222
G3 X12.05 Y9.548 I0.245 J-0.128
G1 X12.071 Y9.547
X12.269 Y9.583
X12.457 Y9.66
X12.626 Y9.778
X12.766 Y9.927
X12.868 Y10.101
X12.934 Y10.298
X12.969 Y10.605
X12.979 Y10.657
X12.992 Y10.706
X13.009 Y10.754
X13.03 Y10.802
X13.051 Y10.843
X13.071 Y10.875
X13.094 Y10.908
X13.121 Y10.943
X13.152 Y10.977
X13.188 Y11.012
X13.225 Y11.043
X13.264 Y11.072
X13.303 Y11.096
X13.342 Y11.117
X13.375 Y11.133
X13.401 Y11.143
X13.436 Y11.155
X13.48 Y11.168
X13.527 Y11.178
X13.576 Y11.186
X13.625 Y11.189
X19.605 Y11.19
X19.798 Y11.196
X19.838 Y11.208
X19.862 Y11.222
X19.88 Y11.241
X19.888 Y11.249
X19.889 Y11.251
X19.904 Y11.282
X19.91 Y11.326
X19.906 Y11.358
X19.905 Y11.364
X19.898 Y11.381
X19.887 Y11.401
X19.877 Y11.413
X19.865 Y11.426
X19.839 Y11.441
X19.796 Y11.454
X19.791
X19.605 Y11.46
X12.033
X11.797 Y11.434
X11.6 Y11.368
X11.429 Y11.267
X11.277 Y11.126
X11.162 Y10.96
X11.156 Y10.945
X11.083 Y10.771
X11.081 Y10.759
X11.046 Y10.568
X11.054 Y10.364
X11.106 Y10.162
X11.197 Y9.982
X11.322 Y9.826
X11.35 Y9.803
X11.483 Y9.696
X11.668 Y9.604
X11.866 Y9.554
X12.05 Y9.548
X12.081 Y9.554
X12.106 Y9.575
X12.118 Y9.605
X12.115 Y9.637
X12.009 Y9.936
X12.007 Y9.941
X11.704 Y11.116
X11.68 Y11.197
X11.672 Y11.207
X11.659 Y11.209
X11.648 Y11.203
G3 X12.683 Y10.398 Z5.42 I0.517 J-0.402
X11.648 Y11.203 Z5.24 I-0.517 J0.402
X12.683 Y10.398 Z5.06 I0.517 J-0.402
X11.648 Y11.203 Z4.879 I-0.517 J0.402
X12.683 Y10.398 Z4.699 I0.517 J-0.402
X12.481 Y11.375 Z4.6 I-0.517 J0.402
X11.675 Y11.141 I-0.286 J-0.52
X11.909 Y10.335 I0.52 J-0.286
G1 X11.956 Y10.316
X12.006 Y10.309
X12.056 Y10.314
X12.095 Y10.328
X12.13 Y10.35
X12.16 Y10.38
X12.181 Y10.416
X12.194 Y10.45
X12.201 Y10.486
G3 X11.987 Y10.701 I-0.194 J0.022
G1 X11.94 Y10.69
X11.897 Y10.668
X11.861 Y10.637
X11.833 Y10.598
X11.815 Y10.553
X11.808 Y10.505
X11.814 Y10.457
X11.832 Y10.412
X11.86 Y10.373
X11.897 Y10.342
X11.909 Y10.335
G2 X12.18 Y9.951 I-0.258 J-0.47
G3 X12.612 Y9.768 I0.274 J0.045
G1 X12.626 Y9.778
X12.766 Y9.927
X12.868 Y10.101
X12.934 Y10.298
X12.969 Y10.605
X12.979 Y10.657
X12.992 Y10.706
X13.009 Y10.754
X13.03 Y10.802
X13.051 Y10.843
X13.071 Y10.875
X13.094 Y10.908
X13.121 Y10.943
X13.152 Y10.977
X13.188 Y11.012
X13.225 Y11.043
X13.264 Y11.072
X13.303 Y11.096
X13.342 Y11.117
X13.375 Y11.133
X13.401 Y11.143
X13.436 Y11.155
X13.48 Y11.168
X13.527 Y11.178
X13.576 Y11.186
X13.625 Y11.189
X18.946 Y11.19
X19.071 Y11.195
X19.075
X19.132 Y11.196
X19.178 Y11.209
X19.202 Y11.225
X19.228 Y11.253
X19.242 Y11.283
X19.247 Y11.318
X19.248 Y11.319
X19.242 Y11.364
X19.227 Y11.397
X19.202 Y11.426
X19.18 Y11.44
X19.132 Y11.454
X18.947 Y11.46
X12.033
X11.797 Y11.434
X11.6 Y11.368
X11.429 Y11.267
X11.277 Y11.126
X11.162 Y10.96
X11.156 Y10.945
X11.083 Y10.771
X11.081 Y10.759
X11.046 Y10.568
X11.054 Y10.364
X11.106 Y10.162
X11.197 Y9.982
X11.322 Y9.826
X11.35 Y9.803
X11.483 Y9.696
X11.668 Y9.604
X11.866 Y9.554
X12.071 Y9.547
X12.269 Y9.583
X12.457 Y9.66
X12.612 Y9.768
X12.632 Y9.789
X12.641 Y9.816
X12.639 Y9.845
X12.22 Y11.227
X12.207 Y11.25
X12.187 Y11.267
X12.162 Y11.275
X12.135 Y11.273
G3 X12.485 Y10.01 Z4.42 I0.175 J-0.632
X12.135 Y11.273 Z4.24 I-0.175 J0.632
X12.485 Y10.01 Z4.06 I0.175 J-0.632
X12.135 Y11.273 Z3.879 I-0.175 J0.632
X12.485 Y10.01 Z3.699 I0.175 J-0.632
X12.907 Y10.914 Z3.6 I-0.175 J0.632
X11.826 Y10.421 I-0.54 J-0.247
G1 X11.855 Y10.375
X11.896 Y10.338
X11.932 Y10.319
X11.972 Y10.308
X12.014 Y10.306
X12.055 Y10.313
X12.092 Y10.328
X12.125 Y10.35
X12.154 Y10.377
X12.177 Y10.41
X12.193 Y10.447
X12.201 Y10.486
G3 X11.987 Y10.701 I-0.194 J0.022
G1 X11.935 Y10.688
X11.889 Y10.663
X11.85 Y10.625
X11.823 Y10.579
X11.81 Y10.528
Y10.475
X11.816 Y10.447
X11.826 Y10.421
G2 X11.814 Y9.952 I-0.485 J-0.222
G3 X12.05 Y9.548 I0.245 J-0.128
G1 X12.071 Y9.547
X12.269 Y9.583
X12.457 Y9.66
X12.626 Y9.778
X12.766 Y9.927
X12.868 Y10.101
X12.934 Y10.298
X12.969 Y10.605
X12.979 Y10.657
X12.992 Y10.706
X13.009 Y10.754
X13.03 Y10.802
X13.051 Y10.843
X13.071 Y10.875
X13.094 Y10.908
X13.121 Y10.943
X13.152 Y10.977
X13.188 Y11.012
X13.225 Y11.043
X13.264 Y11.072
X13.303 Y11.096
X13.342 Y11.117
X13.375 Y11.133
X13.401 Y11.143
X13.436 Y11.155
X13.48 Y11.168
X13.527 Y11.178
X13.576 Y11.186
X13.625 Y11.189
X18.287 Y11.19
X18.411 Y11.196
X18.423
X18.476
X18.521 Y11.209
X18.546 Y11.225
X18.572 Y11.254
X18.586 Y11.284
X18.591 Y11.324
X18.586 Y11.364
X18.57 Y11.398
X18.548 Y11.423
X18.52 Y11.441
X18.476 Y11.454
X18.423
X18.411
X18.287 Y11.46
X12.033
X11.797 Y11.434
X11.6 Y11.368
X11.429 Y11.267
X11.277 Y11.126
X11.162 Y10.96
X11.156 Y10.945
X11.083 Y10.771
X11.081 Y10.759
X11.046 Y10.568
X11.054 Y10.364
X11.106 Y10.162
X11.197 Y9.982
X11.322 Y9.826
X11.35 Y9.803
X11.483 Y9.696
X11.668 Y9.604
X11.866 Y9.554
X12.05 Y9.548
X12.081 Y9.554
X12.106 Y9.575
X12.118 Y9.605
X12.115 Y9.637
X12.009 Y9.936
X12.007 Y9.941
X11.704 Y11.116
X11.68 Y11.197
X11.672 Y11.207
X11.659 Y11.209
X11.648 Y11.203
G3 X12.683 Y10.398 Z3.42 I0.517 J-0.402
X11.648 Y11.203 Z3.24 I-0.517 J0.402
X12.683 Y10.398 Z3.06 I0.517 J-0.402
X11.648 Y11.203 Z2.879 I-0.517 J0.402
X12.683 Y10.398 Z2.699 I0.517 J-0.402
X12.481 Y11.375 Z2.6 I-0.517 J0.402
X11.675 Y11.141 I-0.286 J-0.52
X11.909 Y10.335 I0.52 J-0.286
G1 X11.956 Y10.316
X12.006 Y10.309
X12.056 Y10.314
X12.095 Y10.328
X12.13 Y10.35
X12.16 Y10.38
X12.181 Y10.416
X12.194 Y10.45
X12.201 Y10.486
G3 X11.987 Y10.701 I-0.194 J0.022
G1 X11.94 Y10.69
X11.897 Y10.668
X11.861 Y10.637
X11.833 Y10.598
X11.815 Y10.553
X11.808 Y10.505
X11.814 Y10.457
X11.832 Y10.412
X11.86 Y10.373
X11.897 Y10.342
X11.909 Y10.335
G2 X12.18 Y9.951 I-0.258 J-0.47
G3 X12.612 Y9.768 I0.274 J0.045
G1 X12.626 Y9.778
X12.766 Y9.927
X12.868 Y10.101
X12.934 Y10.298
X12.969 Y10.605
X12.979 Y10.657
X12.992 Y10.706
X13.009 Y10.754
X13.03 Y10.802
X13.051 Y10.843
X13.071 Y10.875
X13.094 Y10.908
X13.121 Y10.943
X13.152 Y10.977
X13.188 Y11.012
X13.225 Y11.043
X13.264 Y11.072
X13.303 Y11.096
X13.342 Y11.117
X13.375 Y11.133
X13.401 Y11.143
X13.436 Y11.155
X13.48 Y11.168
X13.527 Y11.178
X13.576 Y11.186
X13.625 Y11.189
X17.602 Y11.19
X17.65 Y11.195
X17.687 Y11.197
X17.821
X17.864 Y11.209
X17.89 Y11.226
X17.916 Y11.255
X17.93 Y11.286
X17.936 Y11.324
X17.93 Y11.365
X17.916 Y11.396
X17.891 Y11.424
X17.864 Y11.441
X17.82 Y11.453
X17.669 Y11.454
X17.628 Y11.457
X17.6 Y11.46
X12.033
X11.797 Y11.434
X11.6 Y11.368
X11.429 Y11.267
X11.277 Y11.126
X11.162 Y10.96
X11.156 Y10.945
X11.083 Y10.771
X11.081 Y10.759
X11.046 Y10.568
X11.054 Y10.364
X11.106 Y10.162
X11.197 Y9.982
X11.322 Y9.826
X11.35 Y9.803
X11.483 Y9.696
X11.668 Y9.604
X11.866 Y9.554
X12.071 Y9.547
X12.269 Y9.583
X12.457 Y9.66
X12.612 Y9.768
X12.628 Y9.785
X12.635 Y9.807
X12.632 Y9.83
X12.619 Y9.849
X12.443 Y10.022
X12.435 Y10.031
X11.721 Y11.124
X11.678 Y11.2
X11.669 Y11.208
X11.658 Y11.209
X11.648 Y11.203
G3 X12.683 Y10.398 Z2.42 I0.517 J-0.402
X11.648 Y11.203 Z2.24 I-0.517 J0.402
X12.683 Y10.398 Z2.06 I0.517 J-0.402
X11.648 Y11.203 Z1.879 I-0.517 J0.402
X12.683 Y10.398 Z1.699 I0.517 J-0.402
X12.481 Y11.375 Z1.6 I-0.517 J0.402
X11.675 Y11.141 I-0.286 J-0.52
X11.909 Y10.335 I0.52 J-0.286
G1 X11.956 Y10.316
X12.006 Y10.309
X12.056 Y10.314
X12.095 Y10.328
X12.13 Y10.35
X12.16 Y10.38
X12.181 Y10.416
X12.194 Y10.45
X12.201 Y10.486
G3 X11.987 Y10.701 I-0.194 J0.022
G1 X11.94 Y10.69
X11.897 Y10.668
X11.861 Y10.637
X11.833 Y10.598
X11.815 Y10.553
X11.808 Y10.505
X11.814 Y10.457
X11.832 Y10.412
X11.86 Y10.373
X11.897 Y10.342
X11.909 Y10.335
G2 X12.18 Y9.951 I-0.258 J-0.47
G3 X12.612 Y9.768 I0.274 J0.045
G1 X12.626 Y9.778
X12.766 Y9.927
X12.868 Y10.101
X12.934 Y10.298
X12.969 Y10.605
X12.979 Y10.657
X12.992 Y10.706
X13.009 Y10.754
X13.03 Y10.802
X13.051 Y10.843
X13.071 Y10.875
X13.094 Y10.908
X13.121 Y10.943
X13.152 Y10.977
X13.188 Y11.012
X13.225 Y11.043
X13.264 Y11.072
X13.303 Y11.096
X13.342 Y11.117
X13.375 Y11.133
X13.401 Y11.143
X13.436 Y11.155
X13.48 Y11.168
X13.527 Y11.178
X13.576 Y11.186
X13.625 Y11.189
X16.925 Y11.19
X16.937 Y11.191
X16.942 Y11.192
X16.975 Y11.196
X17.012 Y11.198
X17.169
X17.205 Y11.208
X17.236 Y11.228
X17.259 Y11.255
X17.274 Y11.287
X17.279 Y11.324
X17.274 Y11.363
X17.259 Y11.395
X17.234 Y11.423
X17.205 Y11.442
X17.169 Y11.452
X17.012
X16.972 Y11.455
X16.926 Y11.46
X12.033
X11.797 Y11.434
X11.6 Y11.368
X11.429 Y11.267
X11.277 Y11.126
X11.162 Y10.96
X11.156 Y10.945
X11.083 Y10.771
X11.081 Y10.759
X11.046 Y10.568
X11.054 Y10.364
X11.106 Y10.162
X11.197 Y9.982
X11.322 Y9.826
X11.35 Y9.803
X11.483 Y9.696
X11.668 Y9.604
X11.866 Y9.554
X12.071 Y9.547
X12.269 Y9.583
X12.457 Y9.66
X12.612 Y9.768
X12.632 Y9.789
X12.641 Y9.816
X12.639 Y9.845
X12.22 Y11.227
X12.207 Y11.25
X12.187 Y11.267
X12.162 Y11.275
X12.135 Y11.273
G3 X12.485 Y10.01 Z1.42 I0.175 J-0.632
X12.135 Y11.273 Z1.24 I-0.175 J0.632
X12.485 Y10.01 Z1.06 I0.175 J-0.632
X12.135 Y11.273 Z0.879 I-0.175 J0.632
X12.485 Y10.01 Z0.699 I0.175 J-0.632
X12.907 Y10.914 Z0.6 I-0.175 J0.632
X11.826 Y10.421 I-0.54 J-0.247
G1 X11.855 Y10.375
X11.896 Y10.338
X11.932 Y10.319
X11.972 Y10.308
X12.014 Y10.306
X12.055 Y10.313
X12.092 Y10.328
X12.125 Y10.35
X12.154 Y10.377
X12.177 Y10.41
X12.193 Y10.447
X12.201 Y10.486
G3 X11.987 Y10.701 I-0.194 J0.022
G1 X11.935 Y10.688
X11.889 Y10.663
X11.85 Y10.625
X11.823 Y10.579
X11.81 Y10.528
Y10.475
X11.816 Y10.447
X11.826 Y10.421
G2 X11.814 Y9.952 I-0.485 J-0.222
G3 X12.05 Y9.548 I0.245 J-0.128
G1 X12.071 Y9.547
X12.269 Y9.583
X12.457 Y9.66
X12.626 Y9.778
X12.766 Y9.927
X12.868 Y10.101
X12.934 Y10.298
X12.969 Y10.605
X12.979 Y10.657
X12.992 Y10.706
X13.009 Y10.754
X13.03 Y10.802
X13.051 Y10.843
X13.071 Y10.875
X13.094 Y10.908
X13.121 Y10.943
X13.152 Y10.977
X13.188 Y11.012
X13.225 Y11.043
X13.264 Y11.072
X13.303 Y11.096
X13.342 Y11.117
X13.375 Y11.133
X13.401 Y11.143
X13.436 Y11.155
X13.48 Y11.168
X13.527 Y11.178
X13.576 Y11.186
X13.625 Y11.189
X16.261 Y11.19
X16.282 Y11.194
X16.335 Y11.198
X16.45 Y11.199
X16.454 Y11.2
X16.517 Y11.199
X16.548 Y11.208
X16.579 Y11.228
X16.602 Y11.255
X16.618 Y11.288
X16.623 Y11.324
X16.618 Y11.362
X16.603 Y11.394
X16.587 Y11.413
X16.578 Y11.423
X16.548 Y11.442
X16.517 Y11.451
X16.515
X16.355
X16.315 Y11.453
X16.266 Y11.459
X16.256 Y11.46
X12.033
X11.797 Y11.434
X11.6 Y11.368
X11.429 Y11.267
X11.277 Y11.126
X11.162 Y10.96
X11.156 Y10.945
X11.083 Y10.771
X11.081 Y10.759
X11.046 Y10.568
X11.054 Y10.364
X11.106 Y10.162
X11.197 Y9.982
X11.322 Y9.826
X11.35 Y9.803
X11.483 Y9.696
X11.668 Y9.604
X11.866 Y9.554
X12.05 Y9.548
X12.067 Y9.553
X12.077 Y9.566
X12.078 Y9.584
X12.039 Y9.715
X11.842 Y10.907
X11.815 Y11.009
X11.804 Y11.023
X11.787 Y11.026
X11.773 Y11.017
G3 X12.848 Y10.266 Z0.42 I0.538 J-0.375
X11.773 Y11.017 Z0.24 I-0.538 J0.375
X12.848 Y10.266 Z0.06 I0.538 J-0.375
X12.907 Y10.914 Z0 I-0.538 J0.375
X11.826 Y10.421 I-0.54 J-0.247
G1 X11.855 Y10.375
X11.896 Y10.338
X11.932 Y10.319
X11.972 Y10.308
X12.014 Y10.306
X12.055 Y10.313
X12.092 Y10.328
X12.125 Y10.35
X12.154 Y10.377
X12.177 Y10.41
X12.193 Y10.447
X12.201 Y10.486
G3 X11.987 Y10.701 I-0.194 J0.022
G1 X11.935 Y10.688
X11.889 Y10.663
X11.85 Y10.625
X11.823 Y10.579
X11.81 Y10.528
Y10.475
X11.816 Y10.447
X11.826 Y10.421
G2 X11.814 Y9.952 I-0.485 J-0.222
G3 X12.05 Y9.548 I0.245 J-0.128
G1 X12.071 Y9.547
X12.269 Y9.583
X12.457 Y9.66
X12.626 Y9.778
X12.766 Y9.927
X12.868 Y10.101
X12.934 Y10.298
X12.969 Y10.605
X12.979 Y10.657
X12.992 Y10.706
X13.009 Y10.754
X13.03 Y10.802
X13.051 Y10.843
X13.071 Y10.875
X13.094 Y10.908
X13.121 Y10.943
X13.152 Y10.977
X13.188 Y11.012
X13.225 Y11.043
X13.264 Y11.072
X13.303 Y11.096
X13.342 Y11.117
X13.375 Y11.133
X13.401 Y11.143
X13.436 Y11.155
X13.48 Y11.168
X13.527 Y11.178
X13.576 Y11.186
X13.625 Y11.189
X15.865 Y11.19
X15.885 Y11.194
X15.932 Y11.199
X15.982 Y11.2
X15.994
X16.129
X16.16 Y11.208
X16.19 Y11.227
X16.216 Y11.256
X16.231 Y11.289
X16.236 Y11.324
X16.231 Y11.362
X16.216 Y11.392
X16.191 Y11.422
X16.16 Y11.442
X16.129 Y11.45
X15.96
X15.918 Y11.453
X15.869 Y11.459
X15.861 Y11.46
X12.033
X11.797 Y11.434
X11.6 Y11.368
X11.429 Y11.267
X11.277 Y11.126
X11.162 Y10.96
X11.156 Y10.945
X11.083 Y10.771
X11.081 Y10.759
X11.046 Y10.568
X11.054 Y10.364
X11.106 Y10.162
X11.197 Y9.982
X11.322 Y9.826
X11.35 Y9.803
X11.483 Y9.696
X11.668 Y9.604
X11.866 Y9.554
X12.05 Y9.548
X12.081 Y9.55 Z0.003
X12.108 Y9.559 Z0.014
X12.131 Y9.571 Z0.03
X12.148 Y9.584 Z0.052
X12.16 Y9.596 Z0.078
X12.166 Y9.604 Z0.107
X12.168 Y9.607 Z0.138
Z14
M5
M30
