(1027perpendicualr)
(Machine)
(  vendor: Nikodem Bartnik)
(  model: Generic 3-axis Router)
(  description: This machine has XYZ axis on the Head)
(T1  D=1.38 CR=0 - ZMIN=-0.1 - flat end mill)
G90 G94
G17
G21
(When using Fusion 360 for Personal Use, the feedrate of)
(rapid moves is reduced to match the feedrate of cutting)
(moves, which can increase machining time. Unrestricted rapid)
(moves are available with a Fusion 360 Subscription.)

(Perpendicular)
T1
S5000 M3
G54
G0 X12.141 Y9.572
Z19
G1 Z10.74 F30
Z-0.1
Z8
X11.602 Y9.672 Z-0.1
Z8
X11.594 Y9.686 Z8.079
X11.554 Y9.763 Z8.151
X11.51 Y9.847 Z8.21
X11.463 Y9.938 Z8.254
X11.414 Y10.033 Z8.284
X11.363 Y10.13 Z8.299
X11.312 Y10.227 Z8.298
X11.262 Y10.323 Z8.282
X11.214 Y10.416 Z8.251
X11.168 Y10.504 Z8.207
X11.126 Y10.585 Z8.149
X11.088 Y10.657 Z8.079
X11.081 Y10.671 Z8
Z-0.1
X11.108 Z-0.095 F50
X11.13 Z-0.08
X11.145 Z-0.057
X11.15 Z-0.031
Z8 F30
X11.152 Y10.665 Z8.082
X11.157 Y10.645 Z8.161
X11.166 Y10.614 Z8.237
X11.178 Y10.571 Z8.306
X11.193 Y10.517 Z8.366
X11.21 Y10.455 Z8.417
X11.228 Y10.389 Z8.471
X11.243 Y10.334 Z8.536
X11.255 Y10.29 Z8.611
X11.264 Y10.259 Z8.692
X11.269 Y10.242 Z8.777
Y10.24 Z8.864
X11.266 Y10.252 Z8.951
X11.258 Y10.279 Z9.033
X11.247 Y10.319 Z9.11
X11.233 Y10.371 Z9.178
X11.216 Y10.434 Z9.236
X11.196 Y10.506 Z9.281
X11.174 Y10.584 Z9.313
X11.151 Y10.666 Z9.331
X11.128 Y10.75 Z9.333
X11.105 Y10.834 Z9.32
X11.083 Y10.913 Z9.293
X11.063 Y10.987 Z9.251
X11.046 Y11.049 Z9.2
X11.031 Y11.103 Z9.14
X11.019 Y11.146 Z9.071
X11.01 Y11.177 Z8.995
X11.005 Y11.197 Z8.916
X11.003 Y11.203 Z8.834
X11.005 Y11.197 Z8.752
X11.01 Y11.177 Z8.673
X11.019 Y11.146 Z8.597
X11.031 Y11.103 Z8.528
X11.046 Y11.049 Z8.468
X11.063 Y10.987 Z8.417
X11.08 Y10.925 Z8.366
X11.095 Y10.872 Z8.306
X11.107 Y10.828 Z8.237
X11.115 Y10.797 Z8.161
X11.121 Y10.778 Z8.082
X11.123 Y10.771 Z8
Z-0.1
X11.149 Z-0.095 F50
X11.171 Z-0.08
X11.186 Z-0.057
X11.192 Z-0.031
Z8 F30
X11.193 Y10.765 Z8.082
X11.199 Y10.745 Z8.161
X11.207 Y10.714 Z8.237
X11.219 Y10.671 Z8.306
X11.234 Y10.617 Z8.366
X11.251 Y10.555 Z8.417
X11.269 Y10.489 Z8.471
X11.285 Y10.434 Z8.536
X11.297 Y10.39 Z8.611
X11.305 Y10.359 Z8.692
X11.31 Y10.342 Z8.777
X11.311 Y10.34 Z8.864
X11.307 Y10.352 Z8.951
X11.3 Y10.379 Z9.033
X11.289 Y10.419 Z9.11
X11.274 Y10.471 Z9.178
X11.257 Y10.534 Z9.236
X11.237 Y10.606 Z9.281
X11.216 Y10.684 Z9.313
X11.193 Y10.766 Z9.331
X11.17 Y10.85 Z9.333
X11.147 Y10.933 Z9.32
X11.125 Y11.013 Z9.293
X11.104 Y11.087 Z9.251
X11.087 Y11.149 Z9.2
X11.072 Y11.202 Z9.14
X11.06 Y11.246 Z9.071
X11.052 Y11.277 Z8.995
X11.046 Y11.296 Z8.916
X11.045 Y11.303 Z8.834
X11.046 Y11.296 Z8.752
X11.052 Y11.277 Z8.673
X11.06 Y11.246 Z8.597
X11.072 Y11.202 Z8.528
X11.087 Y11.149 Z8.468
X11.104 Y11.087 Z8.417
X11.121 Y11.025 Z8.366
X11.136 Y10.971 Z8.306
X11.148 Y10.928 Z8.237
X11.157 Y10.897 Z8.161
X11.162 Y10.877 Z8.082
X11.164 Y10.871 Z8
Z-0.1
X11.19 Z-0.095 F50
X11.213 Z-0.08
X11.228 Z-0.057
X11.233 Z-0.031
Z8 F30
X11.235 Y10.864 Z8.082
X11.24 Y10.845 Z8.161
X11.249 Y10.814 Z8.237
X11.261 Y10.771 Z8.306
X11.275 Y10.717 Z8.366
X11.293 Y10.655 Z8.417
X11.311 Y10.589 Z8.471
X11.326 Y10.534 Z8.536
X11.338 Y10.49 Z8.611
X11.347 Y10.459 Z8.692
X11.351 Y10.442 Z8.777
X11.352 Y10.44 Z8.864
X11.349 Y10.452 Z8.951
X11.341 Y10.479 Z9.033
X11.33 Y10.519 Z9.11
X11.316 Y10.571 Z9.178
X11.298 Y10.634 Z9.236
X11.279 Y10.706 Z9.281
X11.257 Y10.784 Z9.313
X11.234 Y10.866 Z9.331
X11.211 Y10.95 Z9.333
X11.188 Y11.033 Z9.32
X11.166 Y11.113 Z9.293
X11.146 Y11.187 Z9.251
X11.128 Y11.249 Z9.2
X11.114 Y11.302 Z9.14
X11.102 Y11.345 Z9.071
X11.093 Y11.377 Z8.995
X11.088 Y11.396 Z8.916
X11.086 Y11.403 Z8.834
X11.088 Y11.396 Z8.752
X11.093 Y11.377 Z8.673
X11.102 Y11.345 Z8.597
X11.114 Y11.302 Z8.528
X11.128 Y11.249 Z8.468
X11.146 Y11.187 Z8.417
X11.163 Y11.125 Z8.366
X11.178 Y11.071 Z8.306
X11.189 Y11.028 Z8.237
X11.198 Y10.997 Z8.161
X11.204 Y10.977 Z8.082
X11.205 Y10.971 Z8
Z-0.1
X11.232 Z-0.095 F50
X11.254 Z-0.08
X11.269 Z-0.057
X11.274 Z-0.031
Z8 F30
X11.272 Y10.966 Z8.076
X11.264 Y10.951 Z8.15
X11.251 Y10.926 Z8.22
X11.233 Y10.891 Z8.286
X11.211 Y10.849 Z8.344
X11.185 Y10.799 Z8.395
X11.156 Y10.742 Z8.454
X11.132 Y10.695 Z8.524
X11.114 Y10.66 Z8.601
X11.102 Y10.637 Z8.685
X11.097 Y10.627 Z8.771
X11.099 Y10.631 Z8.858
X11.108 Y10.648 Z8.943
X11.123 Y10.678 Z9.023
X11.145 Y10.72 Z9.097
X11.172 Y10.772 Z9.161
X11.204 Y10.834 Z9.213
X11.239 Y10.903 Z9.253
X11.277 Y10.977 Z9.279
X11.317 Y11.054 Z9.29
X11.357 Y11.131 Z9.286
X11.396 Y11.206 Z9.267
X11.433 Y11.278 Z9.233
X11.466 Y11.343 Z9.186
X11.494 Y11.397 Z9.13
X11.518 Y11.443 Z9.065
X11.536 Y11.478 Z8.992
X11.548 Y11.502 Z8.914
X11.554 Y11.514 Z8.832
Z8.749
X11.548 Y11.502 Z8.667
X11.536 Y11.478 Z8.589
X11.518 Y11.443 Z8.516
X11.494 Y11.397 Z8.451
X11.466 Y11.343 Z8.395
X11.44 Y11.293 Z8.344
X11.419 Y11.25 Z8.286
X11.401 Y11.216 Z8.22
X11.388 Y11.191 Z8.15
X11.38 Y11.176 Z8.076
X11.377 Y11.171 Z8
X11.378 Z-0.1
X11.405 Z-0.095 F50
X11.427 Z-0.08
X11.442 Z-0.057
X11.447 Z-0.031
Z8 F30
X11.444 Y11.165 Z8.081
X11.436 Y11.147 Z8.161
X11.422 Y11.117 Z8.236
X11.403 Y11.077 Z8.304
X11.38 Y11.028 Z8.365
X11.352 Y10.97 Z8.416
X11.323 Y10.908 Z8.47
X11.299 Y10.856 Z8.536
X11.28 Y10.815 Z8.61
X11.266 Y10.787 Z8.692
X11.259 Y10.771 Z8.777
X11.258 Y10.77 Z8.864
X11.264 Y10.782 Z8.95
X11.276 Y10.807 Z9.033
X11.293 Y10.845 Z9.109
X11.317 Y10.894 Z9.177
X11.345 Y10.953 Z9.235
X11.376 Y11.021 Z9.28
X11.411 Y11.094 Z9.312
X11.448 Y11.171 Z9.329
X11.485 Y11.25 Z9.331
X11.522 Y11.328 Z9.317
X11.557 Y11.403 Z9.289
X11.589 Y11.472 Z9.248
X11.619 Y11.535 Z9.192
X11.644 Y11.588 Z9.124
X11.663 Y11.629 Z9.048
X11.677 Y11.657 Z8.964
X11.683 Y11.671 Z8.876
Z8.787
X11.677 Y11.657 Z8.699
X11.663 Y11.629 Z8.616
X11.644 Y11.588 Z8.539
X11.619 Y11.535 Z8.472
X11.589 Y11.472 Z8.416
X11.562 Y11.414 Z8.365
X11.539 Y11.364 Z8.304
X11.52 Y11.324 Z8.236
X11.506 Y11.295 Z8.161
X11.497 Y11.277 Z8.081
X11.494 Y11.271 Z8
Z-0.1
X11.521 Z-0.095 F50
X11.543 Z-0.08
X11.558 Z-0.057
X11.563 Z-0.031
Z8 F30
X11.558 Y11.267 Z8.078
X11.543 Y11.257 Z8.154
X11.519 Y11.24 Z8.227
X11.485 Y11.217 Z8.294
X11.443 Y11.188 Z8.353
X11.394 Y11.155 Z8.404
X11.339 Y11.118 Z8.462
X11.294 Y11.087 Z8.529
X11.259 Y11.063 Z8.606
X11.236 Y11.047 Z8.688
X11.225 Y11.039 Z8.774
X11.226 Y11.04 Z8.861
X11.24 Y11.05 Z8.947
X11.266 Y11.067 Z9.028
X11.303 Y11.093 Z9.103
X11.35 Y11.125 Z9.168
X11.406 Y11.163 Z9.223
X11.469 Y11.206 Z9.265
X11.537 Y11.253 Z9.294
X11.608 Y11.301 Z9.307
X11.68 Y11.351 Z9.306
X11.751 Y11.399 Z9.289
X11.818 Y11.445 Z9.258
X11.88 Y11.487 Z9.213
X11.933 Y11.523 Z9.157
X11.977 Y11.554 Z9.09
X12.012 Y11.577 Z9.016
X12.036 Y11.594 Z8.935
X12.048 Y11.602 Z8.851
Z8.766
X12.036 Y11.594 Z8.682
X12.012 Y11.577 Z8.601
X11.977 Y11.554 Z8.527
X11.933 Y11.523 Z8.46
X11.88 Y11.487 Z8.404
X11.83 Y11.453 Z8.353
X11.788 Y11.425 Z8.294
X11.755 Y11.401 Z8.227
X11.73 Y11.385 Z8.154
X11.715 Y11.374 Z8.078
X11.71 Y11.371 Z8
Z-0.1
X11.737 Z-0.095 F50
X11.759 Z-0.08
X11.774 Z-0.057
X11.779 Z-0.031
Z8.009
X11.784 Y11.369 Z8.036
X11.798 Y11.363 Z8.058
X11.819 Y11.355 Z8.073
X11.844 Y11.346 Z8.078
X13.018 Y10.896 F30
X13.043 Y10.886 Z8.073
X13.064 Y10.878 Z8.058
X13.078 Y10.873 Z8.036
X13.083 Y10.871 Z8.009
X13.068 Z-0.1
X13.042 Z-0.095 F50
X13.019 Z-0.08
X13.004 Z-0.057
X12.999 Z-0.031
Z8.014 F30
X12.997 Y10.877 Z8.095
X12.991 Y10.896 Z8.175
X12.98 Y10.927 Z8.25
X12.966 Y10.969 Z8.319
X12.948 Y11.022 Z8.379
X12.927 Y11.083 Z8.43
X12.905 Y11.147 Z8.485
X12.886 Y11.202 Z8.55
X12.872 Y11.245 Z8.624
X12.862 Y11.275 Z8.705
X12.856 Y11.291 Z8.791
X12.855 Y11.293 Z8.878
X12.859 Y11.281 Z8.964
X12.868 Y11.255 Z9.047
X12.882 Y11.215 Z9.123
X12.899 Y11.164 Z9.191
X12.92 Y11.102 Z9.249
X12.944 Y11.032 Z9.295
X12.971 Y10.955 Z9.326
X12.998 Y10.874 Z9.344
X13.026 Y10.792 Z9.346
X13.054 Y10.71 Z9.333
X13.081 Y10.632 Z9.305
X13.105 Y10.559 Z9.264
X13.126 Y10.498 Z9.213
X13.144 Y10.446 Z9.152
X13.158 Y10.404 Z9.083
X13.169 Y10.373 Z9.008
X13.175 Y10.354 Z8.929
X13.178 Y10.348 Z8.847
X13.175 Y10.354 Z8.765
X13.169 Y10.373 Z8.686
X13.158 Y10.404 Z8.61
X13.144 Y10.446 Z8.542
X13.126 Y10.498 Z8.481
X13.105 Y10.559 Z8.43
X13.085 Y10.62 Z8.379
X13.067 Y10.673 Z8.319
X13.052 Y10.715 Z8.25
X13.042 Y10.746 Z8.175
X13.035 Y10.765 Z8.095
X13.033 Y10.771 Z8.014
X13.015 Z-0.1
X12.989 Z-0.095 F50
X12.967 Z-0.08
X12.952 Z-0.057
X12.946 Z-0.031
Z8.002 F30
X12.944 Y10.777 Z8.084
X12.937 Y10.796 Z8.163
X12.926 Y10.827 Z8.238
X12.91 Y10.868 Z8.307
X12.891 Y10.92 Z8.368
X12.868 Y10.98 Z8.419
X12.844 Y11.044 Z8.473
X12.824 Y11.098 Z8.538
X12.808 Y11.14 Z8.613
X12.797 Y11.17 Z8.694
X12.79 Y11.186 Z8.779
Y11.188 Z8.866
X12.794 Y11.176 Z8.953
X12.804 Y11.15 Z9.035
X12.819 Y11.111 Z9.112
X12.838 Y11.06 Z9.18
X12.861 Y10.999 Z9.238
X12.887 Y10.929 Z9.283
X12.916 Y10.853 Z9.315
X12.946 Y10.773 Z9.332
X12.976 Y10.692 Z9.334
X13.007 Y10.611 Z9.321
X13.036 Y10.534 Z9.293
X13.063 Y10.462 Z9.252
X13.085 Y10.402 Z9.201
X13.105 Y10.35 Z9.14
X13.12 Y10.309 Z9.071
X13.132 Y10.278 Z8.996
X13.139 Y10.259 Z8.917
X13.141 Y10.253 Z8.835
X13.139 Y10.259 Z8.753
X13.132 Y10.278 Z8.674
X13.12 Y10.309 Z8.599
X13.105 Y10.35 Z8.53
X13.085 Y10.402 Z8.469
X13.063 Y10.462 Z8.419
X13.04 Y10.522 Z8.368
X13.021 Y10.574 Z8.307
X13.005 Y10.616 Z8.238
X12.993 Y10.646 Z8.163
X12.986 Y10.665 Z8.084
X12.984 Y10.671 Z8.002
X12.982 Z-0.1
X12.955 Z-0.095 F50
X12.933 Z-0.08
X12.918 Z-0.057
X12.913 Z-0.031
Z8 F30
X12.91 Y10.677 Z8.082
X12.902 Y10.695 Z8.161
X12.888 Y10.725 Z8.236
X12.87 Y10.766 Z8.305
X12.848 Y10.816 Z8.365
X12.821 Y10.874 Z8.416
X12.793 Y10.936 Z8.47
X12.77 Y10.989 Z8.536
X12.751 Y11.03 Z8.61
X12.738 Y11.059 Z8.692
X12.731 Y11.074 Z8.777
X12.73 Y11.076 Z8.864
X12.736 Y11.064 Z8.95
X12.747 Y11.039 Z9.033
X12.764 Y11.001 Z9.109
X12.787 Y10.951 Z9.177
X12.814 Y10.891 Z9.235
X12.844 Y10.823 Z9.28
X12.877 Y10.749 Z9.312
X12.913 Y10.671 Z9.329
X12.948 Y10.592 Z9.331
X12.984 Y10.513 Z9.318
X13.017 Y10.438 Z9.29
X13.049 Y10.368 Z9.248
X13.077 Y10.305 Z9.192
X13.101 Y10.251 Z9.125
X13.12 Y10.21 Z9.048
X13.133 Y10.181 Z8.964
X13.139 Y10.167 Z8.877
Z8.787
X13.133 Y10.181 Z8.7
X13.12 Y10.21 Z8.616
X13.101 Y10.251 Z8.539
X13.077 Y10.305 Z8.472
X13.049 Y10.368 Z8.416
X13.022 Y10.427 Z8.365
X13 Y10.477 Z8.305
X12.982 Y10.517 Z8.236
X12.968 Y10.547 Z8.161
X12.96 Y10.565 Z8.082
X12.957 Y10.571 Z8
Z-0.1
X12.931 Z-0.095 F50
X12.908 Z-0.08
X12.893 Z-0.057
X12.888 Z-0.031
Z8 F30
X12.885 Y10.577 Z8.082
X12.877 Y10.595 Z8.161
X12.864 Y10.625 Z8.236
X12.845 Y10.665 Z8.305
X12.822 Y10.715 Z8.365
X12.796 Y10.774 Z8.416
X12.768 Y10.836 Z8.47
X12.744 Y10.888 Z8.536
X12.725 Y10.929 Z8.61
X12.712 Y10.958 Z8.692
X12.705 Y10.974 Z8.777
X12.704 Y10.975 Z8.864
X12.71 Y10.963 Z8.95
X12.721 Y10.938 Z9.033
X12.739 Y10.9 Z9.109
X12.761 Y10.85 Z9.177
X12.788 Y10.791 Z9.235
X12.819 Y10.723 Z9.28
X12.853 Y10.649 Z9.312
X12.888 Y10.571 Z9.329
X12.924 Y10.492 Z9.331
X12.96 Y10.413 Z9.318
X12.994 Y10.338 Z9.29
X13.026 Y10.269 Z9.248
X13.054 Y10.205 Z9.192
X13.079 Y10.152 Z9.125
X13.097 Y10.111 Z9.048
X13.11 Y10.082 Z8.964
X13.117 Y10.068 Z8.877
Z8.787
X13.11 Y10.082 Z8.7
X13.097 Y10.111 Z8.616
X13.079 Y10.152 Z8.539
X13.054 Y10.205 Z8.472
X13.026 Y10.269 Z8.416
X12.999 Y10.327 Z8.365
X12.976 Y10.377 Z8.305
X12.958 Y10.417 Z8.236
X12.944 Y10.447 Z8.161
X12.936 Y10.465 Z8.082
X12.933 Y10.471 Z8
Z-0.1
X12.907 Z-0.095 F50
X12.884 Z-0.08
X12.869 Z-0.057
X12.864 Z-0.031
Z8 F30
X12.861 Y10.477 Z8.082
X12.853 Y10.495 Z8.161
X12.84 Y10.525 Z8.236
X12.821 Y10.565 Z8.305
X12.798 Y10.615 Z8.365
X12.772 Y10.674 Z8.416
X12.744 Y10.736 Z8.47
X12.72 Y10.788 Z8.536
X12.701 Y10.829 Z8.61
X12.688 Y10.858 Z8.692
X12.681 Y10.874 Z8.777
X12.68 Y10.875 Z8.864
X12.686 Y10.863 Z8.95
X12.697 Y10.838 Z9.033
X12.715 Y10.8 Z9.109
X12.737 Y10.75 Z9.177
X12.764 Y10.691 Z9.235
X12.795 Y10.623 Z9.28
X12.829 Y10.549 Z9.312
X12.864 Y10.471 Z9.329
X12.9 Y10.392 Z9.331
X12.936 Y10.313 Z9.318
X12.97 Y10.238 Z9.29
X13.002 Y10.169 Z9.248
X13.03 Y10.105 Z9.192
X13.055 Y10.052 Z9.125
X13.073 Y10.011 Z9.048
X13.086 Y9.982 Z8.964
X13.093 Y9.968 Z8.877
Z8.787
X13.086 Y9.982 Z8.7
X13.073 Y10.011 Z8.616
X13.055 Y10.052 Z8.539
X13.03 Y10.105 Z8.472
X13.002 Y10.169 Z8.416
X12.975 Y10.227 Z8.365
X12.952 Y10.277 Z8.305
X12.934 Y10.317 Z8.236
X12.921 Y10.347 Z8.161
X12.912 Y10.365 Z8.082
X12.91 Y10.371 Z8
X12.909 Z-0.1
X12.883 Z-0.095 F50
X12.86 Z-0.08
X12.845 Z-0.057
X12.84 Z-0.031
Z8 F30
X12.837 Y10.377 Z8.082
X12.829 Y10.395 Z8.161
X12.816 Y10.425 Z8.236
X12.797 Y10.465 Z8.305
X12.774 Y10.515 Z8.365
X12.748 Y10.574 Z8.416
X12.72 Y10.636 Z8.47
X12.696 Y10.688 Z8.536
X12.677 Y10.729 Z8.61
X12.664 Y10.758 Z8.692
X12.657 Y10.774 Z8.777
X12.656 Y10.775 Z8.864
X12.662 Y10.763 Z8.95
X12.673 Y10.738 Z9.033
X12.691 Y10.7 Z9.109
X12.713 Y10.65 Z9.177
X12.74 Y10.591 Z9.235
X12.771 Y10.523 Z9.28
X12.805 Y10.449 Z9.312
X12.84 Y10.371 Z9.329
X12.876 Y10.292 Z9.331
X12.912 Y10.213 Z9.318
X12.946 Y10.138 Z9.29
X12.978 Y10.069 Z9.248
X13.006 Y10.005 Z9.192
X13.031 Y9.952 Z9.125
X13.049 Y9.911 Z9.048
X13.062 Y9.882 Z8.964
X13.069 Y9.868 Z8.877
Z8.787
X13.062 Y9.882 Z8.7
X13.049 Y9.911 Z8.616
X13.031 Y9.952 Z8.539
X13.006 Y10.005 Z8.472
X12.978 Y10.069 Z8.416
X12.951 Y10.127 Z8.365
X12.928 Y10.177 Z8.305
X12.91 Y10.217 Z8.236
X12.897 Y10.247 Z8.161
X12.888 Y10.265 Z8.082
X12.886 Y10.271 Z8
X12.885 Z-0.1
X12.859 Z-0.095 F50
X12.836 Z-0.08
X12.821 Z-0.057
X12.816 Z-0.031
Z8 F30
X12.813 Y10.277 Z8.082
X12.805 Y10.296 Z8.161
X12.792 Y10.325 Z8.236
X12.773 Y10.366 Z8.305
X12.75 Y10.416 Z8.365
X12.724 Y10.474 Z8.416
X12.696 Y10.536 Z8.47
X12.672 Y10.588 Z8.536
X12.653 Y10.629 Z8.61
X12.64 Y10.658 Z8.692
X12.633 Y10.674 Z8.777
X12.632 Y10.676 Z8.864
X12.638 Y10.664 Z8.95
X12.649 Y10.638 Z9.033
X12.667 Y10.6 Z9.109
X12.689 Y10.55 Z9.177
X12.716 Y10.491 Z9.235
X12.747 Y10.423 Z9.28
X12.781 Y10.349 Z9.312
X12.816 Y10.271 Z9.329
X12.852 Y10.192 Z9.331
X12.888 Y10.114 Z9.318
X12.922 Y10.038 Z9.29
X12.954 Y9.969 Z9.248
X12.982 Y9.906 Z9.192
X13.007 Y9.852 Z9.125
X13.025 Y9.811 Z9.048
X13.038 Y9.782 Z8.964
X13.045 Y9.768 Z8.877
Z8.787
X13.038 Y9.782 Z8.7
X13.025 Y9.811 Z8.616
X13.007 Y9.852 Z8.539
X12.982 Y9.906 Z8.472
X12.954 Y9.969 Z8.416
X12.927 Y10.027 Z8.365
X12.904 Y10.077 Z8.305
X12.886 Y10.118 Z8.236
X12.873 Y10.147 Z8.161
X12.864 Y10.165 Z8.082
X12.862 Y10.171 Z8
X12.861 Z-0.1
X12.835 Z-0.095 F50
X12.812 Z-0.08
X12.797 Z-0.057
X12.792 Z-0.031
Z8 F30
X12.789 Y10.177 Z8.082
X12.781 Y10.196 Z8.161
X12.768 Y10.225 Z8.236
X12.75 Y10.266 Z8.305
X12.728 Y10.316 Z8.365
X12.702 Y10.375 Z8.416
X12.674 Y10.437 Z8.471
X12.651 Y10.49 Z8.536
X12.632 Y10.531 Z8.61
X12.619 Y10.56 Z8.692
X12.612 Y10.576 Z8.777
Y10.577 Z8.864
X12.617 Y10.565 Z8.95
X12.628 Y10.54 Z9.033
X12.645 Y10.502 Z9.109
X12.667 Y10.452 Z9.177
X12.694 Y10.392 Z9.235
X12.724 Y10.324 Z9.28
X12.757 Y10.25 Z9.312
X12.792 Y10.172 Z9.329
X12.827 Y10.092 Z9.331
X12.862 Y10.013 Z9.318
X12.896 Y9.938 Z9.29
X12.927 Y9.868 Z9.248
X12.955 Y9.804 Z9.192
X12.979 Y9.751 Z9.125
X12.997 Y9.709 Z9.048
X13.01 Y9.681 Z8.964
X13.017 Y9.666 Z8.877
Z8.787
X13.01 Y9.681 Z8.7
X12.997 Y9.709 Z8.616
X12.979 Y9.751 Z8.539
X12.955 Y9.804 Z8.472
X12.927 Y9.868 Z8.416
X12.901 Y9.927 Z8.365
X12.879 Y9.977 Z8.305
X12.861 Y10.017 Z8.236
X12.847 Y10.047 Z8.161
X12.839 Y10.065 Z8.082
X12.837 Y10.071 Z8
X12.836 Z-0.1
X12.81 Z-0.095 F50
X12.787 Z-0.08
X12.772 Z-0.057
X12.767 Z-0.031
Z8 F30
X12.768 Y10.078 Z8.082
X12.771 Y10.098 Z8.162
X12.776 Y10.13 Z8.237
X12.783 Y10.175 Z8.306
X12.792 Y10.229 Z8.367
X12.802 Y10.293 Z8.417
X12.813 Y10.361 Z8.472
X12.822 Y10.418 Z8.537
X12.829 Y10.463 Z8.611
X12.834 Y10.495 Z8.692
X12.837 Y10.512 Z8.777
Y10.514 Z8.865
X12.835 Y10.502 Z8.951
X12.831 Y10.475 Z9.033
X12.825 Y10.434 Z9.11
X12.816 Y10.38 Z9.178
X12.806 Y10.316 Z9.236
X12.794 Y10.242 Z9.282
X12.781 Y10.162 Z9.314
X12.768 Y10.078 Z9.331
X12.754 Y9.992 Z9.334
X12.741 Y9.907 Z9.321
X12.728 Y9.825 Z9.294
X12.716 Y9.75 Z9.252
X12.706 Y9.686 Z9.201
X12.697 Y9.631 Z9.141
X12.69 Y9.587 Z9.072
X12.685 Y9.554 Z8.996
X12.682 Y9.534 Z8.917
X12.681 Y9.528 Z8.835
X12.682 Y9.534 Z8.753
X12.685 Y9.554 Z8.673
X12.69 Y9.587 Z8.598
X12.697 Y9.631 Z8.529
X12.706 Y9.686 Z8.468
X12.716 Y9.75 Z8.417
X12.726 Y9.813 Z8.367
X12.735 Y9.868 Z8.306
X12.742 Y9.912 Z8.237
X12.747 Y9.945 Z8.162
X12.75 Y9.965 Z8.082
X12.751 Y9.971 Z8
Z-0.1
X12.871 Y10.213
X12.935 Y10.477
X13.003 Y10.739
X13.146 Y10.971
X13.16 Z8.008
X13.158 Y10.965 Z8.09 F30
X13.152 Y10.946 Z8.169
X13.142 Y10.915 Z8.245
X13.128 Y10.872 Z8.313
X13.11 Y10.82 Z8.374
X13.09 Y10.759 Z8.425
X13.069 Y10.694 Z8.479
X13.05 Y10.639 Z8.544
X13.036 Y10.596 Z8.619
X13.026 Y10.566 Z8.7
X13.021 Y10.549 Z8.785
X13.02 Y10.547 Z8.872
X13.024 Y10.56 Z8.959
X13.033 Y10.586 Z9.041
X13.046 Y10.625 Z9.118
X13.063 Y10.677 Z9.186
X13.083 Y10.739 Z9.244
X13.107 Y10.81 Z9.289
X13.132 Y10.887 Z9.321
X13.159 Y10.968 Z9.338
X13.187 Y11.05 Z9.341
X13.214 Y11.132 Z9.328
X13.24 Y11.211 Z9.3
X13.264 Y11.283 Z9.258
X13.284 Y11.344 Z9.207
X13.301 Y11.397 Z9.147
X13.315 Y11.439 Z9.078
X13.326 Y11.47 Z9.003
X13.332 Y11.489 Z8.923
X13.334 Y11.496 Z8.841
X13.332 Y11.489 Z8.76
X13.326 Y11.47 Z8.68
X13.315 Y11.439 Z8.605
X13.301 Y11.397 Z8.536
X13.284 Y11.344 Z8.476
X13.264 Y11.283 Z8.425
X13.244 Y11.222 Z8.374
X13.226 Y11.17 Z8.313
X13.212 Y11.127 Z8.245
X13.202 Y11.096 Z8.169
X13.196 Y11.077 Z8.09
X13.193 Y11.071 Z8.008
Z0.069
X13.199 Z0.043
X13.214 Z0.02
X13.236 Z0.005
X13.262 Z0
X13.287 Z8.01
X13.489 Y11.171 Z-0.1
Z8
X13.565 Z8.012
X13.602 Z8.024 F50
X13.635 Z8.045
X13.66 Z8.075
X13.676 Z8.11
X13.681 Z8.149
Z14 F30
X15.938 Y11.271
Z10.683
Z0.071
X15.945 Z0.031
X15.963 Z-0.004
X15.992 Z-0.032
X16.028 Z-0.05
X16.068 Z-0.055
X16.107 Z-0.048
X16.143 Z-0.028
X16.17 Z0.002
X21.523 Z8.109
X22.073 Z8.433
X22.091 Z8.448 F50
X22.103 Z8.469
X22.107 Z8.492
Z8.494 F30
X22.106 Y11.264 Z8.576
X22.105 Y11.244 Z8.655
X22.102 Y11.211 Z8.731
X22.099 Y11.166 Z8.8
X22.095 Y11.111 Z8.86
X22.09 Y11.046 Z8.911
X22.085 Y10.978 Z8.965
X22.081 Y10.921 Z9.03
X22.078 Y10.875 Z9.105
X22.075 Y10.843 Z9.186
X22.074 Y10.825 Z9.271
Y10.823 Z9.358
X22.075 Y10.836 Z9.444
X22.077 Y10.863 Z9.527
X22.08 Y10.904 Z9.604
X22.084 Y10.958 Z9.672
X22.089 Y11.023 Z9.73
X22.094 Y11.097 Z9.776
X22.1 Y11.178 Z9.808
X22.106 Y11.263 Z9.825
X22.113 Y11.35 Z9.828
X22.119 Y11.436 Z9.815
X22.125 Y11.519 Z9.788
X22.131 Y11.595 Z9.746
X22.135 Y11.66 Z9.696
X22.139 Y11.715 Z9.635
X22.143 Y11.76 Z9.566
X22.145 Y11.793 Z9.49
X22.147 Y11.813 Z9.411
Y11.819 Z9.329
Y11.813 Z9.247
X22.145 Y11.793 Z9.167
X22.143 Y11.76 Z9.092
X22.139 Y11.715 Z9.023
X22.135 Y11.66 Z8.962
X22.131 Y11.595 Z8.911
X22.126 Y11.531 Z8.86
X22.122 Y11.475 Z8.8
X22.119 Y11.43 Z8.731
X22.116 Y11.398 Z8.655
X22.115 Y11.377 Z8.576
X22.114 Y11.371 Z8.494
X22.11 Z8.47
X22.098 Z8.449
X22.079 Z8.434
X21.533 Z8.121
X16.178 Z0.004
G18 G3 X15.938 Z0.076 I-0.109 K0.072 F50
G1 Z19 F30
G17
M5
M30
