(1029thru)
(Machine)
(  vendor: Nikodem Bartnik)
(  model: Generic 3-axis Router)
(  description: This machine has XYZ axis on the Head)
(T1  D=3.175 CR=0 - ZMIN=-0.2 - flat end mill)
G90 G94
G17
G21
(When using Fusion 360 for Personal Use, the feedrate of)
(rapid moves is reduced to match the feedrate of cutting)
(moves, which can increase machining time. Unrestricted rapid)
(moves are available with a Fusion 360 Subscription.)

(2D Adaptive2)
T1
S5000 M3
G54
G0 X18.143 Y5.847
Z26
G1 Z16 F50
Z10.1
G3 X16.982 Y7.188 Z9.96 I-1.179 J0.152 F30
X15.783 Y5.886 Z9.82 I-0.018 J-1.186
X17.21 Y4.844 Z9.68 I1.178 J0.116
X18.082 Y6.376 Z9.54 I-0.248 J1.155
X16.464 Y7.068 Z9.4 I-1.117 J-0.376
X15.961 Y5.386 Z9.26 I0.499 J-1.066
X17.685 Y5.077 Z9.12 I1 J0.615
X17.797 Y6.821 Z8.98 I-0.723 J0.922
X16.055 Y6.736 Z8.84 I-0.833 J-0.82
X16.336 Y5.018 Z8.7 I0.907 J-0.733
X18.008 Y5.491 Z8.56 I0.625 J0.983
X17.351 Y7.095 Z8.42 I-1.045 J0.509
X15.834 Y6.262 Z8.28 I-0.387 J-1.093
X16.831 Y4.853 Z8.14 I1.127 J-0.26
X18.116 Y6 Z8 I0.131 J1.147
X15.807 Y6 I-1.155 J0
X18.116 Y6 I1.155 J0
G1 X18.14 Y6.373 F50
X18.144 Y6.523
X18.11 Y6.669
X18.05 Y6.807
X18.028 Y6.841
X17.997 Y6.887
X17.964 Y6.932
X17.929 Y6.976
X17.906 Y7.003
X17.887 Y7.026
X17.859 Y7.053
X17.831 Y7.075
X17.741 Y7.129
X17.584 Y7.22
X17.449 Y7.286
X17.404 Y7.303
X17.358 Y7.317
X17.312 Y7.327
G3 X16.953 Y7.057 Z8.2 I-0.044 J-0.314
X17.146 Y6.719 I0.314 J-0.044
G1 X17.294 Y6.658
X17.357 Y6.639
X17.423 Y6.634
X17.488 Y6.642
X17.547 Y6.662 F20
X17.6 Y6.693
X17.647 Y6.734
X17.685 Y6.783
G3 X17.584 Y7.22 Z8 I-0.269 J0.168
G1 X17.45 Y7.294 F50
X17.413 Y7.307
X17.377 Y7.315
X17.087 Y7.366
X17.046 Y7.373
X17.012 Y7.379
X16.947 Y7.382
G3 X16.688 Y7.031 Z8.2 I0.014 J-0.281
X17.047 Y6.833 I0.273 J0.07
G1 X17.104 Y6.858 F20
X17.153 Y6.895
X17.194 Y6.942
X17.223 Y6.997
G3 X17.103 Y7.344 Z8.039 I-0.262 J0.104
G1 X17.059 Y7.365 Z8.02
X17.012 Y7.379 Z8
X16.975 Y7.383 F50
X16.939 Y7.382
X16.84 Y7.366
X16.64 Y7.331
X16.604 Y7.325
X16.574 Y7.319
X16.467 Y7.289
X16.439 Y7.271 F20
X16.42 Y7.243
X16.412 Y7.21
X16.417 Y7.176
X16.434 Y7.147
X16.461 Y7.126
X16.493 Y7.116
X16.527 Y7.119
X16.611 Y7.142
X16.638 Y7.155
X16.659 Y7.175
X16.673 Y7.201
X16.677 Y7.23
X16.672 Y7.26
X16.657 Y7.287
X16.634 Y7.307
X16.605 Y7.318
X16.574 Y7.319
X16.501 Y7.303 F50
X16.465 Y7.289
X16.428 Y7.269
X16.202 Y7.139
X16.137 Y7.101
X16.095 Y7.075
X16.066 Y7.051
X16.036 Y7.021
X15.845 Y6.793
X15.837 Y6.783
X15.755 Y6.669
G3 X15.854 Y6.209 Z8.2 I0.396 J-0.155
G1 X15.903 Y6.168
G3 X16.486 Y6.743 I0.242 J0.337
G1 X16.446 Y6.791 F20
X16.4 Y6.833
X16.349 Y6.867
X16.293 Y6.894
G3 X15.837 Y6.783 Z8 I-0.147 J-0.388
G1 X15.779 Y6.71 F50
X15.757 Y6.674
X15.741 Y6.637
X15.646 Y6.375
X15.635 Y6.346
X15.621 Y6.306
X15.604 Y6.249
X15.599 Y6.191 Z8.023
G3 X15.825 Y5.888 Z8.186 I0.317 J0
G1 X15.859 Y5.88 Z8.2
G3 X16.206 Y6.315 I0.056 J0.311
G1 X16.176 Y6.37 F20
X16.136 Y6.417
X16.087 Y6.456
X16.032 Y6.484
G3 X15.621 Y6.306 Z8 I-0.117 J-0.294
G1 X15.609 Y6.273 F50
X15.601 Y6.237
X15.598 Y6.2
X15.597 Y5.909
X15.598 Y5.865
X15.599 Y5.834
X15.608 Y5.765
X15.623 Y5.697
X15.644 Y5.631
G3 X16.057 Y5.455 Z8.2 I0.294 J0.119
X16.246 Y5.828 I-0.119 J0.294
G1 X16.224 Y5.911
X16.205 Y5.965
X16.177 Y6.014
X16.141 Y6.057
X16.093 Y6.097 F20
X16.039 Y6.126
X15.979 Y6.144
X15.918 Y6.15
G3 X15.599 Y5.834 Z8 I-0.001 J-0.317
G1 X15.601 Y5.763 F50
X15.61 Y5.726
X15.622 Y5.69
X15.702 Y5.471
X15.719 Y5.427
X15.731 Y5.397
X15.746 Y5.358
X15.765 Y5.315
X15.8 Y5.276
X15.844 Y5.249
X15.895 Y5.234
X15.947 Y5.235
X15.997 Y5.249
X16.029 Y5.268
X16.057 Y5.292
G3 X15.785 Y5.545 I-0.136 J0.127 F20
X15.746 Y5.358 I0.136 J-0.127
G1 X15.758 Y5.326 F50
X15.795 Y5.266
X15.99 Y5.034
X15.991 Y5.033
X16.013 Y5.008
X16.088 Y4.931
G3 X16.532 Y4.997 Z8.2 I0.189 J0.255
X16.525 Y5.385 I-0.255 J0.189
G1 X16.506 Y5.409
X16.461 Y5.454
X16.409 Y5.489
X16.35 Y5.514
X16.288 Y5.526
X16.226 F20
X16.165 Y5.513
X16.108 Y5.489
X16.056 Y5.455
G3 X16.013 Y5.008 Z8 I0.202 J-0.245
G1 X16.064 Y4.95 F50
X16.1 Y4.921
X16.155 Y4.888
X16.351 Y4.775
X16.382 Y4.757
X16.408 Y4.743
X16.483 Y4.704
G3 X16.927 Y4.843 Z8.2 I0.129 J0.368
G1 X16.959 Y4.895
G3 X16.376 Y5.379 I-0.345 J0.177
G1 X16.33 Y5.337 F20
X16.292 Y5.288
X16.261 Y5.234
X16.24 Y5.176
G3 X16.408 Y4.743 Z8 I0.374 J-0.104
G1 X16.465 Y4.711 F50
X16.501 Y4.697
X16.574 Y4.681
X16.8 Y4.641
X16.837 Y4.634
X16.866 Y4.629
X16.978 Y4.618
G3 X17.286 Y4.935 Z8.191 I-0.047 J0.354
G1 X17.288 Y4.957 Z8.2
G3 X16.689 Y5.216 I-0.349 J0.015
G1 X16.65 Y5.168 F20
X16.62 Y5.114
X16.6 Y5.055
X16.59 Y4.994
G3 X16.866 Y4.629 Z8 I0.349 J-0.023
G1 X16.939 Y4.618 F50
X16.975 Y4.617
X17.012 Y4.621
X17.304 Y4.672
X17.344 Y4.679
X17.377 Y4.685
X17.439 Y4.702
G3 X17.588 Y5.116 Z8.2 I-0.106 J0.272
X17.137 Y5.191 I-0.255 J-0.142
G1 X17.096 Y5.145 F20
X17.065 Y5.091
X17.047 Y5.032
X17.041 Y4.97
G3 X17.289 Y4.685 Z8.035 I0.292 J0.004
G1 X17.333 Y4.682 Z8.018
X17.377 Y4.685 Z8
X17.413 Y4.693 F50
X17.45 Y4.706
X17.52 Y4.743
X17.741 Y4.871
X17.772 Y4.888
X17.804 Y4.907
X17.847 Y4.936
G3 X17.899 Y5.303 Z8.163 I-0.178 J0.212
G1 X17.87 Y5.339 Z8.181
X17.835 Y5.37 Z8.2
G3 X17.446 Y5.31 I-0.165 J-0.221
G1 X17.415 Y5.257 F20
X17.398 Y5.197
X17.394 Y5.135
X17.404 Y5.074
G3 X17.804 Y4.907 Z8 I0.266 J0.075
G1 X17.83 Y4.923 F50
X17.859 Y4.945
X17.887 Y4.974
X18.06 Y5.18
X18.079 Y5.202
X18.102 Y5.23
X18.144 Y5.291
X18.179 Y5.356
X18.208 Y5.424
G3 X18.007 Y5.825 Z8.2 I-0.301 J0.1
X17.623 Y5.667 I-0.1 J-0.301
G1 X17.582 Y5.585
X17.562 Y5.534
X17.551 Y5.48
X17.549 Y5.424
X17.559 Y5.363 F20
X17.58 Y5.305
X17.612 Y5.252
X17.654 Y5.206
G3 X18.102 Y5.23 Z8 I0.212 J0.236
G1 X18.121 Y5.253 F50
X18.149 Y5.289
X18.17 Y5.326
X18.179 Y5.345
X18.279 Y5.617
X18.305 Y5.689
X18.317 Y5.725
X18.325 Y5.763
X18.331 Y5.909
X18.33 Y6.2
X18.325 Y6.242
X18.293 Y6.346
X18.186 Y6.637
X18.179 Y6.656
X18.163 Y6.688
X18.143 Y6.719
X18.091 Y6.783
X17.929 Y6.976
G3 X17.505 Y7.018 I-0.236 J-0.213
G1 X17.47 Y6.976 Z8.005
X17.437 Y6.935 Z8.019
X17.406 Y6.896 Z8.042
X17.396 Y6.853 Z8.073
X17.388 Y6.816 Z8.111
X17.381 Y6.786 Z8.155
X17.376 Y6.763 Z8.203
X17.377 Y6.747 Z8.259
Y6.741 Z8.317
Z16
X18.143 Y5.847
Z8.1
G3 X16.982 Y7.188 Z7.96 I-1.179 J0.152 F30
X15.783 Y5.886 Z7.82 I-0.018 J-1.186
X17.21 Y4.844 Z7.68 I1.178 J0.116
X18.082 Y6.376 Z7.54 I-0.248 J1.155
X16.464 Y7.068 Z7.4 I-1.117 J-0.376
X15.961 Y5.386 Z7.26 I0.499 J-1.066
X17.685 Y5.077 Z7.12 I1 J0.615
X17.797 Y6.821 Z6.98 I-0.723 J0.922
X16.055 Y6.736 Z6.84 I-0.833 J-0.82
X16.336 Y5.018 Z6.7 I0.907 J-0.733
X18.008 Y5.491 Z6.56 I0.625 J0.983
X17.351 Y7.095 Z6.42 I-1.045 J0.509
X15.834 Y6.262 Z6.28 I-0.387 J-1.093
X16.831 Y4.853 Z6.14 I1.127 J-0.26
X18.116 Y6 Z6 I0.131 J1.147
X15.807 Y6 I-1.155 J0
X18.116 Y6 I1.155 J0
G1 X18.14 Y6.373 F50
X18.144 Y6.523
X18.11 Y6.669
X18.05 Y6.807
X18.028 Y6.841
X17.997 Y6.887
X17.964 Y6.932
X17.929 Y6.976
X17.906 Y7.003
X17.887 Y7.026
X17.859 Y7.053
X17.831 Y7.075
X17.741 Y7.129
X17.584 Y7.22
X17.449 Y7.286
X17.404 Y7.303
X17.358 Y7.317
X17.312 Y7.327
G3 X16.953 Y7.057 Z6.2 I-0.044 J-0.314
X17.146 Y6.719 I0.314 J-0.044
G1 X17.294 Y6.658
X17.357 Y6.639
X17.423 Y6.634
X17.488 Y6.642
X17.547 Y6.662 F20
X17.6 Y6.693
X17.647 Y6.734
X17.685 Y6.783
G3 X17.584 Y7.22 Z6 I-0.269 J0.168
G1 X17.45 Y7.294 F50
X17.413 Y7.307
X17.377 Y7.315
X17.087 Y7.366
X17.046 Y7.373
X17.012 Y7.379
X16.947 Y7.382
G3 X16.688 Y7.031 Z6.2 I0.014 J-0.281
X17.047 Y6.833 I0.273 J0.07
G1 X17.104 Y6.858 F20
X17.153 Y6.895
X17.194 Y6.942
X17.223 Y6.997
G3 X17.103 Y7.344 Z6.039 I-0.262 J0.104
G1 X17.059 Y7.365 Z6.02
X17.012 Y7.379 Z6
X16.975 Y7.383 F50
X16.939 Y7.382
X16.84 Y7.366
X16.64 Y7.331
X16.604 Y7.325
X16.574 Y7.319
X16.467 Y7.289
X16.439 Y7.271 F20
X16.42 Y7.243
X16.412 Y7.21
X16.417 Y7.176
X16.434 Y7.147
X16.461 Y7.126
X16.493 Y7.116
X16.527 Y7.119
X16.611 Y7.142
X16.638 Y7.155
X16.659 Y7.175
X16.673 Y7.201
X16.677 Y7.23
X16.672 Y7.26
X16.657 Y7.287
X16.634 Y7.307
X16.605 Y7.318
X16.574 Y7.319
X16.501 Y7.303 F50
X16.465 Y7.289
X16.428 Y7.269
X16.202 Y7.139
X16.137 Y7.101
X16.095 Y7.075
X16.066 Y7.051
X16.036 Y7.021
X15.845 Y6.793
X15.837 Y6.783
X15.755 Y6.669
G3 X15.854 Y6.209 Z6.2 I0.396 J-0.155
G1 X15.903 Y6.168
G3 X16.486 Y6.743 I0.242 J0.337
G1 X16.446 Y6.791 F20
X16.4 Y6.833
X16.349 Y6.867
X16.293 Y6.894
G3 X15.837 Y6.783 Z6 I-0.147 J-0.388
G1 X15.779 Y6.71 F50
X15.757 Y6.674
X15.741 Y6.637
X15.646 Y6.375
X15.635 Y6.346
X15.621 Y6.306
X15.604 Y6.249
X15.599 Y6.191 Z6.023
G3 X15.825 Y5.888 Z6.186 I0.317 J0
G1 X15.859 Y5.88 Z6.2
G3 X16.206 Y6.315 I0.056 J0.311
G1 X16.176 Y6.37 F20
X16.136 Y6.417
X16.087 Y6.456
X16.032 Y6.484
G3 X15.621 Y6.306 Z6 I-0.117 J-0.294
G1 X15.609 Y6.273 F50
X15.601 Y6.237
X15.598 Y6.2
X15.597 Y5.909
X15.598 Y5.865
X15.599 Y5.834
X15.608 Y5.765
X15.623 Y5.697
X15.644 Y5.631
G3 X16.057 Y5.455 Z6.2 I0.294 J0.119
X16.246 Y5.828 I-0.119 J0.294
G1 X16.224 Y5.911
X16.205 Y5.965
X16.177 Y6.014
X16.141 Y6.057
X16.093 Y6.097 F20
X16.039 Y6.126
X15.979 Y6.144
X15.918 Y6.15
G3 X15.599 Y5.834 Z6 I-0.001 J-0.317
G1 X15.601 Y5.763 F50
X15.61 Y5.726
X15.622 Y5.69
X15.702 Y5.471
X15.719 Y5.427
X15.731 Y5.397
X15.746 Y5.358
X15.765 Y5.315
X15.8 Y5.276
X15.844 Y5.249
X15.895 Y5.234
X15.947 Y5.235
X15.997 Y5.249
X16.029 Y5.268
X16.057 Y5.292
G3 X15.785 Y5.545 I-0.136 J0.127 F20
X15.746 Y5.358 I0.136 J-0.127
G1 X15.758 Y5.326 F50
X15.795 Y5.266
X15.99 Y5.034
X15.991 Y5.033
X16.013 Y5.008
X16.088 Y4.931
G3 X16.532 Y4.997 Z6.2 I0.189 J0.255
X16.525 Y5.385 I-0.255 J0.189
G1 X16.506 Y5.409
X16.461 Y5.454
X16.409 Y5.489
X16.35 Y5.514
X16.288 Y5.526
X16.226 F20
X16.165 Y5.513
X16.108 Y5.489
X16.056 Y5.455
G3 X16.013 Y5.008 Z6 I0.202 J-0.245
G1 X16.064 Y4.95 F50
X16.1 Y4.921
X16.155 Y4.888
X16.351 Y4.775
X16.382 Y4.757
X16.408 Y4.743
X16.483 Y4.704
G3 X16.927 Y4.843 Z6.2 I0.129 J0.368
G1 X16.959 Y4.895
G3 X16.376 Y5.379 I-0.345 J0.177
G1 X16.33 Y5.337 F20
X16.292 Y5.288
X16.261 Y5.234
X16.24 Y5.176
G3 X16.408 Y4.743 Z6 I0.374 J-0.104
G1 X16.465 Y4.711 F50
X16.501 Y4.697
X16.574 Y4.681
X16.8 Y4.641
X16.837 Y4.634
X16.866 Y4.629
X16.978 Y4.618
G3 X17.286 Y4.935 Z6.191 I-0.047 J0.354
G1 X17.288 Y4.957 Z6.2
G3 X16.689 Y5.216 I-0.349 J0.015
G1 X16.65 Y5.168 F20
X16.62 Y5.114
X16.6 Y5.055
X16.59 Y4.994
G3 X16.866 Y4.629 Z6 I0.349 J-0.023
G1 X16.939 Y4.618 F50
X16.975 Y4.617
X17.012 Y4.621
X17.304 Y4.672
X17.344 Y4.679
X17.377 Y4.685
X17.439 Y4.702
G3 X17.588 Y5.116 Z6.2 I-0.106 J0.272
X17.137 Y5.191 I-0.255 J-0.142
G1 X17.096 Y5.145 F20
X17.065 Y5.091
X17.047 Y5.032
X17.041 Y4.97
G3 X17.289 Y4.685 Z6.035 I0.292 J0.004
G1 X17.333 Y4.682 Z6.018
X17.377 Y4.685 Z6
X17.413 Y4.693 F50
X17.45 Y4.706
X17.52 Y4.743
X17.741 Y4.871
X17.772 Y4.888
X17.804 Y4.907
X17.847 Y4.936
G3 X17.899 Y5.303 Z6.163 I-0.178 J0.212
G1 X17.87 Y5.339 Z6.181
X17.835 Y5.37 Z6.2
G3 X17.446 Y5.31 I-0.165 J-0.221
G1 X17.415 Y5.257 F20
X17.398 Y5.197
X17.394 Y5.135
X17.404 Y5.074
G3 X17.804 Y4.907 Z6 I0.266 J0.075
G1 X17.83 Y4.923 F50
X17.859 Y4.945
X17.887 Y4.974
X18.06 Y5.18
X18.079 Y5.202
X18.102 Y5.23
X18.144 Y5.291
X18.179 Y5.356
X18.208 Y5.424
G3 X18.007 Y5.825 Z6.2 I-0.301 J0.1
X17.623 Y5.667 I-0.1 J-0.301
G1 X17.582 Y5.585
X17.562 Y5.534
X17.551 Y5.48
X17.549 Y5.424
X17.559 Y5.363 F20
X17.58 Y5.305
X17.612 Y5.252
X17.654 Y5.206
G3 X18.102 Y5.23 Z6 I0.212 J0.236
G1 X18.121 Y5.253 F50
X18.149 Y5.289
X18.17 Y5.326
X18.179 Y5.345
X18.279 Y5.617
X18.305 Y5.689
X18.317 Y5.725
X18.325 Y5.763
X18.331 Y5.909
X18.33 Y6.2
X18.325 Y6.242
X18.293 Y6.346
X18.186 Y6.637
X18.179 Y6.656
X18.163 Y6.688
X18.143 Y6.719
X18.091 Y6.783
X17.929 Y6.976
G3 X17.505 Y7.018 I-0.236 J-0.213
G1 X17.47 Y6.976 Z6.005
X17.437 Y6.935 Z6.019
X17.406 Y6.896 Z6.042
X17.396 Y6.853 Z6.073
X17.388 Y6.816 Z6.111
X17.381 Y6.786 Z6.155
X17.376 Y6.763 Z6.203
X17.377 Y6.747 Z6.259
Y6.741 Z6.317
Z16
X18.143 Y5.847
Z6.1
G3 X16.982 Y7.188 Z5.96 I-1.179 J0.152 F30
X15.783 Y5.886 Z5.82 I-0.018 J-1.186
X17.21 Y4.844 Z5.68 I1.178 J0.116
X18.082 Y6.376 Z5.54 I-0.248 J1.155
X16.464 Y7.068 Z5.4 I-1.117 J-0.376
X15.961 Y5.386 Z5.26 I0.499 J-1.066
X17.685 Y5.077 Z5.12 I1 J0.615
X17.797 Y6.821 Z4.98 I-0.723 J0.922
X16.055 Y6.736 Z4.84 I-0.833 J-0.82
X16.336 Y5.018 Z4.7 I0.907 J-0.733
X18.008 Y5.491 Z4.56 I0.625 J0.983
X17.351 Y7.095 Z4.42 I-1.045 J0.509
X15.834 Y6.262 Z4.28 I-0.387 J-1.093
X16.831 Y4.853 Z4.14 I1.127 J-0.26
X18.116 Y6 Z4 I0.131 J1.147
X15.807 Y6 I-1.155 J0
X18.116 Y6 I1.155 J0
G1 X18.14 Y6.373 F50
X18.144 Y6.523
X18.11 Y6.669
X18.05 Y6.807
X18.028 Y6.841
X17.997 Y6.887
X17.964 Y6.932
X17.929 Y6.976
X17.906 Y7.003
X17.887 Y7.026
X17.859 Y7.053
X17.831 Y7.075
X17.741 Y7.129
X17.584 Y7.22
X17.449 Y7.286
X17.404 Y7.303
X17.358 Y7.317
X17.312 Y7.327
G3 X16.953 Y7.057 Z4.2 I-0.044 J-0.314
X17.146 Y6.719 I0.314 J-0.044
G1 X17.294 Y6.658
X17.357 Y6.639
X17.423 Y6.634
X17.488 Y6.642
X17.547 Y6.662 F20
X17.6 Y6.693
X17.647 Y6.734
X17.685 Y6.783
G3 X17.584 Y7.22 Z4 I-0.269 J0.168
G1 X17.45 Y7.294 F50
X17.413 Y7.307
X17.377 Y7.315
X17.087 Y7.366
X17.046 Y7.373
X17.012 Y7.379
X16.947 Y7.382
G3 X16.688 Y7.031 Z4.2 I0.014 J-0.281
X17.047 Y6.833 I0.273 J0.07
G1 X17.104 Y6.858 F20
X17.153 Y6.895
X17.194 Y6.942
X17.223 Y6.997
G3 X17.103 Y7.344 Z4.039 I-0.262 J0.104
G1 X17.059 Y7.365 Z4.02
X17.012 Y7.379 Z4
X16.975 Y7.383 F50
X16.939 Y7.382
X16.84 Y7.366
X16.64 Y7.331
X16.604 Y7.325
X16.574 Y7.319
X16.467 Y7.289
X16.439 Y7.271 F20
X16.42 Y7.243
X16.412 Y7.21
X16.417 Y7.176
X16.434 Y7.147
X16.461 Y7.126
X16.493 Y7.116
X16.527 Y7.119
X16.611 Y7.142
X16.638 Y7.155
X16.659 Y7.175
X16.673 Y7.201
X16.677 Y7.23
X16.672 Y7.26
X16.657 Y7.287
X16.634 Y7.307
X16.605 Y7.318
X16.574 Y7.319
X16.501 Y7.303 F50
X16.465 Y7.289
X16.428 Y7.269
X16.202 Y7.139
X16.137 Y7.101
X16.095 Y7.075
X16.066 Y7.051
X16.036 Y7.021
X15.845 Y6.793
X15.837 Y6.783
X15.755 Y6.669
G3 X15.854 Y6.209 Z4.2 I0.396 J-0.155
G1 X15.903 Y6.168
G3 X16.486 Y6.743 I0.242 J0.337
G1 X16.446 Y6.791 F20
X16.4 Y6.833
X16.349 Y6.867
X16.293 Y6.894
G3 X15.837 Y6.783 Z4 I-0.147 J-0.388
G1 X15.779 Y6.71 F50
X15.757 Y6.674
X15.741 Y6.637
X15.646 Y6.375
X15.635 Y6.346
X15.621 Y6.306
X15.604 Y6.249
X15.599 Y6.191 Z4.023
G3 X15.825 Y5.888 Z4.186 I0.317 J0
G1 X15.859 Y5.88 Z4.2
G3 X16.206 Y6.315 I0.056 J0.311
G1 X16.176 Y6.37 F20
X16.136 Y6.417
X16.087 Y6.456
X16.032 Y6.484
G3 X15.621 Y6.306 Z4 I-0.117 J-0.294
G1 X15.609 Y6.273 F50
X15.601 Y6.237
X15.598 Y6.2
X15.597 Y5.909
X15.598 Y5.865
X15.599 Y5.834
X15.608 Y5.765
X15.623 Y5.697
X15.644 Y5.631
G3 X16.057 Y5.455 Z4.2 I0.294 J0.119
X16.246 Y5.828 I-0.119 J0.294
G1 X16.224 Y5.911
X16.205 Y5.965
X16.177 Y6.014
X16.141 Y6.057
X16.093 Y6.097 F20
X16.039 Y6.126
X15.979 Y6.144
X15.918 Y6.15
G3 X15.599 Y5.834 Z4 I-0.001 J-0.317
G1 X15.601 Y5.763 F50
X15.61 Y5.726
X15.622 Y5.69
X15.702 Y5.471
X15.719 Y5.427
X15.731 Y5.397
X15.746 Y5.358
X15.765 Y5.315
X15.8 Y5.276
X15.844 Y5.249
X15.895 Y5.234
X15.947 Y5.235
X15.997 Y5.249
X16.029 Y5.268
X16.057 Y5.292
G3 X15.785 Y5.545 I-0.136 J0.127 F20
X15.746 Y5.358 I0.136 J-0.127
G1 X15.758 Y5.326 F50
X15.795 Y5.266
X15.99 Y5.034
X15.991 Y5.033
X16.013 Y5.008
X16.088 Y4.931
G3 X16.532 Y4.997 Z4.2 I0.189 J0.255
X16.525 Y5.385 I-0.255 J0.189
G1 X16.506 Y5.409
X16.461 Y5.454
X16.409 Y5.489
X16.35 Y5.514
X16.288 Y5.526
X16.226 F20
X16.165 Y5.513
X16.108 Y5.489
X16.056 Y5.455
G3 X16.013 Y5.008 Z4 I0.202 J-0.245
G1 X16.064 Y4.95 F50
X16.1 Y4.921
X16.155 Y4.888
X16.351 Y4.775
X16.382 Y4.757
X16.408 Y4.743
X16.483 Y4.704
G3 X16.927 Y4.843 Z4.2 I0.129 J0.368
G1 X16.959 Y4.895
G3 X16.376 Y5.379 I-0.345 J0.177
G1 X16.33 Y5.337 F20
X16.292 Y5.288
X16.261 Y5.234
X16.24 Y5.176
G3 X16.408 Y4.743 Z4 I0.374 J-0.104
G1 X16.465 Y4.711 F50
X16.501 Y4.697
X16.574 Y4.681
X16.8 Y4.641
X16.837 Y4.634
X16.866 Y4.629
X16.978 Y4.618
G3 X17.286 Y4.935 Z4.191 I-0.047 J0.354
G1 X17.288 Y4.957 Z4.2
G3 X16.689 Y5.216 I-0.349 J0.015
G1 X16.65 Y5.168 F20
X16.62 Y5.114
X16.6 Y5.055
X16.59 Y4.994
G3 X16.866 Y4.629 Z4 I0.349 J-0.023
G1 X16.939 Y4.618 F50
X16.975 Y4.617
X17.012 Y4.621
X17.304 Y4.672
X17.344 Y4.679
X17.377 Y4.685
X17.439 Y4.702
G3 X17.588 Y5.116 Z4.2 I-0.106 J0.272
X17.137 Y5.191 I-0.255 J-0.142
G1 X17.096 Y5.145 F20
X17.065 Y5.091
X17.047 Y5.032
X17.041 Y4.97
G3 X17.289 Y4.685 Z4.035 I0.292 J0.004
G1 X17.333 Y4.682 Z4.018
X17.377 Y4.685 Z4
X17.413 Y4.693 F50
X17.45 Y4.706
X17.52 Y4.743
X17.741 Y4.871
X17.772 Y4.888
X17.804 Y4.907
X17.847 Y4.936
G3 X17.899 Y5.303 Z4.163 I-0.178 J0.212
G1 X17.87 Y5.339 Z4.181
X17.835 Y5.37 Z4.2
G3 X17.446 Y5.31 I-0.165 J-0.221
G1 X17.415 Y5.257 F20
X17.398 Y5.197
X17.394 Y5.135
X17.404 Y5.074
G3 X17.804 Y4.907 Z4 I0.266 J0.075
G1 X17.83 Y4.923 F50
X17.859 Y4.945
X17.887 Y4.974
X18.06 Y5.18
X18.079 Y5.202
X18.102 Y5.23
X18.144 Y5.291
X18.179 Y5.356
X18.208 Y5.424
G3 X18.007 Y5.825 Z4.2 I-0.301 J0.1
X17.623 Y5.667 I-0.1 J-0.301
G1 X17.582 Y5.585
X17.562 Y5.534
X17.551 Y5.48
X17.549 Y5.424
X17.559 Y5.363 F20
X17.58 Y5.305
X17.612 Y5.252
X17.654 Y5.206
G3 X18.102 Y5.23 Z4 I0.212 J0.236
G1 X18.121 Y5.253 F50
X18.149 Y5.289
X18.17 Y5.326
X18.179 Y5.345
X18.279 Y5.617
X18.305 Y5.689
X18.317 Y5.725
X18.325 Y5.763
X18.331 Y5.909
X18.33 Y6.2
X18.325 Y6.242
X18.293 Y6.346
X18.186 Y6.637
X18.179 Y6.656
X18.163 Y6.688
X18.143 Y6.719
X18.091 Y6.783
X17.929 Y6.976
G3 X17.505 Y7.018 I-0.236 J-0.213
G1 X17.47 Y6.976 Z4.005
X17.437 Y6.935 Z4.019
X17.406 Y6.896 Z4.042
X17.396 Y6.853 Z4.073
X17.388 Y6.816 Z4.111
X17.381 Y6.786 Z4.155
X17.376 Y6.763 Z4.203
X17.377 Y6.747 Z4.259
Y6.741 Z4.317
Z16
X18.143 Y5.847
Z4.1
G3 X16.982 Y7.188 Z3.96 I-1.179 J0.152 F30
X15.783 Y5.886 Z3.82 I-0.018 J-1.186
X17.21 Y4.844 Z3.68 I1.178 J0.116
X18.082 Y6.376 Z3.54 I-0.248 J1.155
X16.464 Y7.068 Z3.4 I-1.117 J-0.376
X15.961 Y5.386 Z3.26 I0.499 J-1.066
X17.685 Y5.077 Z3.12 I1 J0.615
X17.797 Y6.821 Z2.98 I-0.723 J0.922
X16.055 Y6.736 Z2.84 I-0.833 J-0.82
X16.336 Y5.018 Z2.7 I0.907 J-0.733
X18.008 Y5.491 Z2.56 I0.625 J0.983
X17.351 Y7.095 Z2.42 I-1.045 J0.509
X15.834 Y6.262 Z2.28 I-0.387 J-1.093
X16.831 Y4.853 Z2.14 I1.127 J-0.26
X18.116 Y6 Z2 I0.131 J1.147
X15.807 Y6 I-1.155 J0
X18.116 Y6 I1.155 J0
G1 X18.14 Y6.373 F50
X18.144 Y6.523
X18.11 Y6.669
X18.05 Y6.807
X18.028 Y6.841
X17.997 Y6.887
X17.964 Y6.932
X17.929 Y6.976
X17.906 Y7.003
X17.887 Y7.026
X17.859 Y7.053
X17.831 Y7.075
X17.741 Y7.129
X17.584 Y7.22
X17.449 Y7.286
X17.404 Y7.303
X17.358 Y7.317
X17.312 Y7.327
G3 X16.953 Y7.057 Z2.2 I-0.044 J-0.314
X17.146 Y6.719 I0.314 J-0.044
G1 X17.294 Y6.658
X17.357 Y6.639
X17.423 Y6.634
X17.488 Y6.642
X17.547 Y6.662 F20
X17.6 Y6.693
X17.647 Y6.734
X17.685 Y6.783
G3 X17.584 Y7.22 Z2 I-0.269 J0.168
G1 X17.45 Y7.294 F50
X17.413 Y7.307
X17.377 Y7.315
X17.087 Y7.366
X17.046 Y7.373
X17.012 Y7.379
X16.947 Y7.382
G3 X16.688 Y7.031 Z2.2 I0.014 J-0.281
X17.047 Y6.833 I0.273 J0.07
G1 X17.104 Y6.858 F20
X17.153 Y6.895
X17.194 Y6.942
X17.223 Y6.997
G3 X17.103 Y7.344 Z2.039 I-0.262 J0.104
G1 X17.059 Y7.365 Z2.02
X17.012 Y7.379 Z2
X16.975 Y7.383 F50
X16.939 Y7.382
X16.84 Y7.366
X16.64 Y7.331
X16.604 Y7.325
X16.574 Y7.319
X16.467 Y7.289
X16.439 Y7.271 F20
X16.42 Y7.243
X16.412 Y7.21
X16.417 Y7.176
X16.434 Y7.147
X16.461 Y7.126
X16.493 Y7.116
X16.527 Y7.119
X16.611 Y7.142
X16.638 Y7.155
X16.659 Y7.175
X16.673 Y7.201
X16.677 Y7.23
X16.672 Y7.26
X16.657 Y7.287
X16.634 Y7.307
X16.605 Y7.318
X16.574 Y7.319
X16.501 Y7.303 F50
X16.465 Y7.289
X16.428 Y7.269
X16.202 Y7.139
X16.137 Y7.101
X16.095 Y7.075
X16.066 Y7.051
X16.036 Y7.021
X15.845 Y6.793
X15.837 Y6.783
X15.755 Y6.669
G3 X15.854 Y6.209 Z2.2 I0.396 J-0.155
G1 X15.903 Y6.168
G3 X16.486 Y6.743 I0.242 J0.337
G1 X16.446 Y6.791 F20
X16.4 Y6.833
X16.349 Y6.867
X16.293 Y6.894
G3 X15.837 Y6.783 Z2 I-0.147 J-0.388
G1 X15.779 Y6.71 F50
X15.757 Y6.674
X15.741 Y6.637
X15.646 Y6.375
X15.635 Y6.346
X15.621 Y6.306
X15.604 Y6.249
X15.599 Y6.191 Z2.023
G3 X15.825 Y5.888 Z2.186 I0.317 J0
G1 X15.859 Y5.88 Z2.2
G3 X16.206 Y6.315 I0.056 J0.311
G1 X16.176 Y6.37 F20
X16.136 Y6.417
X16.087 Y6.456
X16.032 Y6.484
G3 X15.621 Y6.306 Z2 I-0.117 J-0.294
G1 X15.609 Y6.273 F50
X15.601 Y6.237
X15.598 Y6.2
X15.597 Y5.909
X15.598 Y5.865
X15.599 Y5.834
X15.608 Y5.765
X15.623 Y5.697
X15.644 Y5.631
G3 X16.057 Y5.455 Z2.2 I0.294 J0.119
X16.246 Y5.828 I-0.119 J0.294
G1 X16.224 Y5.911
X16.205 Y5.965
X16.177 Y6.014
X16.141 Y6.057
X16.093 Y6.097 F20
X16.039 Y6.126
X15.979 Y6.144
X15.918 Y6.15
G3 X15.599 Y5.834 Z2 I-0.001 J-0.317
G1 X15.601 Y5.763 F50
X15.61 Y5.726
X15.622 Y5.69
X15.702 Y5.471
X15.719 Y5.427
X15.731 Y5.397
X15.746 Y5.358
X15.765 Y5.315
X15.8 Y5.276
X15.844 Y5.249
X15.895 Y5.234
X15.947 Y5.235
X15.997 Y5.249
X16.029 Y5.268
X16.057 Y5.292
G3 X15.785 Y5.545 I-0.136 J0.127 F20
X15.746 Y5.358 I0.136 J-0.127
G1 X15.758 Y5.326 F50
X15.795 Y5.266
X15.99 Y5.034
X15.991 Y5.033
X16.013 Y5.008
X16.088 Y4.931
G3 X16.532 Y4.997 Z2.2 I0.189 J0.255
X16.525 Y5.385 I-0.255 J0.189
G1 X16.506 Y5.409
X16.461 Y5.454
X16.409 Y5.489
X16.35 Y5.514
X16.288 Y5.526
X16.226 F20
X16.165 Y5.513
X16.108 Y5.489
X16.056 Y5.455
G3 X16.013 Y5.008 Z2 I0.202 J-0.245
G1 X16.064 Y4.95 F50
X16.1 Y4.921
X16.155 Y4.888
X16.351 Y4.775
X16.382 Y4.757
X16.408 Y4.743
X16.483 Y4.704
G3 X16.927 Y4.843 Z2.2 I0.129 J0.368
G1 X16.959 Y4.895
G3 X16.376 Y5.379 I-0.345 J0.177
G1 X16.33 Y5.337 F20
X16.292 Y5.288
X16.261 Y5.234
X16.24 Y5.176
G3 X16.408 Y4.743 Z2 I0.374 J-0.104
G1 X16.465 Y4.711 F50
X16.501 Y4.697
X16.574 Y4.681
X16.8 Y4.641
X16.837 Y4.634
X16.866 Y4.629
X16.978 Y4.618
G3 X17.286 Y4.935 Z2.191 I-0.047 J0.354
G1 X17.288 Y4.957 Z2.2
G3 X16.689 Y5.216 I-0.349 J0.015
G1 X16.65 Y5.168 F20
X16.62 Y5.114
X16.6 Y5.055
X16.59 Y4.994
G3 X16.866 Y4.629 Z2 I0.349 J-0.023
G1 X16.939 Y4.618 F50
X16.975 Y4.617
X17.012 Y4.621
X17.304 Y4.672
X17.344 Y4.679
X17.377 Y4.685
X17.439 Y4.702
G3 X17.588 Y5.116 Z2.2 I-0.106 J0.272
X17.137 Y5.191 I-0.255 J-0.142
G1 X17.096 Y5.145 F20
X17.065 Y5.091
X17.047 Y5.032
X17.041 Y4.97
G3 X17.289 Y4.685 Z2.035 I0.292 J0.004
G1 X17.333 Y4.682 Z2.018
X17.377 Y4.685 Z2
X17.413 Y4.693 F50
X17.45 Y4.706
X17.52 Y4.743
X17.741 Y4.871
X17.772 Y4.888
X17.804 Y4.907
X17.847 Y4.936
G3 X17.899 Y5.303 Z2.163 I-0.178 J0.212
G1 X17.87 Y5.339 Z2.181
X17.835 Y5.37 Z2.2
G3 X17.446 Y5.31 I-0.165 J-0.221
G1 X17.415 Y5.257 F20
X17.398 Y5.197
X17.394 Y5.135
X17.404 Y5.074
G3 X17.804 Y4.907 Z2 I0.266 J0.075
G1 X17.83 Y4.923 F50
X17.859 Y4.945
X17.887 Y4.974
X18.06 Y5.18
X18.079 Y5.202
X18.102 Y5.23
X18.144 Y5.291
X18.179 Y5.356
X18.208 Y5.424
G3 X18.007 Y5.825 Z2.2 I-0.301 J0.1
X17.623 Y5.667 I-0.1 J-0.301
G1 X17.582 Y5.585
X17.562 Y5.534
X17.551 Y5.48
X17.549 Y5.424
X17.559 Y5.363 F20
X17.58 Y5.305
X17.612 Y5.252
X17.654 Y5.206
G3 X18.102 Y5.23 Z2 I0.212 J0.236
G1 X18.121 Y5.253 F50
X18.149 Y5.289
X18.17 Y5.326
X18.179 Y5.345
X18.279 Y5.617
X18.305 Y5.689
X18.317 Y5.725
X18.325 Y5.763
X18.331 Y5.909
X18.33 Y6.2
X18.325 Y6.242
X18.293 Y6.346
X18.186 Y6.637
X18.179 Y6.656
X18.163 Y6.688
X18.143 Y6.719
X18.091 Y6.783
X17.929 Y6.976
G3 X17.505 Y7.018 I-0.236 J-0.213
G1 X17.47 Y6.976 Z2.005
X17.437 Y6.935 Z2.019
X17.406 Y6.896 Z2.042
X17.396 Y6.853 Z2.073
X17.388 Y6.816 Z2.111
X17.381 Y6.786 Z2.155
X17.376 Y6.763 Z2.203
X17.377 Y6.747 Z2.259
Y6.741 Z2.317
Z16
X18.143 Y5.847
Z2.1
G3 X16.982 Y7.188 Z1.96 I-1.179 J0.152 F30
X15.783 Y5.886 Z1.82 I-0.018 J-1.186
X17.21 Y4.844 Z1.68 I1.178 J0.116
X18.082 Y6.376 Z1.54 I-0.248 J1.155
X16.464 Y7.068 Z1.4 I-1.117 J-0.376
X15.961 Y5.386 Z1.26 I0.499 J-1.066
X17.685 Y5.077 Z1.12 I1 J0.615
X17.797 Y6.821 Z0.98 I-0.723 J0.922
X16.055 Y6.736 Z0.84 I-0.833 J-0.82
X16.336 Y5.018 Z0.7 I0.907 J-0.733
X18.008 Y5.491 Z0.56 I0.625 J0.983
X17.351 Y7.095 Z0.42 I-1.045 J0.509
X15.834 Y6.262 Z0.28 I-0.387 J-1.093
X16.831 Y4.853 Z0.14 I1.127 J-0.26
X18.116 Y6 Z0 I0.131 J1.147
X15.807 Y6 I-1.155 J0
X18.116 Y6 I1.155 J0
G1 X18.14 Y6.373 F50
X18.144 Y6.523
X18.11 Y6.669
X18.05 Y6.807
X18.028 Y6.841
X17.997 Y6.887
X17.964 Y6.932
X17.929 Y6.976
X17.906 Y7.003
X17.887 Y7.026
X17.859 Y7.053
X17.831 Y7.075
X17.741 Y7.129
X17.584 Y7.22
X17.449 Y7.286
X17.404 Y7.303
X17.358 Y7.317
X17.312 Y7.327
G3 X16.953 Y7.057 Z0.2 I-0.044 J-0.314
X17.146 Y6.719 I0.314 J-0.044
G1 X17.294 Y6.658
X17.357 Y6.639
X17.423 Y6.634
X17.488 Y6.642
X17.547 Y6.662 F20
X17.6 Y6.693
X17.647 Y6.734
X17.685 Y6.783
G3 X17.584 Y7.22 Z0 I-0.269 J0.168
G1 X17.45 Y7.294 F50
X17.413 Y7.307
X17.377 Y7.315
X17.087 Y7.366
X17.046 Y7.373
X17.012 Y7.379
X16.947 Y7.382
G3 X16.688 Y7.031 Z0.2 I0.014 J-0.281
X17.047 Y6.833 I0.273 J0.07
G1 X17.104 Y6.858 F20
X17.153 Y6.895
X17.194 Y6.942
X17.223 Y6.997
G3 X17.103 Y7.344 Z0.039 I-0.262 J0.104
G1 X17.059 Y7.365 Z0.02
X17.012 Y7.379 Z0
X16.975 Y7.383 F50
X16.939 Y7.382
X16.84 Y7.366
X16.64 Y7.331
X16.604 Y7.325
X16.574 Y7.319
X16.467 Y7.289
X16.439 Y7.271 F20
X16.42 Y7.243
X16.412 Y7.21
X16.417 Y7.176
X16.434 Y7.147
X16.461 Y7.126
X16.493 Y7.116
X16.527 Y7.119
X16.611 Y7.142
X16.638 Y7.155
X16.659 Y7.175
X16.673 Y7.201
X16.677 Y7.23
X16.672 Y7.26
X16.657 Y7.287
X16.634 Y7.307
X16.605 Y7.318
X16.574 Y7.319
X16.501 Y7.303 F50
X16.465 Y7.289
X16.428 Y7.269
X16.202 Y7.139
X16.137 Y7.101
X16.095 Y7.075
X16.066 Y7.051
X16.036 Y7.021
X15.845 Y6.793
X15.837 Y6.783
X15.755 Y6.669
G3 X15.854 Y6.209 Z0.2 I0.396 J-0.155
G1 X15.903 Y6.168
G3 X16.486 Y6.743 I0.242 J0.337
G1 X16.446 Y6.791 F20
X16.4 Y6.833
X16.349 Y6.867
X16.293 Y6.894
G3 X15.837 Y6.783 Z0 I-0.147 J-0.388
G1 X15.779 Y6.71 F50
X15.757 Y6.674
X15.741 Y6.637
X15.646 Y6.375
X15.635 Y6.346
X15.621 Y6.306
X15.604 Y6.249
X15.599 Y6.191 Z0.023
G3 X15.825 Y5.888 Z0.186 I0.317 J0
G1 X15.859 Y5.88 Z0.2
G3 X16.206 Y6.315 I0.056 J0.311
G1 X16.176 Y6.37 F20
X16.136 Y6.417
X16.087 Y6.456
X16.032 Y6.484
G3 X15.621 Y6.306 Z0 I-0.117 J-0.294
G1 X15.609 Y6.273 F50
X15.601 Y6.237
X15.598 Y6.2
X15.597 Y5.909
X15.598 Y5.865
X15.599 Y5.834
X15.608 Y5.765
X15.623 Y5.697
X15.644 Y5.631
G3 X16.057 Y5.455 Z0.2 I0.294 J0.119
X16.246 Y5.828 I-0.119 J0.294
G1 X16.224 Y5.911
X16.205 Y5.965
X16.177 Y6.014
X16.141 Y6.057
X16.093 Y6.097 F20
X16.039 Y6.126
X15.979 Y6.144
X15.918 Y6.15
G3 X15.599 Y5.834 Z0 I-0.001 J-0.317
G1 X15.601 Y5.763 F50
X15.61 Y5.726
X15.622 Y5.69
X15.702 Y5.471
X15.719 Y5.427
X15.731 Y5.397
X15.746 Y5.358
X15.765 Y5.315
X15.8 Y5.276
X15.844 Y5.249
X15.895 Y5.234
X15.947 Y5.235
X15.997 Y5.249
X16.029 Y5.268
X16.057 Y5.292
G3 X15.785 Y5.545 I-0.136 J0.127 F20
X15.746 Y5.358 I0.136 J-0.127
G1 X15.758 Y5.326 F50
X15.795 Y5.266
X15.99 Y5.034
X15.991 Y5.033
X16.013 Y5.008
X16.088 Y4.931
G3 X16.532 Y4.997 Z0.2 I0.189 J0.255
X16.525 Y5.385 I-0.255 J0.189
G1 X16.506 Y5.409
X16.461 Y5.454
X16.409 Y5.489
X16.35 Y5.514
X16.288 Y5.526
X16.226 F20
X16.165 Y5.513
X16.108 Y5.489
X16.056 Y5.455
G3 X16.013 Y5.008 Z0 I0.202 J-0.245
G1 X16.064 Y4.95 F50
X16.1 Y4.921
X16.155 Y4.888
X16.351 Y4.775
X16.382 Y4.757
X16.408 Y4.743
X16.483 Y4.704
G3 X16.927 Y4.843 Z0.2 I0.129 J0.368
G1 X16.959 Y4.895
G3 X16.376 Y5.379 I-0.345 J0.177
G1 X16.33 Y5.337 F20
X16.292 Y5.288
X16.261 Y5.234
X16.24 Y5.176
G3 X16.408 Y4.743 Z0 I0.374 J-0.104
G1 X16.465 Y4.711 F50
X16.501 Y4.697
X16.574 Y4.681
X16.8 Y4.641
X16.837 Y4.634
X16.866 Y4.629
X16.978 Y4.618
G3 X17.286 Y4.935 Z0.191 I-0.047 J0.354
G1 X17.288 Y4.957 Z0.2
G3 X16.689 Y5.216 I-0.349 J0.015
G1 X16.65 Y5.168 F20
X16.62 Y5.114
X16.6 Y5.055
X16.59 Y4.994
G3 X16.866 Y4.629 Z0 I0.349 J-0.023
G1 X16.939 Y4.618 F50
X16.975 Y4.617
X17.012 Y4.621
X17.304 Y4.672
X17.344 Y4.679
X17.377 Y4.685
X17.439 Y4.702
G3 X17.588 Y5.116 Z0.2 I-0.106 J0.272
X17.137 Y5.191 I-0.255 J-0.142
G1 X17.096 Y5.145 F20
X17.065 Y5.091
X17.047 Y5.032
X17.041 Y4.97
G3 X17.289 Y4.685 Z0.035 I0.292 J0.004
G1 X17.333 Y4.682 Z0.018
X17.377 Y4.685 Z0
X17.413 Y4.693 F50
X17.45 Y4.706
X17.52 Y4.743
X17.741 Y4.871
X17.772 Y4.888
X17.804 Y4.907
X17.847 Y4.936
G3 X17.899 Y5.303 Z0.163 I-0.178 J0.212
G1 X17.87 Y5.339 Z0.181
X17.835 Y5.37 Z0.2
G3 X17.446 Y5.31 I-0.165 J-0.221
G1 X17.415 Y5.257 F20
X17.398 Y5.197
X17.394 Y5.135
X17.404 Y5.074
G3 X17.804 Y4.907 Z0 I0.266 J0.075
G1 X17.83 Y4.923 F50
X17.859 Y4.945
X17.887 Y4.974
X18.06 Y5.18
X18.079 Y5.202
X18.102 Y5.23
X18.144 Y5.291
X18.179 Y5.356
X18.208 Y5.424
G3 X18.007 Y5.825 Z0.2 I-0.301 J0.1
X17.623 Y5.667 I-0.1 J-0.301
G1 X17.582 Y5.585
X17.562 Y5.534
X17.551 Y5.48
X17.549 Y5.424
X17.559 Y5.363 F20
X17.58 Y5.305
X17.612 Y5.252
X17.654 Y5.206
G3 X18.102 Y5.23 Z0 I0.212 J0.236
G1 X18.121 Y5.253 F50
X18.149 Y5.289
X18.17 Y5.326
X18.179 Y5.345
X18.279 Y5.617
X18.305 Y5.689
X18.317 Y5.725
X18.325 Y5.763
X18.331 Y5.909
X18.33 Y6.2
X18.325 Y6.242
X18.293 Y6.346
X18.186 Y6.637
X18.179 Y6.656
X18.163 Y6.688
X18.143 Y6.719
X18.091 Y6.783
X17.929 Y6.976
G3 X17.505 Y7.018 I-0.236 J-0.213
G1 X17.47 Y6.976 Z0.005
X17.437 Y6.935 Z0.019
X17.406 Y6.896 Z0.042
X17.396 Y6.853 Z0.073
X17.388 Y6.816 Z0.111
X17.381 Y6.786 Z0.155
X17.376 Y6.763 Z0.203
X17.377 Y6.747 Z0.259
Y6.741 Z0.317
Z16
X15.902 Y6.535
Z0.1
G3 X15.886 Y5.499 Z0.025 I1.061 J-0.535 F30
X16.688 Y4.844 Z-0.05 I1.077 J0.5
X17.697 Y5.067 Z-0.125 I0.275 J1.154
X18.148 Y5.997 Z-0.2 I-0.735 J0.93
X15.778 Y5.997 I-1.185 J0
X18.148 Y5.997 I1.185 J0
G1 X18.162 Y6.413 F50
X18.161 Y6.563
X18.118 Y6.689
X18.057 Y6.808
X17.979 Y6.916
X17.924 Y6.982
X17.887 Y7.026
X17.859 Y7.053
X17.831 Y7.075
X17.741 Y7.129
X17.584 Y7.22
X17.45 Y7.294
X17.413 Y7.307
X17.377 Y7.315
X17.012 Y7.379
X16.975 Y7.383
X16.939 Y7.382
X16.84 Y7.366
X16.574 Y7.319
X16.501 Y7.303
X16.465 Y7.289
X16.428 Y7.269
X16.137 Y7.101
X16.095 Y7.075
X16.066 Y7.051
X16.036 Y7.021
X15.837 Y6.783
X15.779 Y6.71
X15.757 Y6.674
X15.741 Y6.637
X15.621 Y6.306
X15.609 Y6.273
X15.601 Y6.237
X15.598 Y6.2
X15.597 Y5.909
X15.601 Y5.763
X15.61 Y5.726
X15.622 Y5.69
X15.702 Y5.471
X15.758 Y5.326
X15.795 Y5.266
X15.991 Y5.033
X16.064 Y4.95
X16.1 Y4.921
X16.155 Y4.888
X16.428 Y4.731
X16.465 Y4.711
X16.501 Y4.697
X16.574 Y4.681
X16.866 Y4.629
X16.939 Y4.618
X16.975 Y4.617
X17.012 Y4.621
X17.377 Y4.685
X17.413 Y4.693
X17.45 Y4.706
X17.52 Y4.743
X17.772 Y4.888
X17.83 Y4.923
X17.859 Y4.945
X17.887 Y4.974
X18.121 Y5.253
X18.149 Y5.289
X18.17 Y5.326
X18.179 Y5.345
X18.279 Y5.617
X18.305 Y5.689
X18.317 Y5.725
X18.325 Y5.763
X18.331 Y5.909
X18.33 Y6.2
X18.325 Y6.242
X18.293 Y6.346
X18.186 Y6.637
X18.179 Y6.656
X18.163 Y6.688
X18.143 Y6.719
X18.091 Y6.783
X17.979 Y6.916
G3 X17.426 Y6.683 I-0.236 J-0.212
G1 X17.431 Y6.613 Z-0.192
X17.435 Y6.546 Z-0.169
X17.439 Y6.486 Z-0.131
X17.443 Y6.436 Z-0.08
X17.445 Y6.398 Z-0.02
X17.447 Y6.374 Z0.047
Y6.367 Z0.117
Z26
M5
M30
