(1032HeaterPocket)
(Machine)
(  vendor: Nikodem Bartnik)
(  model: Generic 3-axis Router)
(  description: This machine has XYZ axis on the Head)
(T1  D=3.175 CR=0 - ZMIN=-0.2 - flat end mill)
G90 G94
G17
G21
(When using Fusion 360 for Personal Use, the feedrate of)
(rapid moves is reduced to match the feedrate of cutting)
(moves, which can increase machining time. Unrestricted rapid)
(moves are available with a Fusion 360 Subscription.)

(Bore2)
T1
S5000 M3
G54
G0 X17.67 Y6.23
Z13.7
G1 Z11 F50
Z9.318 F20
G19 G3 Y6.548 Z9 J0.318 K0
G1 Y6.706
G17 G3 X17.464 Y6.912 I-0.206 J0
X17.464 Y6.088 Z8.825 I0 J-0.412 F50
X17.464 Y6.912 Z8.65 I0 J0.412
X17.464 Y6.088 Z8.475 I0 J-0.412
X17.464 Y6.912 Z8.3 I0 J0.412
X17.464 Y6.088 Z8.125 I0 J-0.412
X17.464 Y6.912 Z7.95 I0 J0.412
X17.464 Y6.088 Z7.775 I0 J-0.412
X17.464 Y6.912 Z7.6 I0 J0.412
X17.464 Y6.088 Z7.425 I0 J-0.412
X17.464 Y6.912 Z7.25 I0 J0.412
X17.464 Y6.088 Z7.075 I0 J-0.412
X17.464 Y6.912 Z6.9 I0 J0.412
X17.464 Y6.088 Z6.725 I0 J-0.412
X17.464 Y6.912 Z6.55 I0 J0.412
X17.464 Y6.088 Z6.375 I0 J-0.412
X17.464 Y6.912 Z6.2 I0 J0.412
X17.464 Y6.088 Z6.025 I0 J-0.412
X17.464 Y6.912 Z5.85 I0 J0.412
X17.464 Y6.088 Z5.675 I0 J-0.412
X17.464 Y6.912 Z5.5 I0 J0.412
X17.464 Y6.088 Z5.325 I0 J-0.412
X17.464 Y6.912 Z5.15 I0 J0.412
X17.464 Y6.088 Z4.976 I0 J-0.412
X17.464 Y6.912 Z4.801 I0 J0.412
X17.464 Y6.088 Z4.626 I0 J-0.412
X17.464 Y6.912 Z4.451 I0 J0.412
X17.464 Y6.088 Z4.276 I0 J-0.412
X17.464 Y6.912 Z4.101 I0 J0.412
X17.464 Y6.088 Z3.926 I0 J-0.412
X17.464 Y6.912 Z3.751 I0 J0.412
X17.464 Y6.088 Z3.576 I0 J-0.412
X17.464 Y6.912 Z3.401 I0 J0.412
X17.464 Y6.088 Z3.226 I0 J-0.412
X17.464 Y6.912 Z3.051 I0 J0.412
X17.464 Y6.088 Z2.876 I0 J-0.412
X17.464 Y6.912 Z2.701 I0 J0.412
X17.464 Y6.088 Z2.526 I0 J-0.412
X17.464 Y6.912 Z2.351 I0 J0.412
X17.464 Y6.088 Z2.176 I0 J-0.412
X17.464 Y6.912 Z2.001 I0 J0.412
X17.464 Y6.088 Z1.826 I0 J-0.412
X17.464 Y6.912 Z1.651 I0 J0.412
X17.464 Y6.088 Z1.476 I0 J-0.412
X17.464 Y6.912 Z1.301 I0 J0.412
X17.464 Y6.088 Z1.126 I0 J-0.412
X17.464 Y6.912 Z0.951 I0 J0.412
X17.464 Y6.088 Z0.776 I0 J-0.412
X17.464 Y6.912 Z0.601 I0 J0.412
X17.464 Y6.088 Z0.426 I0 J-0.412
X17.464 Y6.912 Z0.251 I0 J0.412
X17.464 Y6.088 Z0.076 I0 J-0.412
X17.464 Y6.912 Z-0.099 I0 J0.412
X17.064 Y6.4 Z-0.2 I0 J-0.412
X17.864 Y6.6 I0.4 J0.1
X17.064 Y6.4 I-0.4 J-0.1
X17.314 Y6.25 I0.2 J0.05
G1 X17.468 Y6.288
X17.537 Y6.306 Z-0.192
X17.602 Y6.322 Z-0.169
X17.66 Y6.337 Z-0.131
X17.709 Y6.349 Z-0.08
X17.745 Y6.358 Z-0.02
X17.768 Y6.364 Z0.047
X17.776 Y6.366 Z0.117
Z11
Z13.7
X17.781 Y7.119
Z11
Z9.318 F20
G19 G3 Y7.436 Z9 J0.318 K0
G1 Y7.595
G17 G3 X17.464 Y7.912 I-0.318 J0
X17.464 Y5.088 Z8.738 I0 J-1.412 F50
X17.464 Y7.912 Z8.475 I0 J1.412
X17.464 Y5.088 Z8.213 I0 J-1.412
X17.464 Y7.912 Z7.95 I0 J1.412
X17.464 Y5.088 Z7.688 I0 J-1.412
X17.464 Y7.912 Z7.425 I0 J1.412
X17.464 Y5.088 Z7.163 I0 J-1.412
X17.464 Y7.912 Z6.9 I0 J1.412
X17.464 Y5.088 Z6.638 I0 J-1.412
X17.464 Y7.912 Z6.375 I0 J1.412
X17.464 Y5.088 Z6.113 I0 J-1.412
X17.464 Y7.912 Z5.85 I0 J1.412
X17.464 Y5.088 Z5.588 I0 J-1.412
X17.464 Y7.912 Z5.325 I0 J1.412
X17.464 Y5.088 Z5.063 I0 J-1.412
X17.464 Y7.912 Z4.801 I0 J1.412
X17.464 Y5.088 Z4.538 I0 J-1.412
X17.464 Y7.912 Z4.276 I0 J1.412
X17.464 Y5.088 Z4.013 I0 J-1.412
X17.464 Y7.912 Z3.751 I0 J1.412
X17.464 Y5.088 Z3.488 I0 J-1.412
X17.464 Y7.912 Z3.226 I0 J1.412
X17.464 Y5.088 Z2.963 I0 J-1.412
X17.464 Y7.912 Z2.701 I0 J1.412
X17.464 Y5.088 Z2.438 I0 J-1.412
X17.464 Y7.912 Z2.176 I0 J1.412
X17.464 Y5.088 Z1.913 I0 J-1.412
X17.464 Y7.912 Z1.651 I0 J1.412
X17.464 Y5.088 Z1.388 I0 J-1.412
X17.464 Y7.912 Z1.126 I0 J1.412
X17.464 Y5.087 Z0.864 I0 J-1.412
X17.464 Y7.913 Z0.601 I0 J1.413
X17.464 Y5.087 Z0.339 I0 J-1.413
X17.464 Y7.913 Z0.076 I0 J1.413
X16.056 Y6.384 Z-0.062 I0 J-1.413
X17.694 Y5.106 Z-0.2 I1.408 J0.116
X17.233 Y7.894 I-0.23 J1.394
X17.694 Y5.106 I0.23 J-1.394
X17.956 Y5.471 I-0.052 J0.313
G1 X17.93 Y5.628
X17.918 Y5.698 Z-0.192
X17.907 Y5.764 Z-0.169
X17.898 Y5.823 Z-0.131
X17.889 Y5.873 Z-0.08
X17.883 Y5.91 Z-0.02
X17.879 Y5.933 Z0.047
X17.878 Y5.941 Z0.117
Z13.7
M5
M30
