(1034parallel)
(Machine)
(  vendor: Nikodem Bartnik)
(  model: Generic 3-axis Router)
(  description: This machine has XYZ axis on the Head)
(T1  D=1.38 CR=0 - ZMIN=0 - flat end mill)
G90 G94
G17
G21
(When using Fusion 360 for Personal Use, the feedrate of)
(rapid moves is reduced to match the feedrate of cutting)
(moves, which can increase machining time. Unrestricted rapid)
(moves are available with a Fusion 360 Subscription.)

(Parallel6)
T1
S5000 M3
G54
G0 X12.597 Y9.354
Z13
G1 X12.516 F30
X12.485 Z13.007
X12.455 Z13.014
X11.432
G2 X11.432 Y9.698 I0 J0.172
G1 X11.462 Z13.007
X11.493 Z13
X13.514
X13.544 Z13.007
X13.574 Z13.014
X13.903
G3 X13.903 Y10.043 I0 J0.172
G1 X13.873 Z13.007
X13.843 Z13
X11.161
X11.131 Z13.007
X11.101 Z13.014
X10.91
G2 X10.91 Y10.388 I0 J0.172
G1 X10.94 Z13.007
X10.971 Z13
X11.764
Z4
X11.706 Y10.467
X11.657 Y10.551
X11.614 Y10.639
X11.582 Y10.732
X11.578 Z13
X10.877
X10.846 Z13.007
X10.816 Z13.014
X10.792
G2 X10.792 Y11.077 I0 J0.172
G1 X10.822 Z13.007
X10.852 Z13
X11.543
X11.547 Z4
X11.558 Y11.167
X11.579 Y11.254
X11.605 Y11.339
X11.643 Y11.422
X11.642 Z13
X10.909
X10.879 Z13.007
X10.849 Z13.014
G2 X10.849 Y11.766 I0 J0.172
G1 X10.981
X11.011 Z13.007
X11.041 Z13
X11.928
Z4
X11.929 Y11.765 Z3.973
X11.933 Y11.761 Z3.946
X11.939 Y11.755 Z3.921
X11.947 Y11.746 Z3.897
X11.958 Y11.735 Z3.874
X11.97 Y11.722 Z3.854
X11.984 Y11.708 Z3.836
X11.999 Y11.691 Z3.821
X12.016 Y11.674 Z3.809
X12.034 Y11.655 Z3.8
X12.052 Y11.636 Z3.795
X12.071 Y11.616 Z3.793
X13.091 Y10.538
X13.11 Y10.518 Z3.795
X13.128 Y10.499 Z3.8
X13.145 Y10.481 Z3.809
X13.162 Y10.463 Z3.821
X13.178 Y10.447 Z3.836
X13.192 Y10.432 Z3.854
X13.204 Y10.419 Z3.874
X13.214 Y10.408 Z3.897
X13.222 Y10.399 Z3.921
X13.228 Y10.393 Z3.946
X13.232 Y10.389 Z3.973
X13.233 Y10.388 Z4
Z13
X14.027
X14.057 Z13.007
X14.088 Z13.014
X14.188
G3 X14.188 Y10.732 I0 J0.172
G1 X14.157 Z13.007
X14.127 Z13
X13.419
X13.418 Z4
X13.438 Y10.817
X13.451 Y10.903
X13.457 Y10.99
X13.452 Y11.077
Z8
X13.46 Z8.868
X13.464 Z13
X16.94
X16.971 Z13.007
X17.001 Z13.014
X17.377
G3 X17.377 Y11.422 I0 J0.172
G1 X17.347 Z13.007
X17.316 Z13
X13.604
X13.601 Z9.519
X13.592 Z9.505
X13.588 Z9
X13.562 Z8.806
X13.503 Z8.502
X13.392 Z8.017
X13.39 Z4
X13.385 Z3.974
X13.37 Z3.951
X13.347 Z3.936
X13.321 Z3.931
G2 X13.321 Y11.766 I0 J0.172
G1 X13.374
X13.401 Z3.936
X13.423 Z3.951
X13.438 Z3.974
X13.443 Z4
Z8
X16.718 Z13
X17.42
X17.451 Z13.007
X17.481 Z13.014
G3 X17.481 Y12.111 I0 J0.172
G1 X17.432
X17.401 Z13.007
X17.371 Z13
X11.286
X11.256 Z13.007
X11.226 Z13.014
G2 X11.226 Y12.456 I0 J0.172
G1 X11.669
X11.699 Z13.007
X11.729 Z13
X17.133
X17.16 Y12.454 Z12.999
X17.186 Y12.449 Z12.998
X17.212 Y12.441 Z12.995
X17.236 Y12.429 Z12.991
X17.259 Y12.415 Z12.987
X17.279 Y12.398 Z12.981
X17.297 Y12.379 Z12.975
X17.312 Y12.357 Z12.968
X17.324 Y12.334 Z12.961
X17.333 Y12.31 Z12.953
X17.338 Y12.284 Z12.945
X17.34 Y12.259 Z12.936
Y9.551 Z12.064
X17.338 Y9.525 Z12.055
X17.333 Y9.5 Z12.047
X17.324 Y9.475 Z12.039
X17.312 Y9.452 Z12.032
X17.297 Y9.431 Z12.025
X17.279 Y9.412 Z12.019
X17.259 Y9.395 Z12.013
X17.236 Y9.38 Z12.009
X17.212 Y9.369 Z12.005
X17.186 Y9.361 Z12.002
X17.16 Y9.356 Z12.001
X17.133 Y9.354 Z12
X12.597
X12.516
X12.485 Z12.007
X12.455 Z12.014
X11.432
G2 X11.432 Y9.698 I0 J0.172
G1 X11.462 Z12.007
X11.493 Z12
X13.514
X13.544 Z12.007
X13.574 Z12.014
X13.903
G3 X13.903 Y10.043 I0 J0.172
G1 X13.873 Z12.007
X13.843 Z12
X11.161
X11.131 Z12.007
X11.101 Z12.014
X10.91
G2 X10.91 Y10.388 I0 J0.172
G1 X10.94 Z12.007
X10.971 Z12
X11.764
Z3
X11.706 Y10.467
X11.657 Y10.551
X11.614 Y10.639
X11.582 Y10.732
X11.578 Z12
X10.877
X10.846 Z12.007
X10.816 Z12.014
X10.792
G2 X10.792 Y11.077 I0 J0.172
G1 X10.822 Z12.007
X10.852 Z12
X11.543
X11.547 Z3
X11.558 Y11.167
X11.579 Y11.254
X11.605 Y11.339
X11.643 Y11.422
X11.642 Z12
X10.909
X10.879 Z12.007
X10.849 Z12.014
G2 X10.849 Y11.766 I0 J0.172
G1 X10.981
X11.011 Z12.007
X11.041 Z12
X11.928
Z3
X11.929 Y11.765 Z2.973
X11.933 Y11.761 Z2.946
X11.939 Y11.755 Z2.921
X11.947 Y11.746 Z2.897
X11.958 Y11.735 Z2.874
X11.97 Y11.722 Z2.854
X11.984 Y11.708 Z2.836
X11.999 Y11.691 Z2.821
X12.016 Y11.674 Z2.809
X12.034 Y11.655 Z2.8
X12.052 Y11.636 Z2.795
X12.071 Y11.616 Z2.793
X13.091 Y10.538
X13.11 Y10.518 Z2.795
X13.128 Y10.499 Z2.8
X13.145 Y10.481 Z2.809
X13.162 Y10.463 Z2.821
X13.178 Y10.447 Z2.836
X13.192 Y10.432 Z2.854
X13.204 Y10.419 Z2.874
X13.214 Y10.408 Z2.897
X13.222 Y10.399 Z2.921
X13.228 Y10.393 Z2.946
X13.232 Y10.389 Z2.973
X13.233 Y10.388 Z3
Z12
X14.027
X14.057 Z12.007
X14.088 Z12.014
X14.188
G3 X14.188 Y10.732 I0 J0.172
G1 X14.157 Z12.007
X14.127 Z12
X13.419
X13.418 Z3
X13.438 Y10.817
X13.451 Y10.903
X13.457 Y10.99
X13.452 Y11.077
Z7
X13.46 Z7.868
X13.464 Z12
X16.94
X16.971 Z12.007
X17.001 Z12.014
X17.377
G3 X17.377 Y11.422 I0 J0.172
G1 X17.347 Z12.007
X17.316 Z12
X13.604
X13.601 Z8.519
X13.592 Z8.505
X13.588 Z8
X13.562 Z7.806
X13.503 Z7.502
X13.392 Z7.017
X13.39 Z3
X13.387 Y11.51
X13.396 Y11.597
X13.416 Y11.682
X13.443 Y11.766
Z7
X16.718 Z12
X17.42
X17.451 Z12.007
X17.481 Z12.014
G3 X17.481 Y12.111 I0 J0.172
G1 X17.432
X17.401 Z12.007
X17.371 Z12
X11.286
X11.256 Z12.007
X11.226 Z12.014
G2 X11.226 Y12.456 I0 J0.172
G1 X11.669
X11.699 Z12.007
X11.729 Z12
X17.133
X17.16 Y12.454 Z11.999
X17.186 Y12.449 Z11.998
X17.212 Y12.441 Z11.995
X17.236 Y12.429 Z11.991
X17.259 Y12.415 Z11.987
X17.279 Y12.398 Z11.981
X17.297 Y12.379 Z11.975
X17.312 Y12.357 Z11.968
X17.324 Y12.334 Z11.961
X17.333 Y12.31 Z11.953
X17.338 Y12.284 Z11.945
X17.34 Y12.259 Z11.936
Y9.551 Z11.064
X17.338 Y9.525 Z11.055
X17.333 Y9.5 Z11.047
X17.324 Y9.475 Z11.039
X17.312 Y9.452 Z11.032
X17.297 Y9.431 Z11.025
X17.279 Y9.412 Z11.019
X17.259 Y9.395 Z11.013
X17.236 Y9.38 Z11.009
X17.212 Y9.369 Z11.005
X17.186 Y9.361 Z11.002
X17.16 Y9.356 Z11.001
X17.133 Y9.354 Z11
X12.597
X12.516
X12.485 Z11.007
X12.455 Z11.014
X11.432
G2 X11.432 Y9.698 I0 J0.172
G1 X11.462 Z11.007
X11.493 Z11
X13.514
X13.544 Z11.007
X13.574 Z11.014
X13.903
G3 X13.903 Y10.043 I0 J0.172
G1 X13.873 Z11.007
X13.843 Z11
X11.161
X11.131 Z11.007
X11.101 Z11.014
X10.91
G2 X10.91 Y10.388 I0 J0.172
G1 X10.94 Z11.007
X10.971 Z11
X11.764
Z2
X11.706 Y10.467
X11.657 Y10.551
X11.614 Y10.639
X11.582 Y10.732
X11.578 Z11
X10.877
X10.846 Z11.007
X10.816 Z11.014
X10.792
G2 X10.792 Y11.077 I0 J0.172
G1 X10.822 Z11.007
X10.852 Z11
X11.543
X11.547 Z2
X11.558 Y11.167
X11.579 Y11.254
X11.605 Y11.339
X11.643 Y11.422
X11.642 Z11
X10.909
X10.879 Z11.007
X10.849 Z11.014
G2 X10.849 Y11.766 I0 J0.172
G1 X10.981
X11.011 Z11.007
X11.041 Z11
X11.928
Z2
X11.929 Y11.765 Z1.973
X11.933 Y11.761 Z1.946
X11.939 Y11.755 Z1.921
X11.947 Y11.746 Z1.896
X11.958 Y11.735 Z1.874
X11.97 Y11.722 Z1.854
X11.984 Y11.708 Z1.836
X11.999 Y11.691 Z1.821
X12.016 Y11.674 Z1.809
X12.034 Y11.655 Z1.8
X12.052 Y11.636 Z1.795
X12.071 Y11.616 Z1.793
X13.091 Y10.538
X13.11 Y10.518 Z1.795
X13.128 Y10.499 Z1.8
X13.145 Y10.481 Z1.809
X13.162 Y10.463 Z1.821
X13.178 Y10.447 Z1.836
X13.192 Y10.432 Z1.854
X13.204 Y10.419 Z1.874
X13.214 Y10.408 Z1.896
X13.222 Y10.399 Z1.921
X13.228 Y10.393 Z1.946
X13.232 Y10.389 Z1.973
X13.233 Y10.388 Z2
Z11
X14.027
X14.057 Z11.007
X14.088 Z11.014
X14.188
G3 X14.188 Y10.732 I0 J0.172
G1 X14.157 Z11.007
X14.127 Z11
X13.419
X13.418 Z2
X13.438 Y10.817
X13.451 Y10.903
X13.457 Y10.99
X13.452 Y11.077
Z6
X13.46 Z6.868
X13.464 Z11
X16.94
X16.971 Z11.007
X17.001 Z11.014
X17.377
G3 X17.377 Y11.422 I0 J0.172
G1 X17.347 Z11.007
X17.316 Z11
X13.604
X13.601 Z7.519
X13.592 Z7.505
X13.588 Z7
X13.562 Z6.806
X13.503 Z6.502
X13.392 Z6.017
X13.39 Z2
X13.387 Y11.51
X13.396 Y11.597
X13.416 Y11.682
X13.443 Y11.766
Z6
X16.718 Z11
X17.42
X17.451 Z11.007
X17.481 Z11.014
G3 X17.481 Y12.111 I0 J0.172
G1 X17.432
X17.401 Z11.007
X17.371 Z11
X11.286
X11.256 Z11.007
X11.226 Z11.014
G2 X11.226 Y12.456 I0 J0.172
G1 X11.669
X11.699 Z11.007
X11.729 Z11
X17.133
X17.16 Y12.454 Z10.999
X17.186 Y12.449 Z10.998
X17.212 Y12.441 Z10.995
X17.236 Y12.429 Z10.991
X17.259 Y12.415 Z10.987
X17.279 Y12.398 Z10.981
X17.297 Y12.379 Z10.975
X17.312 Y12.357 Z10.968
X17.324 Y12.334 Z10.961
X17.333 Y12.31 Z10.953
X17.338 Y12.284 Z10.945
X17.34 Y12.259 Z10.936
Y9.551 Z10.064
X17.338 Y9.525 Z10.055
X17.333 Y9.5 Z10.047
X17.324 Y9.475 Z10.039
X17.312 Y9.452 Z10.032
X17.297 Y9.431 Z10.025
X17.279 Y9.412 Z10.019
X17.259 Y9.395 Z10.013
X17.236 Y9.38 Z10.009
X17.212 Y9.369 Z10.005
X17.186 Y9.361 Z10.002
X17.16 Y9.356 Z10.001
X17.133 Y9.354 Z10
X12.597
X12.516
X12.485 Z10.007
X12.455 Z10.014
X11.432
G2 X11.432 Y9.698 I0 J0.172
G1 X11.462 Z10.007
X11.493 Z10
X13.514
X13.544 Z10.007
X13.574 Z10.014
X13.903
G3 X13.903 Y10.043 I0 J0.172
G1 X13.873 Z10.007
X13.843 Z10
X11.161
X11.131 Z10.007
X11.101 Z10.014
X10.91
G2 X10.91 Y10.388 I0 J0.172
G1 X10.94 Z10.007
X10.971 Z10
X11.764
Z1
X11.706 Y10.467
X11.657 Y10.551
X11.614 Y10.639
X11.582 Y10.732
X11.578 Z10
X10.877
X10.846 Z10.007
X10.816 Z10.014
X10.792
G2 X10.792 Y11.077 I0 J0.172
G1 X10.822 Z10.007
X10.852 Z10
X11.543
X11.547 Z1
X11.558 Y11.167
X11.579 Y11.254
X11.605 Y11.339
X11.643 Y11.422
X11.642 Z10
X10.909
X10.879 Z10.007
X10.849 Z10.014
G2 X10.849 Y11.766 I0 J0.172
G1 X10.981
X11.011 Z10.007
X11.041 Z10
X11.928
Z1
X11.929 Y11.765 Z0.973
X11.933 Y11.761 Z0.946
X11.939 Y11.755 Z0.921
X11.947 Y11.746 Z0.896
X11.958 Y11.735 Z0.874
X11.97 Y11.722 Z0.854
X11.984 Y11.708 Z0.836
X11.999 Y11.691 Z0.821
X12.016 Y11.674 Z0.809
X12.034 Y11.655 Z0.8
X12.052 Y11.636 Z0.795
X12.071 Y11.616 Z0.793
X13.091 Y10.538
X13.11 Y10.518 Z0.795
X13.128 Y10.499 Z0.8
X13.145 Y10.481 Z0.809
X13.162 Y10.463 Z0.821
X13.178 Y10.447 Z0.836
X13.192 Y10.432 Z0.854
X13.204 Y10.419 Z0.874
X13.214 Y10.408 Z0.896
X13.222 Y10.399 Z0.921
X13.228 Y10.393 Z0.946
X13.232 Y10.389 Z0.973
X13.233 Y10.388 Z1
Z10
X14.027
X14.057 Z10.007
X14.088 Z10.014
X14.188
G3 X14.188 Y10.732 I0 J0.172
G1 X14.157 Z10.007
X14.127 Z10
X13.419
X13.418 Z1
X13.438 Y10.817
X13.451 Y10.903
X13.457 Y10.99
X13.452 Y11.077
Z5
X13.46 Z5.868
X13.464 Z10
X16.94
X16.971 Z10.007
X17.001 Z10.014
X17.377
G3 X17.377 Y11.422 I0 J0.172
G1 X17.347 Z10.007
X17.316 Z10
X13.604
X13.601 Z6.519
X13.592 Z6.505
X13.588 Z6
X13.562 Z5.806
X13.503 Z5.502
X13.392 Z5.017
X13.39 Z1
X13.387 Y11.51
X13.396 Y11.597
X13.416 Y11.682
X13.443 Y11.766
Z5
X16.718 Z10
X17.42
X17.451 Z10.007
X17.481 Z10.014
G3 X17.481 Y12.111 I0 J0.172
G1 X17.432
X17.401 Z10.007
X17.371 Z10
X11.286
X11.256 Z10.007
X11.226 Z10.014
G2 X11.226 Y12.456 I0 J0.172
G1 X11.669
X11.699 Z10.007
X11.729 Z10
X17.133
X17.16 Y12.454 Z9.999
X17.186 Y12.449 Z9.998
X17.212 Y12.441 Z9.995
X17.236 Y12.429 Z9.991
X17.259 Y12.415 Z9.987
X17.279 Y12.398 Z9.981
X17.297 Y12.379 Z9.975
X17.312 Y12.357 Z9.968
X17.324 Y12.334 Z9.961
X17.333 Y12.31 Z9.953
X17.338 Y12.284 Z9.945
X17.34 Y12.259 Z9.936
Y9.551 Z9.064
X17.338 Y9.525 Z9.055
X17.333 Y9.5 Z9.047
X17.324 Y9.475 Z9.039
X17.312 Y9.452 Z9.032
X17.297 Y9.431 Z9.025
X17.279 Y9.412 Z9.019
X17.259 Y9.395 Z9.013
X17.236 Y9.38 Z9.009
X17.212 Y9.369 Z9.005
X17.186 Y9.361 Z9.002
X17.16 Y9.356 Z9.001
X17.133 Y9.354 Z9
X12.597
X12.516
X12.485 Z9.007
X12.455 Z9.014
X11.432
G2 X11.432 Y9.698 I0 J0.172
G1 X11.462 Z9.007
X11.493 Z9
X13.514
X13.544 Z9.007
X13.574 Z9.014
X13.903
G3 X13.903 Y10.043 I0 J0.172
G1 X13.873 Z9.007
X13.843 Z9
X11.161
X11.131 Z9.007
X11.101 Z9.014
X10.91
G2 X10.91 Y10.388 I0 J0.172
G1 X10.94 Z9.007
X10.971 Z9
X11.764
Z0
X11.706 Y10.467
X11.657 Y10.551
X11.614 Y10.639
X11.582 Y10.732
X11.578 Z9
X10.877
X10.846 Z9.007
X10.816 Z9.014
X10.792
G2 X10.792 Y11.077 I0 J0.172
G1 X10.822 Z9.007
X10.852 Z9
X11.543
X11.547 Z0
X11.558 Y11.167
X11.579 Y11.254
X11.605 Y11.339
X11.643 Y11.422
X11.642 Z9
X10.909
X10.879 Z9.007
X10.849 Z9.014
G2 X10.849 Y11.766 I0 J0.172
G1 X10.981
X11.011 Z9.007
X11.041 Z9
X11.928
Z0
X11.955 Z0.005
X11.977 Z0.02
X11.992 Z0.043
X11.997 Z0.069
X12.001 Y11.762 Z0.095
X12.01 Y11.751 Z0.118
X12.025 Y11.734 Z0.133
X12.042 Y11.714 Z0.138
X13.12 Y10.44
X13.137 Y10.42 Z0.133 F20
X13.151 Y10.403 Z0.118
X13.161 Y10.392 Z0.095
X13.164 Y10.388 Z0.069
X13.17 Z0.043
X13.184 Z0.02
X13.207 Z0.005
X13.233 Z0
Z9 F30
X14.027
X14.057 Z9.007
X14.088 Z9.014
X14.188
G3 X14.188 Y10.732 I0 J0.172
G1 X14.157 Z9.007
X14.127 Z9
X13.419
X13.418 Z0
X13.438 Y10.817
X13.451 Y10.903
X13.457 Y10.99
X13.452 Y11.077
Z4
X13.46 Z4.868
X13.464 Z9
X16.94
X16.971 Z9.007
X17.001 Z9.014
X17.377
G3 X17.377 Y11.422 I0 J0.172
G1 X17.347 Z9.007
X17.316 Z9
X13.604
X13.601 Z5.519
X13.592 Z5.505
X13.588 Z5
X13.562 Z4.806
X13.503 Z4.502
X13.392 Z4.017
X13.39 Z0
X13.387 Y11.51
X13.396 Y11.597
X13.416 Y11.682
X13.443 Y11.766
Z4
X16.718 Z9
X17.42
X17.451 Z9.007
X17.481 Z9.014
G3 X17.481 Y12.111 I0 J0.172
G1 X17.432
X17.401 Z9.007
X17.371 Z9
X11.286
X11.256 Z9.007
X11.226 Z9.014
G2 X11.226 Y12.456 I0 J0.172
G1 X11.669
X11.699 Z9.007
X11.729 Z9
X17.133
X17.176 Z9.007
X17.214 Z9.026
X17.245 Z9.057
X17.264 Z9.095
X17.271 Z9.138
Z10.7
M5
M30
