(1038contour)
(Machine)
(  vendor: Nikodem Bartnik)
(  model: Generic 3-axis Router)
(  description: This machine has XYZ axis on the Head)
(T1  D=1.38 CR=0 - ZMIN=0 - flat end mill)
G90 G94
G17
G21
(When using Fusion 360 for Personal Use, the feedrate of)
(rapid moves is reduced to match the feedrate of cutting)
(moves, which can increase machining time. Unrestricted rapid)
(moves are available with a Fusion 360 Subscription.)

(Contour5)
T1
S5000 M3
G54
G0 X15.823 Y11.751
Z11.7
G1 Z10.499 F30
Z8.5 F20
X15.828 Y11.728
X15.841 Y11.708
X15.861 Y11.695
X15.884 Y11.69
X16.014 F30
X16.015
X16.038 Y11.694
X16.085 Y11.699
X16.131 Y11.701
X16.224
X16.313
X16.315
X16.336 Y11.709
X16.338 Y11.71
X16.359 Y11.725
X16.361 Y11.726
X16.377 Y11.743
X16.378 Y11.745
X16.393 Y11.769
X16.402 Y11.796
Y11.798
X16.405 Y11.825
Y11.827
X16.402 Y11.852
Y11.854
X16.393 Y11.88
Y11.881
X16.379 Y11.904
X16.378 Y11.905
X16.36 Y11.925
X16.358 Y11.926
X16.336 Y11.941
X16.335
X16.316 Y11.949
X16.315
X16.224
X16.131
X16.085 Y11.951
X16.038 Y11.956
X16.027 Y11.958
X16.021 Y11.959
X16.017 Y11.96
X16.015
X12.611
X12.518 Y11.959
X12.356 Y11.947
X12.355
X12.214 Y11.914
X12.213
X12.078 Y11.86
X12.077 Y11.859
X11.953 Y11.787
X11.951 Y11.785
X11.84 Y11.694
X11.832 Y11.685
X11.744 Y11.588
X11.742 Y11.586
X11.664 Y11.467
X11.662 Y11.465
X11.602 Y11.334
X11.601 Y11.331
X11.562 Y11.193
X11.561 Y11.192
X11.543 Y11.05
Y11.048
X11.547 Y10.904
Y10.902
X11.573 Y10.76
Y10.759
X11.619 Y10.623
X11.62 Y10.621
X11.687 Y10.493
X11.688 Y10.492
X11.773 Y10.377
X11.775 Y10.374
X11.875 Y10.274
X11.877 Y10.272
X11.992 Y10.188
X11.994 Y10.187
X12.122 Y10.12
X12.123 Y10.119
X12.259 Y10.073
X12.261 Y10.072
X12.403 Y10.047
X12.404
X12.547 Y10.043
X12.549
X12.692 Y10.062
X12.693
X12.832 Y10.102
X12.834
X12.964 Y10.162
X12.966 Y10.163
X13.084 Y10.241
X13.087 Y10.243
X13.194 Y10.34
X13.195 Y10.341
X13.286 Y10.452
X13.287 Y10.454
X13.36 Y10.578
X13.361 Y10.58
X13.414 Y10.713
Y10.714
X13.447 Y10.853
Y10.855
X13.458 Y11.001
X13.466 Y11.093
X13.474 Y11.139
X13.485 Y11.185
X13.5 Y11.23
X13.518 Y11.276
X13.537 Y11.317
X13.566 Y11.368
X13.596 Y11.411
X13.63 Y11.453
X13.635 Y11.46
X13.656 Y11.482
X13.679 Y11.504
X13.723 Y11.542
X13.735 Y11.551
X13.775 Y11.579
X13.815 Y11.603
X13.858 Y11.625
X13.9 Y11.643
X13.908 Y11.646
X13.954 Y11.662
X14 Y11.674
X14.047 Y11.682
X14.093 Y11.688
X14.186 Y11.69
X15.884
X16.003
X16.015
X16.018
X16.021 Y11.691
X16.026 Y11.692
X16.074 Y11.698
X16.11 Y11.701
X16.146
X16.218 Z8.499
X16.31
X16.315
X16.333 Y11.708
X16.337 Y11.71
X16.357 Y11.724
X16.36 Y11.727
X16.376 Y11.744 Z8.498
X16.378 Y11.747
X16.39 Y11.767
X16.392 Y11.769
X16.4 Y11.795
X16.401 Y11.798
X16.404 Y11.824
Y11.828
X16.401 Y11.851
Y11.854
X16.392 Y11.88
X16.39 Y11.883
X16.378 Y11.903
X16.376 Y11.905
X16.358 Y11.924 Z8.497
X16.356 Y11.926
X16.335 Y11.94
X16.332 Y11.942
X16.314 Y11.949
X16.311
X16.273
X16.177 Z8.496
X16.115
X16.084 Y11.951 Z8.495
X16.053 Y11.954
X16.023 Y11.958
X16.015 Y11.959
X16.011 Y11.96
X15.992 Z8.494
X15.93
X15.767 Z8.492
X15.605 Z8.49
X15.442 Z8.488
X15.279 Z8.485
X15.116 Z8.482
X14.953 Z8.48
X14.79 Z8.476
X14.627 Z8.473
X14.464 Z8.47
X14.301 Z8.466
X14.138 Z8.462
X13.974 Z8.458
X13.811 Z8.454
X13.648 Z8.449
X13.485 Z8.445
X13.322 Z8.44
X13.159 Z8.435
X12.996 Z8.43
X12.915 Z8.428
X12.833 Z8.425
X12.752 Z8.422
X12.67 Z8.42
X12.589 Z8.417
X12.507 Y11.959 Z8.414
X12.385 Y11.949 Z8.41
X12.355 Y11.947 Z8.409
X12.345 Y11.945
X12.214 Y11.914 Z8.404
X12.211 Y11.913
X12.079 Y11.86 Z8.399
X12.076 Y11.859
X11.954 Y11.787 Z8.394
X11.951 Y11.785
X11.841 Y11.695 Z8.389
X11.839 Y11.693
X11.743 Y11.587 Z8.384
X11.742 Y11.585
X11.733 Y11.573 Z8.383
X11.666 Y11.471 Z8.379
X11.663 Y11.466
X11.662 Y11.464
X11.648 Y11.434 Z8.378
X11.602 Y11.335 Z8.374
X11.601 Y11.332
X11.587 Y11.283 Z8.372
X11.562 Y11.195 Z8.369
Y11.193
X11.558 Y11.165 Z8.368
X11.543 Y11.049 Z8.364
Y11.046
X11.545 Y10.962 Z8.361
X11.547 Y10.904 Z8.359
Y10.901 Z8.358
X11.565 Y10.801 Z8.355
X11.572 Y10.761 Z8.354
X11.573 Y10.758 Z8.353
X11.619 Y10.623 Z8.348
X11.62 Y10.621
X11.686 Y10.494 Z8.343
X11.688 Y10.492
X11.772 Y10.377 Z8.338
X11.774 Y10.375
X11.781 Y10.368
X11.875 Y10.274 Z8.333
X11.877 Y10.273
X11.899 Y10.256 Z8.332
X11.992 Y10.188 Z8.328
X11.994 Y10.187
X12.034 Y10.166 Z8.327
X12.12 Y10.121 Z8.323
X12.122 Y10.12
X12.183 Y10.099 Z8.321
X12.26 Y10.073 Z8.318
X12.262 Y10.072
X12.403 Y10.047 Z8.313
X12.405
X12.548 Y10.043 Z8.308
X12.55
X12.692 Y10.061 Z8.303
X12.694 Y10.062
X12.831 Y10.101 Z8.298
X12.834 Y10.102
X12.933 Y10.148 Z8.294
X12.963 Y10.162 Z8.293
X12.966 Y10.163
X13.038 Y10.211 Z8.29
X13.085 Y10.241 Z8.288
X13.087 Y10.243
X13.104 Y10.258 Z8.287
X13.193 Y10.339 Z8.283
X13.195 Y10.34
X13.285 Y10.451 Z8.278
X13.286 Y10.453 Z8.277
X13.316 Y10.503 Z8.275
X13.36 Y10.578 Z8.272
X13.361 Y10.58
X13.388 Y10.649 Z8.27
X13.414 Y10.713 Z8.267
X13.415 Y10.715
X13.447 Y10.854 Z8.262
Y10.857
X13.449 Y10.885 Z8.261
X13.462 Y11.047 Z8.256
X13.466 Y11.088 Z8.254
X13.472 Y11.128 Z8.253
X13.481 Y11.168 Z8.251
X13.492 Y11.207 Z8.25
X13.505 Y11.245 Z8.248
X13.521 Y11.283 Z8.247
X13.539 Y11.32 Z8.246
X13.559 Y11.355 Z8.244
X13.581 Y11.39 Z8.243
X13.605 Y11.423 Z8.241
X13.63 Y11.454 Z8.24
X13.658 Y11.484 Z8.238
X13.688 Y11.512 Z8.237
X13.719 Y11.539 Z8.236
X13.751 Y11.563 Z8.234
X13.785 Y11.586 Z8.233
X13.82 Y11.606 Z8.231
X13.857 Y11.625 Z8.23
X13.894 Y11.641 Z8.229
X13.932 Y11.655 Z8.227
X13.971 Y11.666 Z8.226
X14.011 Y11.676 Z8.224
X14.051 Y11.683 Z8.223
X14.092 Y11.688 Z8.221
X14.173 Y11.69 Z8.219
X14.744 Z8.199
X15.151 Z8.184
X15.396 Z8.176
X15.641 Z8.167
X15.786 Z8.162
X15.788
X15.793 Y11.691
X15.803 Y11.693
X15.844 Y11.698 Z8.16
X15.884 Y11.701 Z8.159
X15.977 Y11.702 Z8.156
X16.07 Y11.701 Z8.152
X16.089
X16.106 Y11.708 Z8.151
X16.11 Y11.71
X16.129 Y11.723
X16.132 Y11.726
X16.148 Y11.743 Z8.15
X16.15 Y11.747
X16.161 Y11.766 Z8.149
X16.163 Y11.771
X16.171 Y11.796 Z8.148
X16.172 Y11.801
X16.174 Y11.823
Y11.827 Z8.147
X16.171 Y11.854
X16.169 Y11.858
X16.162 Y11.879 Z8.146
X16.16 Y11.883
X16.148 Y11.902 Z8.145
X16.146 Y11.905
X16.13 Y11.921
X16.128 Y11.924 Z8.144
X16.126 Y11.926
X16.103 Y11.941 Z8.143
X16.1 Y11.942
X16.085 Y11.948
X16.082 Y11.949
X16.032 Z8.141
X15.93 Y11.948 Z8.137
X15.889 Z8.136
X15.848 Y11.95 Z8.135
X15.808 Y11.954 Z8.133
X15.787 Y11.957 Z8.132
X15.777 Y11.958
X15.77 Y11.96
X15.767
X15.686 Z8.129
X15.605 Z8.126
X15.523 Z8.123
X15.442 Z8.12
X15.36 Z8.118
X15.279 Z8.115
X15.197 Z8.112
X15.116 Z8.109
X15.034 Z8.106
X14.953 Z8.103
X14.871 Z8.1
X14.79 Z8.098
X14.708 Z8.095
X14.627 Z8.092
X14.545 Z8.089
X14.464 Z8.086
X14.382 Z8.084
X14.301 Z8.081
X14.219 Z8.078
X14.138 Z8.076
X14.056 Z8.073
X13.974 Z8.071
X13.893 Z8.068
X13.811 Z8.065
X13.648 Z8.061
X13.485 Z8.056
X13.322 Z8.051
X13.159 Z8.047
X12.996 Z8.043
X12.833 Z8.039
X12.67 Z8.035
X12.507 Y11.959 Z8.031
X12.426 Y11.952 Z8.029
X12.355 Y11.947 Z8.028
X12.345 Y11.945 Z8.027
X12.266 Y11.926 Z8.026
X12.214 Y11.914 Z8.025
X12.211 Y11.913
X12.187 Y11.904 Z8.024
X12.083 Y11.862 Z8.022
X12.079 Y11.86
X12.076 Y11.859
X12.039 Y11.837 Z8.021
X11.954 Y11.787 Z8.019
X11.951 Y11.785
X11.904 Y11.747 Z8.018
X11.841 Y11.695 Z8.017
X11.839 Y11.693
X11.813 Y11.665 Z8.016
X11.759 Y11.605 Z8.015
X11.743 Y11.587 Z8.014
X11.742 Y11.585
X11.733 Y11.573
X11.689 Y11.505 Z8.013
X11.663 Y11.466 Z8.012
X11.662 Y11.464
X11.648 Y11.434
X11.602 Y11.335 Z8.01
X11.601 Y11.332
X11.587 Y11.283 Z8.009
X11.562 Y11.195 Z8.008
Y11.193
X11.558 Y11.165
X11.548 Y11.084 Z8.007
X11.543 Y11.049 Z8.006
Y11.046
Y11.044
X11.545 Y10.962
X11.547 Y10.904 Z8.005
Y10.901
X11.551 Y10.881
X11.569 Y10.781 Z8.004
X11.572 Y10.761
X11.573 Y10.758
X11.586 Y10.722 Z8.003
X11.619 Y10.623
X11.62 Y10.621
X11.646 Y10.571 Z8.002
X11.686 Y10.494
X11.688 Y10.492
X11.707 Y10.466 Z8.001
X11.731 Y10.433
X11.772 Y10.377
X11.774 Y10.375
X11.781 Y10.368
X11.839 Y10.31
X11.875 Y10.274 Z8
X11.877 Y10.273
X11.899 Y10.256
X11.981 Y10.196
X11.992 Y10.188
X11.994 Y10.187
X12.034 Y10.166
X12.121 Y10.12
X12.122
X12.123 Y10.119
X12.259 Y10.073
X12.261 Y10.072
X12.403 Y10.047
X12.404
X12.547 Y10.043
X12.549
X12.692 Y10.062
X12.693
X12.832 Y10.102
X12.834
X12.964 Y10.162
X12.966 Y10.163
X13.084 Y10.241
X13.087 Y10.243
X13.194 Y10.34
X13.195 Y10.341
X13.286 Y10.452
X13.287 Y10.454
X13.36 Y10.578
X13.361 Y10.58
X13.414 Y10.713
Y10.714
X13.447 Y10.853
Y10.855
X13.458 Y11.001
X13.466 Y11.093
X13.474 Y11.139
X13.485 Y11.185
X13.5 Y11.23
X13.518 Y11.276
X13.537 Y11.317
X13.566 Y11.368
X13.596 Y11.411
X13.63 Y11.453
X13.635 Y11.46
X13.656 Y11.482
X13.679 Y11.504
X13.723 Y11.542
X13.735 Y11.551
X13.775 Y11.579
X13.815 Y11.603
X13.858 Y11.625
X13.9 Y11.643
X13.908 Y11.646
X13.954 Y11.662
X14 Y11.674
X14.047 Y11.682
X14.093 Y11.688
X14.186 Y11.69
X15.668
X15.761 Y11.7
X15.853 Y11.702
X15.884
X15.989
X15.991
X16.01 Y11.709
X16.011 Y11.71
X16.031 Y11.724
X16.033 Y11.725
X16.05 Y11.743
X16.051 Y11.745
X16.065 Y11.768
Y11.769
X16.075 Y11.798
Y11.799
X16.078 Y11.825
Y11.827
X16.075 Y11.854
X16.074 Y11.855
X16.066 Y11.88
Y11.881
X16.052 Y11.904
X16.051 Y11.905
X16.033 Y11.925
X16.031 Y11.926
X16.01 Y11.941
X16.008 Y11.942
X15.992 Y11.948
X15.991
X15.853
X15.761 Y11.95
X15.668 Y11.96
X12.611
X12.518 Y11.959
X12.356 Y11.947
X12.355
X12.214 Y11.914
X12.213
X12.078 Y11.86
X12.077 Y11.859
X11.953 Y11.787
X11.951 Y11.785
X11.84 Y11.694
X11.832 Y11.685
X11.744 Y11.588
X11.742 Y11.586
X11.664 Y11.467
X11.662 Y11.465
X11.602 Y11.334
X11.601 Y11.331
X11.562 Y11.193
X11.561 Y11.192
X11.543 Y11.05
Y11.048
X11.547 Y10.904
Y10.902
X11.573 Y10.76
Y10.759
X11.619 Y10.623
X11.62 Y10.621
X11.687 Y10.493
X11.688 Y10.492
X11.773 Y10.377
X11.775 Y10.374
X11.875 Y10.274
X11.877 Y10.272
X11.992 Y10.188
X11.994 Y10.187
X12.121 Y10.12
X12.123 Y10.119
X12.16 Y10.107
X12.198 Y10.094
X12.258 Y10.073
X12.261 Y10.072
X12.276 Y10.07
X12.356 Y10.055
X12.401 Y10.047
X12.404
X12.437 Y10.046 Z7.999
X12.546 Y10.043
X12.549
X12.599 Y10.05
X12.693 Y10.062 Z7.998
X12.72 Y10.069
X12.759 Y10.081
X12.832 Y10.102 Z7.997
X12.835 Y10.103
X12.837 Y10.104
X12.911 Y10.138
X12.964 Y10.162 Z7.996
X12.967 Y10.163
X12.984 Y10.175
X13.077 Y10.236 Z7.995
X13.086 Y10.242
X13.088 Y10.244
X13.116 Y10.269
X13.193 Y10.339 Z7.994
X13.195 Y10.341
X13.231 Y10.384 Z7.993
X13.285 Y10.451 Z7.992
X13.287 Y10.454
X13.304 Y10.482 Z7.991
X13.345 Y10.552 Z7.99
X13.359 Y10.576
X13.36 Y10.579
X13.364 Y10.588
X13.394 Y10.664 Z7.989
X13.413 Y10.711 Z7.988
X13.414 Y10.713
X13.42 Y10.741
X13.446 Y10.852 Z7.986
X13.447 Y10.855
Y10.86
X13.45 Y10.901 Z7.985
X13.463 Y11.063 Z7.982
X13.468 Y11.104
X13.475 Y11.144 Z7.981
X13.485 Y11.183 Z7.98
X13.497 Y11.222 Z7.979
X13.511 Y11.26
X13.528 Y11.298 Z7.978
X13.546 Y11.334 Z7.977
X13.567 Y11.369 Z7.976
X13.59 Y11.403 Z7.975
X13.614 Y11.435
X13.641 Y11.466 Z7.974
X13.669 Y11.495 Z7.973
X13.7 Y11.523 Z7.972
X13.731 Y11.548 Z7.971
X13.764 Y11.572 Z7.97
X13.799 Y11.594 Z7.969
X13.834 Y11.614
X13.871 Y11.631 Z7.968
X13.909 Y11.647 Z7.967
X13.948 Y11.66 Z7.966
X13.987 Y11.67 Z7.965
X14.027 Y11.679 Z7.964
X14.067 Y11.685 Z7.963
X14.108 Y11.689 Z7.962
X14.271 Y11.69 Z7.958
X14.434 Z7.954
X14.597 Z7.949
X14.76 Z7.945
X14.923 Z7.94
X15.085 Z7.935
X15.167 Z7.933
X15.248 Z7.93
X15.33 Z7.927
X15.412 Z7.925
X15.493 Z7.922
X15.574 Z7.92
X15.622 Z7.918
X15.625
X15.628 Y11.691
X15.631
X15.638 Y11.693
X15.65 Y11.695 Z7.917
X15.676 Y11.698 Z7.916
X15.701 Y11.7
X15.727 Y11.702 Z7.915
X15.778 Z7.913
X15.922 Z7.911
X15.932
X15.936 Y11.703
X15.949 Y11.709 Z7.91
X15.953 Y11.711
X15.972 Y11.724
X15.975 Y11.727
X15.991 Y11.743
X15.993 Y11.747
X16.004 Y11.767 Z7.909
X16.006 Y11.771
X16.015 Y11.797
Y11.802
X16.017 Y11.821 Z7.908
X16.018 Y11.826
X16.015 Y11.851
X16.014 Y11.856
X16.006 Y11.879
X16.004 Y11.883
X15.991 Y11.904 Z7.907
X15.988 Y11.908
X15.974 Y11.922
X15.971 Y11.926
X15.95 Y11.939 Z7.906
X15.946 Y11.942
X15.933 Y11.947
X15.928 Y11.948
X15.89
X15.816 Z7.904
X15.701 Y11.949 Z7.901
X15.643 Y11.955 Z7.899
X15.629 Y11.957 Z7.898
X15.615 Y11.959
X15.611 Y11.96
X15.608
X15.586 Z7.897
X15.505 Z7.894
X15.424 Z7.891
X15.343 Z7.888
X15.261 Z7.886
X15.18 Z7.883
X15.098 Z7.88
X15.017 Z7.877
X14.935 Z7.874
X14.854 Z7.871
X14.772 Z7.868
X14.691 Z7.866
X14.609 Z7.863
X14.528 Z7.86
X14.446 Z7.857
X14.283 Z7.851
X14.039 Z7.843
X13.794 Z7.834
X13.55 Z7.826
X13.305 Z7.817
X13.061 Z7.809
X12.653 Z7.795
X12.572 Z7.792
X12.49 Y11.957 Z7.789
X12.356 Y11.947 Z7.784
X12.353
X12.214 Y11.914 Z7.779
X12.212
X12.08 Y11.861 Z7.774
X12.077 Y11.86
X11.954 Y11.787 Z7.769
X11.952 Y11.786
X11.842 Y11.696 Z7.764
X11.84 Y11.694
X11.829 Y11.683 Z7.763
X11.744 Y11.588 Z7.759
X11.742 Y11.586
X11.724 Y11.559 Z7.758
X11.662 Y11.465 Z7.754
X11.661 Y11.463
X11.641 Y11.419 Z7.752
X11.602 Y11.333 Z7.749
X11.601 Y11.331
X11.566 Y11.208 Z7.744
X11.562 Y11.194
X11.561 Y11.191 Z7.743
X11.543 Y11.05 Z7.739
Y11.047 Z7.738
X11.547 Y10.905 Z7.733
Y10.902
X11.572 Y10.762 Z7.728
X11.573 Y10.759
X11.591 Y10.706 Z7.726
X11.619 Y10.624 Z7.723
X11.62 Y10.622
X11.654 Y10.556 Z7.721
X11.687 Y10.493 Z7.718
X11.773 Y10.376 Z7.713
X11.775 Y10.374
X11.865 Y10.284 Z7.709
X11.876 Y10.273 Z7.708
X11.878 Y10.272
X11.978 Y10.198 Z7.704
X11.993 Y10.188 Z7.703
X11.995 Y10.186
X12.121 Y10.12 Z7.698
X12.123 Y10.119
X12.258 Y10.073 Z7.693
X12.261 Y10.072
X12.276 Y10.07 Z7.692
X12.401 Y10.047 Z7.688
X12.404
X12.437 Y10.046 Z7.687
X12.546 Y10.043 Z7.683
X12.549
X12.599 Y10.05 Z7.681
X12.693 Y10.062 Z7.678
X12.759 Y10.081 Z7.675
X12.832 Y10.102 Z7.673
X12.835 Y10.103
X12.964 Y10.162 Z7.668
X12.967 Y10.163 Z7.667
X13.086 Y10.242 Z7.662
X13.088 Y10.244
X13.193 Y10.339 Z7.657
X13.195 Y10.341
X13.285 Y10.451 Z7.652
X13.287 Y10.454
X13.359 Y10.576 Z7.647
X13.36 Y10.579
X13.364 Y10.588
X13.413 Y10.711 Z7.642
X13.414 Y10.713
X13.42 Y10.741 Z7.641
X13.447 Y10.855 Z7.637
Y10.86
X13.45 Y10.901 Z7.636
X13.457 Y10.982 Z7.633
X13.463 Y11.063 Z7.63
X13.468 Y11.104 Z7.628
X13.475 Y11.144 Z7.627
X13.485 Y11.183 Z7.626
X13.497 Y11.222 Z7.624
X13.511 Y11.26 Z7.623
X13.528 Y11.298 Z7.621
X13.546 Y11.334 Z7.62
X13.567 Y11.369 Z7.618
X13.59 Y11.403 Z7.617
X13.614 Y11.435 Z7.616
X13.641 Y11.466 Z7.614
X13.669 Y11.495 Z7.613
X13.7 Y11.523 Z7.611
X13.731 Y11.548 Z7.61
X13.764 Y11.572 Z7.609
X13.799 Y11.594 Z7.607
X13.834 Y11.614 Z7.606
X13.871 Y11.631 Z7.604
X13.909 Y11.647 Z7.603
X13.948 Y11.66 Z7.601
X13.987 Y11.67 Z7.6
X14.027 Y11.679 Z7.599
X14.067 Y11.685 Z7.597
X14.108 Y11.689 Z7.596
X14.189 Y11.69 Z7.593
X14.271 Z7.59
X14.352 Z7.587
X14.434 Z7.585
X14.515 Z7.582
X14.597 Z7.579
X14.678 Z7.577
X14.76 Z7.574
X14.841 Z7.571
X14.923 Z7.569
X15.085 Z7.564
X15.248 Z7.559
X15.33 Z7.557
X15.378 Z7.555
X15.381
X15.386 Y11.691
X15.391 Y11.692
X15.411 Y11.695 Z7.554
X15.452 Y11.7 Z7.553
X15.492 Y11.703 Z7.552
X15.574 Z7.55
X15.659 Y11.702 Z7.548
X15.693 Z7.547
X15.696
X15.711 Y11.709 Z7.546
X15.714 Y11.71
X15.734 Y11.724 Z7.545
X15.736 Y11.726
X15.74 Y11.73
X15.75 Y11.741
X15.752 Y11.744
X15.766 Y11.768 Z7.544
X15.767 Y11.77
X15.775 Y11.796 Z7.543
Y11.799
X15.778 Y11.826 Z7.542
X15.774 Y11.854 Z7.541
Y11.856
X15.765 Y11.879 Z7.54
X15.764 Y11.882
X15.75 Y11.905 Z7.539
X15.748 Y11.907
X15.73 Y11.925 Z7.538
X15.728 Y11.927
X15.707 Y11.941
X15.705 Y11.942
X15.692 Y11.947 Z7.537
X15.689 Y11.948
X15.672
X15.586 Z7.535
X15.505 Y11.947 Z7.533
X15.464 Y11.948 Z7.532
X15.424 Y11.951 Z7.531
X15.383 Y11.956 Z7.53
X15.373 Y11.958
X15.366 Y11.96
X15.363
X15.343 Z7.529
X15.261 Z7.528
X15.098 Z7.524
X14.935 Z7.521
X14.772 Z7.518
X14.609 Z7.515
X14.446 Z7.513
X14.283 Z7.511
X14.12 Z7.508
X13.957 Z7.507
X13.794 Z7.505
X13.631 Z7.503
X13.468 Z7.502
X13.305 Z7.501
X13.142
X12.979 Z7.5
X12.816
X12.79
X12.611
X12.518 Y11.959
X12.356 Y11.947
X12.355
X12.214 Y11.914
X12.213
X12.078 Y11.86
X12.077 Y11.859
X11.953 Y11.787
X11.951 Y11.785
X11.84 Y11.694
X11.832 Y11.685
X11.744 Y11.588
X11.742 Y11.586
X11.664 Y11.467
X11.662 Y11.465
X11.602 Y11.334
X11.601 Y11.331
X11.562 Y11.193
X11.561 Y11.192
X11.543 Y11.05
Y11.048
X11.547 Y10.904
Y10.902
X11.573 Y10.76
Y10.759
X11.619 Y10.623
X11.62 Y10.621
X11.687 Y10.493
X11.688 Y10.492
X11.773 Y10.377
X11.775 Y10.374
X11.875 Y10.274
X11.877 Y10.272
X11.992 Y10.188
X11.994 Y10.187
X12.121 Y10.12
X12.122
X12.123 Y10.119
X12.259 Y10.073
X12.261 Y10.072
X12.403 Y10.047
X12.404
X12.547 Y10.043
X12.549
X12.692 Y10.062
X12.693
X12.832 Y10.102
X12.834
X12.964 Y10.162
X12.966 Y10.163
X13.084 Y10.241
X13.087 Y10.243
X13.194 Y10.34
X13.195 Y10.341
X13.286 Y10.452
X13.287 Y10.454
X13.36 Y10.578
X13.361 Y10.58
X13.414 Y10.713
Y10.714
X13.447 Y10.853
Y10.855
X13.458 Y11.001
X13.466 Y11.093
X13.474 Y11.139
X13.485 Y11.185
X13.5 Y11.23
X13.518 Y11.276
X13.537 Y11.317
X13.566 Y11.368
X13.596 Y11.411
X13.63 Y11.453
X13.635 Y11.46
X13.656 Y11.482
X13.679 Y11.504
X13.723 Y11.542
X13.735 Y11.551
X13.775 Y11.579
X13.815 Y11.603
X13.858 Y11.625
X13.9 Y11.643
X13.908 Y11.646
X13.954 Y11.662
X14 Y11.674
X14.047 Y11.682
X14.093 Y11.688
X14.186 Y11.69
X15.342
X15.39 Y11.698
X15.436 Y11.702
X15.483 Y11.703
X15.664 Y11.702
X15.665
X15.683 Y11.709
X15.684 Y11.71
X15.704 Y11.724
X15.706 Y11.726
X15.721 Y11.742
X15.723 Y11.743
X15.736 Y11.766
X15.737 Y11.768
X15.747 Y11.798
X15.748 Y11.799
X15.75 Y11.825
Y11.827
X15.747 Y11.854
Y11.855
X15.738 Y11.881
Y11.882
X15.725 Y11.904
X15.724 Y11.905
X15.705 Y11.926
X15.703 Y11.927
X15.682 Y11.941
X15.68 Y11.942
X15.666 Y11.948
X15.665
X15.483 Y11.947
X15.436 Y11.948
X15.39 Y11.953
X15.344 Y11.96
X15.342
X12.79
X12.627
X12.464 Y11.955 Z7.499
X12.357 Y11.947
X12.355
X12.303 Y11.935
X12.213 Y11.914 Z7.498
X12.211 Y11.913
X12.185 Y11.903
X12.147 Y11.888
X12.079 Y11.86 Z7.497
X12.076 Y11.859
X12.072 Y11.856
X12.002 Y11.815
X11.953 Y11.787 Z7.496
X11.951 Y11.785
X11.934 Y11.771
X11.847 Y11.7 Z7.495
X11.841 Y11.695
X11.839 Y11.693
X11.812 Y11.663
X11.744 Y11.588 Z7.494
X11.742 Y11.586
X11.732 Y11.571 Z7.493
X11.71 Y11.537
X11.663 Y11.467 Z7.492
X11.662 Y11.464
X11.647 Y11.432 Z7.491
X11.613 Y11.358 Z7.49
X11.603 Y11.335
X11.602 Y11.333
X11.598 Y11.32
X11.576 Y11.242 Z7.489
X11.562 Y11.193 Z7.488
X11.561 Y11.191
X11.558 Y11.163
X11.543 Y11.049 Z7.486
Y11.047
X11.544 Y11.001 Z7.485
X11.547 Y10.904 Z7.483
Y10.901
X11.551 Y10.879
X11.566 Y10.799 Z7.482
X11.572 Y10.761 Z7.481
X11.573 Y10.759
X11.599 Y10.682 Z7.479
X11.619 Y10.624 Z7.478
X11.62 Y10.621
X11.628 Y10.606
X11.666 Y10.533 Z7.476
X11.686 Y10.495 Z7.475
X11.687 Y10.493
X11.708 Y10.464
X11.772 Y10.378 Z7.472
X11.773 Y10.376
X11.782 Y10.367
X11.811 Y10.338 Z7.471
X11.876 Y10.273 Z7.469
X11.878 Y10.272
X11.901 Y10.255
X11.966 Y10.207 Z7.467
X11.993 Y10.187 Z7.466
X11.995 Y10.186
X12 Y10.184
X12.072 Y10.146 Z7.464
X12.121 Y10.12 Z7.462
X12.124 Y10.119
X12.145 Y10.112
X12.259 Y10.073 Z7.459
X12.261 Y10.072
X12.301 Y10.065 Z7.458
X12.401 Y10.047 Z7.455
X12.404
X12.422 Y10.046
X12.463 Y10.045 Z7.454
X12.547 Y10.043 Z7.451
X12.549
X12.584 Y10.048 Z7.45
X12.665 Y10.058 Z7.448
X12.691 Y10.061 Z7.447
X12.693 Y10.062
X12.705 Y10.065
X12.823 Y10.099 Z7.443
X12.833 Y10.102
X12.837 Y10.104
X12.86 Y10.114 Z7.442
X12.965 Y10.162 Z7.439
X12.967 Y10.164
X13.005 Y10.189 Z7.438
X13.086 Y10.242 Z7.435
X13.088 Y10.244
X13.105 Y10.259 Z7.434
X13.165 Y10.314 Z7.431
X13.193 Y10.339 Z7.43
X13.195 Y10.341
X13.272 Y10.436 Z7.426
X13.285 Y10.451
X13.287 Y10.454 Z7.425
X13.296 Y10.469
X13.359 Y10.576 Z7.421
X13.36 Y10.579
X13.374 Y10.612 Z7.42
X13.413 Y10.711 Z7.416
X13.414 Y10.713
X13.417 Y10.726
X13.426 Y10.766 Z7.414
X13.447 Y10.855 Z7.411
Y10.86
X13.449 Y10.885 Z7.41
X13.452 Y10.926 Z7.409
X13.459 Y11.007 Z7.406
X13.466 Y11.088 Z7.403
X13.472 Y11.129 Z7.402
X13.481 Y11.168 Z7.4
X13.492 Y11.208 Z7.399
X13.505 Y11.246 Z7.397
X13.521 Y11.284 Z7.396
X13.539 Y11.32 Z7.395
X13.559 Y11.356 Z7.393
X13.581 Y11.39 Z7.392
X13.605 Y11.423 Z7.39
X13.631 Y11.454 Z7.389
X13.658 Y11.484 Z7.387
X13.688 Y11.512 Z7.386
X13.719 Y11.539 Z7.385
X13.752 Y11.563 Z7.383
X13.785 Y11.586 Z7.382
X13.821 Y11.606 Z7.38
X13.857 Y11.625 Z7.379
X13.894 Y11.641 Z7.378
X13.933 Y11.655 Z7.376
X13.972 Y11.667 Z7.375
X14.011 Y11.676 Z7.373
X14.051 Y11.683 Z7.372
X14.092 Y11.688 Z7.37
X14.133 Y11.69 Z7.369
X14.214 Z7.366
X14.296 Z7.363
X14.377 Z7.36
X14.459 Z7.358
X14.621 Z7.352
X14.866 Z7.343
X15.11 Z7.335
X15.227 Z7.331
X15.23
X15.232 Y11.691
X15.272 Y11.697 Z7.329
X15.302 Y11.701 Z7.328
X15.332 Y11.703 Z7.327
X15.393 Z7.325
X15.513 Z7.321
X15.546 Z7.32
X15.55
X15.565 Y11.709
X15.568 Y11.712
X15.585 Y11.723 Z7.319
X15.588 Y11.726
X15.601 Y11.74
X15.604 Y11.743
X15.616 Y11.764 Z7.318
X15.618 Y11.767
X15.627 Y11.797
X15.628 Y11.801
X15.631 Y11.824 Z7.317
Y11.828
X15.627 Y11.855
X15.618 Y11.88 Z7.316
X15.617 Y11.884
X15.604 Y11.905
X15.601 Y11.908
X15.584 Y11.926 Z7.315
X15.581 Y11.928
X15.56 Y11.942
X15.556 Y11.943 Z7.314
X15.546 Y11.947
X15.542
X15.528
X15.418 Z7.312
X15.325 Z7.308
X15.279 Y11.95 Z7.307
X15.233 Y11.956 Z7.305
X15.213 Y11.96 Z7.304
X15.21
X15.152 Z7.302
X14.582 Z7.282
X13.849 Z7.257
X12.545 Z7.211
X12.464 Y11.955 Z7.208
X12.357 Y11.947 Z7.205
X12.355
X12.303 Y11.935 Z7.203
X12.213 Y11.914 Z7.2
X12.211 Y11.913 Z7.199
X12.109 Y11.873 Z7.196
X12.079 Y11.86 Z7.195
X12.076 Y11.859 Z7.194
X11.953 Y11.787 Z7.189
X11.951 Y11.785
X11.871 Y11.719 Z7.186
X11.841 Y11.695 Z7.184
X11.839 Y11.693
X11.744 Y11.588 Z7.179
X11.742 Y11.586
X11.663 Y11.467 Z7.174
X11.662 Y11.464
X11.603 Y11.335 Z7.169
X11.602 Y11.333
X11.598 Y11.32
X11.562 Y11.193 Z7.164
X11.561 Y11.191
X11.558 Y11.163 Z7.163
X11.543 Y11.049 Z7.159
Y11.047
X11.544 Y11.001 Z7.157
X11.547 Y10.904 Z7.154
Y10.901
X11.558 Y10.839 Z7.152
X11.572 Y10.761 Z7.149
X11.573 Y10.759
X11.619 Y10.624 Z7.144
X11.62 Y10.621
X11.686 Y10.495 Z7.139
X11.687 Y10.493
X11.772 Y10.378 Z7.134
X11.773 Y10.376
X11.876 Y10.273 Z7.129
X11.878 Y10.272
X11.993 Y10.187 Z7.124
X11.995 Y10.186 Z7.123
X12 Y10.184
X12.119 Y10.121 Z7.119
X12.121 Y10.12 Z7.118
X12.124 Y10.119
X12.145 Y10.112
X12.259 Y10.073 Z7.113
X12.261 Y10.072
X12.301 Y10.065 Z7.112
X12.401 Y10.047 Z7.108
X12.404
X12.463 Y10.045 Z7.106
X12.547 Y10.043 Z7.103
X12.549
X12.665 Y10.058 Z7.099
X12.691 Y10.061 Z7.098
X12.693 Y10.062
X12.833 Y10.102 Z7.093
X12.837 Y10.104
X12.934 Y10.148 Z7.089
X12.965 Y10.162 Z7.088
X12.967 Y10.164
X13.005 Y10.189 Z7.087
X13.086 Y10.242 Z7.083
X13.088 Y10.244
X13.165 Y10.314 Z7.08
X13.193 Y10.339 Z7.079
X13.195 Y10.341 Z7.078
X13.272 Y10.436 Z7.075
X13.285 Y10.451 Z7.074
X13.287 Y10.454
X13.337 Y10.539 Z7.071
X13.359 Y10.576 Z7.069
X13.36 Y10.579
X13.374 Y10.612 Z7.068
X13.413 Y10.711 Z7.065
X13.414 Y10.713
X13.426 Y10.766 Z7.063
X13.447 Y10.855 Z7.06
Y10.86
X13.452 Y10.926 Z7.058
X13.466 Y11.088 Z7.054
X13.472 Y11.129 Z7.053
X13.481 Y11.168 Z7.051
X13.492 Y11.208 Z7.05
X13.505 Y11.246 Z7.049
X13.521 Y11.284 Z7.048
X13.539 Y11.32 Z7.047
X13.559 Y11.356 Z7.046
X13.581 Y11.39 Z7.045
X13.605 Y11.423 Z7.044
X13.631 Y11.454 Z7.043
X13.658 Y11.484 Z7.042
X13.688 Y11.512 Z7.041
X13.719 Y11.539 Z7.04
X13.752 Y11.563 Z7.039
X13.785 Y11.586 Z7.038
X13.821 Y11.606 Z7.037
X13.857 Y11.625 Z7.036
X13.894 Y11.641 Z7.035
X13.933 Y11.655 Z7.034
X13.972 Y11.667 Z7.033
X14.011 Y11.676 Z7.032
X14.051 Y11.683 Z7.031
X14.092 Y11.688 Z7.03
X14.133 Y11.69 Z7.029
X14.296 Z7.026
X14.459 Z7.023
X14.621 Z7.02
X14.784 Z7.017
X14.947 Z7.014
X15.109 Y11.702 Z7.012
X15.272 Y11.703 Z7.009
X15.344 Z7.008
X15.347 Y11.704
X15.361 Y11.709
X15.363 Y11.711
X15.383 Y11.724
X15.385 Y11.726
X15.399 Y11.741
X15.4 Y11.743
X15.413 Y11.766 Z7.007
X15.414 Y11.768
X15.424 Y11.798
X15.425 Y11.801
X15.427 Y11.827 Z7.006
Y11.829
X15.424 Y11.853
Y11.855
X15.415 Y11.88
X15.414 Y11.883
X15.4 Y11.905 Z7.005
X15.399 Y11.907
X15.384 Y11.922
X15.381 Y11.926
X15.379 Y11.928
X15.357 Y11.942
X15.347 Y11.946
X15.345 Y11.947
X15.233 Z7.004
X15.152 Z7.003
X15.111
X15.07 Y11.951 Z7.002
X15.03 Y11.956
X15.01 Y11.96
X15.007
X14.989
X14.908 Z7.001
X14.745
X14.582 Z7
X14.419
X14.363
X12.79
X12.611
X12.518 Y11.959
X12.356 Y11.947
X12.355
X12.214 Y11.914
X12.213
X12.078 Y11.86
X12.077 Y11.859
X11.953 Y11.787
X11.951 Y11.785
X11.84 Y11.694
X11.832 Y11.685
X11.744 Y11.588
X11.742 Y11.586
X11.664 Y11.467
X11.662 Y11.465
X11.602 Y11.334
X11.601 Y11.331
X11.562 Y11.193
X11.561 Y11.192
X11.543 Y11.05
Y11.048
X11.547 Y10.904
Y10.902
X11.573 Y10.76
Y10.759
X11.619 Y10.623
X11.62 Y10.621
X11.687 Y10.493
X11.688 Y10.492
X11.773 Y10.377
X11.775 Y10.374
X11.875 Y10.274
X11.877 Y10.272
X11.992 Y10.188
X11.994 Y10.187
X12.122 Y10.12
X12.123 Y10.119
X12.259 Y10.073
X12.261 Y10.072
X12.403 Y10.047
X12.404
X12.547 Y10.043
X12.549
X12.692 Y10.062
X12.693
X12.832 Y10.102
X12.834
X12.964 Y10.162
X12.966 Y10.163
X13.084 Y10.241
X13.087 Y10.243
X13.194 Y10.34
X13.195 Y10.341
X13.286 Y10.452
X13.287 Y10.454
X13.36 Y10.578
X13.361 Y10.58
X13.414 Y10.713
Y10.714
X13.447 Y10.853
Y10.855
X13.458 Y11.001
X13.466 Y11.093
X13.474 Y11.139
X13.485 Y11.185
X13.5 Y11.23
X13.518 Y11.276
X13.537 Y11.317
X13.566 Y11.368
X13.596 Y11.411
X13.63 Y11.453
X13.635 Y11.46
X13.656 Y11.482
X13.679 Y11.504
X13.723 Y11.542
X13.735 Y11.551
X13.775 Y11.579
X13.815 Y11.603
X13.858 Y11.625
X13.9 Y11.643
X13.908 Y11.646
X13.954 Y11.662
X14 Y11.674
X14.047 Y11.682
X14.093 Y11.688
X14.186 Y11.69
X15.005
X15.006
X15.008
X15.019 Y11.693
X15.066 Y11.699
X15.112 Y11.703
X15.205
X15.34
X15.341 Y11.704
X15.355 Y11.709
X15.357 Y11.71
X15.376 Y11.723
X15.378 Y11.724
X15.394 Y11.741
X15.395 Y11.743
X15.409 Y11.767
X15.41 Y11.768
X15.42 Y11.799
Y11.8
X15.423 Y11.827
Y11.828
X15.42 Y11.855
Y11.856
X15.411 Y11.88
Y11.882
X15.397 Y11.905
X15.396 Y11.906
X15.378 Y11.926
X15.376 Y11.927
X15.355 Y11.942
X15.353
X15.342 Y11.947
X15.341
X15.205
X15.112
X15.066 Y11.951
X15.019 Y11.958
X15.008 Y11.96
X15.006
X14.363
X14.2
X14.037 Z6.999
X13.874
X13.711 Z6.998
X13.548 Z6.997
X13.385 Z6.995
X13.222 Z6.994
X13.06 Z6.992
X12.897 Z6.99
X12.734 Z6.988
X12.571 Z6.985
X12.408 Y11.951 Z6.982
X12.355 Y11.947 Z6.981
X12.347 Y11.945
X12.328 Y11.941
X12.214 Y11.914 Z6.979
X12.211 Y11.913
X12.171 Y11.897 Z6.978
X12.079 Y11.86 Z6.976
X12.077 Y11.859
X12.024 Y11.828 Z6.975
X11.954 Y11.787 Z6.973
X11.952 Y11.785
X11.922 Y11.761 Z6.972
X11.859 Y11.71 Z6.97
X11.841 Y11.695
X11.839 Y11.694
X11.829 Y11.682 Z6.969
X11.775 Y11.622 Z6.968
X11.744 Y11.588 Z6.967
X11.742 Y11.586
X11.724 Y11.558 Z6.966
X11.662 Y11.465 Z6.963
X11.658 Y11.456
X11.641 Y11.419 Z6.962
X11.602 Y11.333 Z6.96
X11.601 Y11.331 Z6.959
X11.594 Y11.306
X11.572 Y11.228 Z6.957
X11.562 Y11.194 Z6.956
X11.561 Y11.191
Y11.189
X11.551 Y11.108 Z6.954
X11.543 Y11.05 Z6.952
Y11.047
X11.544 Y11.027 Z6.951
X11.547 Y10.905 Z6.948
Y10.902
X11.554 Y10.864 Z6.947
X11.572 Y10.762 Z6.944
X11.573 Y10.759
X11.591 Y10.706 Z6.942
X11.619 Y10.624 Z6.94
X11.62 Y10.622
X11.635 Y10.593 Z6.939
X11.673 Y10.521 Z6.936
X11.687 Y10.493 Z6.935
X11.688 Y10.491
X11.693 Y10.485
X11.765 Y10.387 Z6.931
X11.773 Y10.377
X11.774 Y10.375
X11.792 Y10.357 Z6.93
X11.875 Y10.274 Z6.926
X11.877 Y10.272
X11.912 Y10.247 Z6.925
X11.992 Y10.188 Z6.922
X11.994 Y10.187
X12.048 Y10.158 Z6.92
X12.121 Y10.121 Z6.917
X12.123 Y10.119
X12.159 Y10.107 Z6.916
X12.258 Y10.073 Z6.912
X12.26
X12.275 Y10.07
X12.403 Y10.047 Z6.907
X12.406
X12.436 Y10.046 Z6.906
X12.548 Y10.043 Z6.902
X12.551
X12.599 Y10.05 Z6.9
X12.692 Y10.061 Z6.897
X12.694 Y10.062
X12.719 Y10.069 Z6.896
X12.817 Y10.097 Z6.892
X12.831 Y10.101
X12.834 Y10.102
X12.836 Y10.103
X12.963 Y10.162 Z6.887
X12.966 Y10.163
X12.983 Y10.174 Z6.886
X13.085 Y10.241 Z6.882
X13.087 Y10.243
X13.194 Y10.34 Z6.877
X13.198 Y10.344 Z6.876
X13.286 Y10.452 Z6.872
X13.287 Y10.455
X13.36 Y10.577 Z6.867
X13.361 Y10.58 Z6.866
X13.364 Y10.587
X13.414 Y10.712 Z6.862
Y10.715 Z6.861
X13.42 Y10.739
X13.447 Y10.853 Z6.856
Y10.856
X13.45 Y10.899 Z6.855
X13.456 Y10.98 Z6.852
X13.463 Y11.061 Z6.849
X13.468 Y11.102 Z6.848
X13.475 Y11.142 Z6.846
X13.484 Y11.182 Z6.845
X13.496 Y11.221 Z6.843
X13.51 Y11.259 Z6.842
X13.527 Y11.296 Z6.841
X13.545 Y11.332 Z6.839
X13.566 Y11.367 Z6.838
X13.589 Y11.401 Z6.836
X13.613 Y11.434 Z6.835
X13.64 Y11.464 Z6.834
X13.668 Y11.494 Z6.832
X13.698 Y11.521 Z6.831
X13.73 Y11.547 Z6.829
X13.763 Y11.571 Z6.828
X13.797 Y11.593 Z6.826
X13.833 Y11.613 Z6.825
X13.869 Y11.63 Z6.824
X13.907 Y11.646 Z6.822
X13.945 Y11.659 Z6.821
X13.985 Y11.67 Z6.819
X14.024 Y11.678 Z6.818
X14.065 Y11.685 Z6.817
X14.105 Y11.689 Z6.815
X14.187 Y11.69 Z6.812
X14.512 Z6.801
X14.863 Z6.789
X14.866
X14.868 Y11.691 Z6.788
X14.878 Y11.693
X14.919 Y11.699 Z6.787
X14.959 Y11.703 Z6.785
X15 Y11.704 Z6.784
X15.153 Z6.779
X15.194 Y11.703 Z6.778
X15.196 Y11.704
X15.209 Y11.709 Z6.777
X15.211 Y11.71
X15.231 Y11.724 Z6.776
X15.233 Y11.726
X15.246 Y11.74
X15.247 Y11.742
X15.261 Y11.765 Z6.775
X15.262 Y11.767
X15.271 Y11.797 Z6.774
X15.272 Y11.8
X15.274 Y11.826 Z6.773
Y11.829
X15.271 Y11.855 Z6.772
X15.27 Y11.858
X15.262 Y11.88
X15.261 Y11.882
X15.247 Y11.905 Z6.771
X15.245 Y11.907
X15.227 Y11.926 Z6.77
X15.224 Y11.928
X15.204 Y11.941 Z6.769
X15.202 Y11.943
X15.193 Y11.946
X15.191 Y11.947
X15.184
X15.013 Y11.946 Z6.763
X14.972 Z6.762
X14.932 Y11.948 Z6.761
X14.891 Y11.952 Z6.759
X14.85 Y11.959 Z6.758
X14.845 Y11.96
X14.843
X14.77 Z6.755
X12.571 Z6.678
X12.489 Y11.957 Z6.675
X12.355 Y11.947 Z6.671
X12.347 Y11.945 Z6.67
X12.214 Y11.914 Z6.666
X12.211 Y11.913
X12.079 Y11.86 Z6.661
X12.077 Y11.859 Z6.66
X11.954 Y11.787 Z6.655
X11.952 Y11.785
X11.859 Y11.71 Z6.651
X11.841 Y11.695 Z6.65
X11.839 Y11.694
X11.829 Y11.682
X11.744 Y11.588 Z6.645
X11.742 Y11.586
X11.735 Y11.575
X11.724 Y11.558 Z6.644
X11.662 Y11.465 Z6.64
X11.658 Y11.456
X11.641 Y11.419 Z6.638
X11.602 Y11.333 Z6.635
X11.601 Y11.331
X11.594 Y11.306 Z6.634
X11.572 Y11.228 Z6.631
X11.562 Y11.194 Z6.63
X11.561 Y11.191
Y11.189
X11.543 Y11.05 Z6.625
Y11.047
X11.544 Y11.027 Z6.624
X11.547 Y10.905 Z6.62
Y10.902
X11.548 Y10.895
X11.572 Y10.762 Z6.615
X11.573 Y10.759
X11.574 Y10.754
X11.619 Y10.624 Z6.61
X11.62 Y10.622
X11.621 Y10.62
X11.635 Y10.593 Z6.609
X11.685 Y10.498 Z6.605
X11.687 Y10.493
X11.688 Y10.491
X11.693 Y10.485 Z6.604
X11.765 Y10.387 Z6.6
X11.773 Y10.377
X11.774 Y10.375
X11.778 Y10.371 Z6.599
X11.792 Y10.357
X11.875 Y10.274 Z6.595
X11.877 Y10.272
X11.879 Y10.271 Z6.594
X11.978 Y10.198 Z6.59
X11.992 Y10.188
X11.994 Y10.187
X12.012 Y10.177 Z6.589
X12.048 Y10.158 Z6.587
X12.121 Y10.121 Z6.585
X12.123 Y10.119
X12.13 Y10.117 Z6.584
X12.198 Y10.094 Z6.582
X12.258 Y10.073 Z6.58
X12.26
X12.265 Y10.072
X12.275 Y10.07 Z6.579
X12.395 Y10.048 Z6.575
X12.403 Y10.047
X12.406
X12.416
X12.436 Y10.046 Z6.574
X12.548 Y10.043 Z6.571
X12.551 Y10.044 Z6.57
X12.558
X12.599 Y10.05 Z6.569
X12.692 Y10.061 Z6.566
X12.694 Y10.062
X12.699 Y10.063
X12.758 Y10.08 Z6.564
X12.831 Y10.101 Z6.562
X12.834 Y10.102
X12.836 Y10.103
X12.91 Y10.137 Z6.559
X12.963 Y10.162 Z6.557
X12.966 Y10.163
X12.974 Y10.168
X13.051 Y10.219 Z6.555
X13.085 Y10.241 Z6.553
X13.087 Y10.243
X13.092 Y10.248
X13.115 Y10.268 Z6.552
X13.192 Y10.338 Z6.549
X13.194 Y10.34
X13.198 Y10.344
X13.204 Y10.352
X13.23 Y10.383 Z6.548
X13.286 Y10.452 Z6.545
X13.287 Y10.455
X13.293 Y10.463
X13.324 Y10.516 Z6.544
X13.36 Y10.577 Z6.542
X13.361 Y10.58
X13.364 Y10.587 Z6.541
X13.394 Y10.662 Z6.539
X13.414 Y10.712 Z6.538
Y10.715
X13.416 Y10.72
X13.42 Y10.739 Z6.537
X13.445 Y10.848 Z6.535
X13.447 Y10.853
Y10.856
Y10.858
X13.45 Y10.899 Z6.534
X13.456 Y10.98 Z6.532
X13.463 Y11.061 Z6.53
X13.468 Y11.102 Z6.529
X13.475 Y11.142 Z6.528
X13.484 Y11.182 Z6.527
X13.496 Y11.221 Z6.526
X13.51 Y11.259
X13.527 Y11.296 Z6.525
X13.545 Y11.332 Z6.524
X13.566 Y11.367 Z6.523
X13.589 Y11.401 Z6.522
X13.613 Y11.434
X13.64 Y11.464 Z6.521
X13.668 Y11.494 Z6.52
X13.698 Y11.521 Z6.519
X13.73 Y11.547
X13.763 Y11.571 Z6.518
X13.797 Y11.593 Z6.517
X13.833 Y11.613 Z6.516
X13.869 Y11.63
X13.907 Y11.646 Z6.515
X13.945 Y11.659 Z6.514
X13.985 Y11.67
X14.024 Y11.678 Z6.513
X14.065 Y11.685
X14.105 Y11.689 Z6.512
X14.187 Y11.69 Z6.511
X14.35 Z6.509
X14.512 Z6.507
X14.594 Z6.506
X14.673 Z6.505
X14.675
X14.716 Y11.697
X14.756 Y11.702 Z6.504
X14.797 Y11.704
X14.837
X15.016 Z6.502
X15.019 Y11.705
X15.028 Y11.709
X15.031 Y11.71
X15.033 Y11.711
X15.035 Y11.713
X15.05 Y11.723
X15.052 Y11.724
X15.066 Y11.739
X15.068 Y11.741
X15.082 Y11.765
X15.083 Y11.768
X15.093 Y11.799 Z6.501
X15.094 Y11.801
Y11.804
X15.095 Y11.809
X15.096 Y11.824
Y11.826
Y11.829
X15.095 Y11.839
X15.094 Y11.852
X15.093 Y11.854
X15.092 Y11.859
X15.085 Y11.878
Y11.881
X15.083 Y11.883
X15.081 Y11.887
X15.072 Y11.903
X15.07 Y11.905
X15.067 Y11.909
X15.064 Y11.913
X15.053 Y11.924
X15.051 Y11.925
X15.047 Y11.929
X15.045 Y11.93
X15.03 Y11.94
X15.026 Y11.943
X15.023 Y11.944
X15.019 Y11.946
X15.016
X15.013
X14.85 Z6.5
X14.769 Y11.947
X14.729 Y11.951
X14.689 Y11.957
X14.674 Y11.959
X14.671 Y11.96
X14.66
X12.611
X12.518 Y11.959
X12.356 Y11.947
X12.355
X12.214 Y11.914
X12.213
X12.078 Y11.86
X12.077 Y11.859
X11.953 Y11.787
X11.951 Y11.785
X11.84 Y11.694
X11.832 Y11.685
X11.744 Y11.588
X11.742 Y11.586
X11.664 Y11.467
X11.662 Y11.465
X11.66 Y11.46
X11.602 Y11.334
X11.601 Y11.331
X11.597 Y11.316
X11.562 Y11.193
X11.561 Y11.192
Y11.185
X11.543 Y11.05
Y11.048
X11.544 Y11.001
X11.547 Y10.904
Y10.902
X11.55 Y10.886
X11.573 Y10.76
Y10.759
X11.576 Y10.749
X11.619 Y10.623
X11.62 Y10.621
X11.625 Y10.611
X11.687 Y10.493
X11.692 Y10.486
X11.773 Y10.377
X11.775 Y10.374
X11.777 Y10.372
X11.875 Y10.274
X11.877 Y10.272
X11.884 Y10.267
X11.992 Y10.188
X11.994 Y10.187
X12.002 Y10.182
X12.122 Y10.12
X12.123 Y10.119
X12.148 Y10.111
X12.259 Y10.073
X12.261 Y10.072
X12.264
X12.287 Y10.068
X12.403 Y10.047
X12.404
X12.414
X12.547 Y10.043
X12.549
X12.553 Y10.044
X12.565 Y10.045
X12.692 Y10.062
X12.693
X12.704 Y10.065
X12.832 Y10.102
X12.834
X12.843 Y10.106
X12.964 Y10.162
X12.966 Y10.163
X12.97 Y10.166
X12.985 Y10.176
X13.084 Y10.241
X13.087 Y10.243
X13.094 Y10.249
X13.194 Y10.34
X13.196 Y10.343
X13.201 Y10.348
X13.286 Y10.452
X13.287 Y10.454
X13.292 Y10.462
X13.36 Y10.578
X13.361 Y10.58
X13.362 Y10.582
X13.369 Y10.599
X13.413 Y10.712
X13.414 Y10.713
X13.417 Y10.726
X13.447 Y10.853
Y10.855
Y10.861
X13.449 Y10.877
X13.458 Y11.001
X13.466 Y11.093
X13.474 Y11.139
X13.485 Y11.185
X13.5 Y11.23
X13.518 Y11.276
X13.537 Y11.317
X13.566 Y11.368
X13.596 Y11.411
X13.63 Y11.453
X13.635 Y11.46
X13.656 Y11.482
X13.679 Y11.504
X13.723 Y11.542
X13.735 Y11.551
X13.775 Y11.579
X13.815 Y11.603
X13.858 Y11.625
X13.9 Y11.643
X13.908 Y11.646
X13.954 Y11.662
X14 Y11.674
X14.047 Y11.682
X14.093 Y11.688
X14.186 Y11.69
X14.669
X14.671
X14.672
X14.695 Y11.695
X14.742 Y11.701
X14.788 Y11.704
X14.834
X15.014
X15.015
X15.027 Y11.709
X15.029
X15.03 Y11.71
X15.04 Y11.717
X15.049 Y11.723
X15.05 Y11.724
X15.052 Y11.725
X15.061 Y11.735
X15.066 Y11.741
X15.067 Y11.742
X15.081 Y11.765
Y11.766
X15.092 Y11.798
Y11.799
X15.093 Y11.804
X15.094 Y11.815
X15.095 Y11.825
Y11.827
X15.093 Y11.85
Y11.852
Y11.854
X15.091 Y11.861
X15.084 Y11.88
Y11.881
X15.082 Y11.884
X15.076 Y11.895
X15.071 Y11.903
X15.07 Y11.904
X15.068 Y11.907
X15.058 Y11.918
X15.053 Y11.923
X15.05 Y11.925
X15.048 Y11.927
X15.046 Y11.929
X15.031 Y11.939
X15.029 Y11.941
X15.024 Y11.943
X15.022 Y11.944
X15.018 Y11.946
X15.017
X14.973
X14.834
X14.788
X14.742 Y11.949
X14.695 Y11.955
X14.672 Y11.96
X14.671
X14.66
X14.497
X14.335 Z6.499
X14.172
X14.009 Z6.498
X13.847 Z6.497
X13.684 Z6.495
X13.521 Z6.494
X13.358 Z6.492
X13.195 Z6.49
X13.032 Z6.488
X12.87 Z6.485
X12.707 Z6.482
X12.544 Z6.479
X12.382 Y11.949 Z6.476
X12.356 Y11.947
X12.354
X12.302 Y11.935 Z6.475
X12.215 Y11.914 Z6.473
X12.212
X12.184 Y11.902 Z6.472
X12.109 Y11.872 Z6.47
X12.08 Y11.861
X12.078 Y11.86
X12.071 Y11.856
X12.001 Y11.815 Z6.468
X11.953 Y11.786 Z6.466
X11.951 Y11.785
X11.933 Y11.77
X11.84 Y11.695 Z6.463
X11.839 Y11.693
X11.811 Y11.663 Z6.462
X11.743 Y11.587 Z6.459
X11.742 Y11.585
X11.732 Y11.57
X11.709 Y11.536 Z6.458
X11.663 Y11.466 Z6.456
X11.662 Y11.464
X11.656 Y11.45 Z6.455
X11.63 Y11.395 Z6.454
X11.602 Y11.335 Z6.452
X11.601 Y11.332
X11.598 Y11.32
X11.564 Y11.203 Z6.448
X11.562 Y11.195
Y11.193
X11.56 Y11.183
X11.558 Y11.162 Z6.447
X11.543 Y11.049 Z6.444
Y11.046
Y11.041
X11.544 Y11 Z6.442
X11.547 Y10.904 Z6.44
Y10.901
X11.548 Y10.899 Z6.439
X11.551 Y10.879
X11.566 Y10.799 Z6.436
X11.572 Y10.761 Z6.435
X11.573 Y10.759
X11.612 Y10.643 Z6.431
X11.619 Y10.624
X11.62 Y10.622
X11.624 Y10.615
X11.628 Y10.606 Z6.43
X11.686 Y10.495 Z6.426
X11.687 Y10.493
X11.696 Y10.481
X11.708 Y10.464 Z6.425
X11.773 Y10.376 Z6.422
X11.775 Y10.374 Z6.421
X11.782 Y10.367
X11.811 Y10.338 Z6.42
X11.875 Y10.274 Z6.417
X11.878 Y10.272
X11.884 Y10.267 Z6.416
X11.933 Y10.231 Z6.414
X11.992 Y10.188 Z6.412
X11.995 Y10.186
X11.999 Y10.184
X12.107 Y10.127 Z6.407
X12.121 Y10.12
X12.123 Y10.119
X12.126
X12.145 Y10.112 Z6.406
X12.258 Y10.073 Z6.402
X12.26
X12.27 Y10.071 Z6.401
X12.301 Y10.065 Z6.4
X12.401 Y10.047 Z6.397
X12.403
X12.411 Z6.396
X12.421 Y10.046
X12.462 Y10.045 Z6.395
X12.548 Y10.043 Z6.392
X12.551 Y10.044
X12.563 Y10.045 Z6.391
X12.624 Y10.053 Z6.389
X12.692 Y10.061 Z6.387
X12.694 Y10.062
X12.704 Y10.065 Z6.386
X12.831 Y10.101 Z6.382
X12.834 Y10.102 Z6.381
X12.841 Y10.105
X12.859 Y10.114
X12.963 Y10.162 Z6.377
X12.965 Y10.163 Z6.376
X12.97 Y10.166
X13.004 Y10.188 Z6.375
X13.084 Y10.241 Z6.371
X13.087 Y10.243
X13.088 Y10.244
X13.104 Y10.258
X13.164 Y10.313 Z6.368
X13.194 Y10.34 Z6.366
X13.201 Y10.348
X13.207 Y10.356
X13.286 Y10.452 Z6.361
X13.287 Y10.454
X13.29 Y10.459
X13.295 Y10.468
X13.36 Y10.577 Z6.356
X13.361 Y10.579
X13.365 Y10.591
X13.373 Y10.61 Z6.355
X13.413 Y10.712 Z6.351
X13.414 Y10.714
X13.417 Y10.724
X13.426 Y10.764 Z6.349
X13.446 Y10.853 Z6.346
X13.447 Y10.855
X13.448 Y10.863
X13.449 Y10.883 Z6.345
X13.458 Y11.005 Z6.341
X13.465 Y11.086 Z6.338
X13.472 Y11.126 Z6.337
X13.48 Y11.166 Z6.335
X13.491 Y11.205 Z6.334
X13.505 Y11.244 Z6.332
X13.52 Y11.281 Z6.331
X13.538 Y11.318 Z6.329
X13.558 Y11.354 Z6.328
X13.579 Y11.388 Z6.327
X13.603 Y11.421 Z6.325
X13.629 Y11.453 Z6.324
X13.657 Y11.482 Z6.322
X13.686 Y11.511 Z6.321
X13.717 Y11.537 Z6.32
X13.749 Y11.562 Z6.318
X13.783 Y11.584 Z6.317
X13.818 Y11.605 Z6.315
X13.855 Y11.624 Z6.314
X13.892 Y11.64 Z6.312
X13.93 Y11.654 Z6.311
X13.969 Y11.666 Z6.31
X14.009 Y11.675 Z6.308
X14.049 Y11.683 Z6.307
X14.089 Y11.687 Z6.305
X14.13 Y11.69 Z6.304
X14.211 Z6.301
X14.528 Z6.29
X14.531
X14.536 Y11.691
X14.576 Y11.698 Z6.288
X14.617 Y11.703 Z6.287
X14.658 Y11.705 Z6.285
X14.7 Z6.284
X14.87 Y11.704 Z6.279
X14.873 Y11.705
X14.876 Y11.706
X14.881 Y11.708
X14.884 Y11.71
X14.891 Y11.714 Z6.278
X14.901 Y11.721
X14.903 Y11.723
X14.908 Y11.727
X14.91 Y11.729
X14.917 Y11.737 Z6.277
X14.921 Y11.742
X14.923 Y11.744
X14.93 Y11.757
X14.933 Y11.762
X14.934 Y11.765
X14.935 Y11.767
X14.945 Y11.798 Z6.276
Y11.801
X14.947 Y11.812 Z6.275
X14.948 Y11.824
Y11.826
X14.947 Y11.835
X14.946 Y11.847 Z6.274
X14.945 Y11.85
Y11.852
X14.943 Y11.858
X14.94 Y11.868
X14.937 Y11.876 Z6.273
X14.936 Y11.878
X14.931 Y11.888
X14.926 Y11.897
X14.923 Y11.901
X14.92 Y11.906 Z6.272
X14.913 Y11.914
X14.905 Y11.921
X14.903 Y11.923
X14.895 Y11.93 Z6.271
X14.893 Y11.932
X14.884 Y11.938
X14.881 Y11.939
X14.872 Y11.944
X14.869 Y11.945 Z6.27
X14.866 Y11.946
X14.858
X14.815 Z6.269
X14.66 Y11.945 Z6.264
X14.619 Y11.946 Z6.262
X14.578 Y11.949 Z6.261
X14.537 Y11.955 Z6.259
X14.517 Y11.958
X14.51 Y11.96 Z6.258
X14.507
X14.416 Z6.255
X12.544 Z6.19
X12.463 Y11.955 Z6.187
X12.356 Y11.947 Z6.183
X12.354
X12.215 Y11.914 Z6.178
X12.212
X12.184 Y11.902 Z6.177
X12.08 Y11.861 Z6.173
X12.078 Y11.86
X12.071 Y11.856
X11.953 Y11.786 Z6.168
X11.951 Y11.785
X11.933 Y11.77 Z6.167
X11.84 Y11.695 Z6.163
X11.839 Y11.693
X11.811 Y11.663 Z6.161
X11.743 Y11.587 Z6.158
X11.742 Y11.585
X11.732 Y11.57 Z6.157
X11.709 Y11.536 Z6.156
X11.663 Y11.466 Z6.153
X11.662 Y11.464
X11.656 Y11.45 Z6.152
X11.602 Y11.335 Z6.148
X11.601 Y11.332
X11.598 Y11.32 Z6.147
X11.562 Y11.195 Z6.143
Y11.193
X11.56 Y11.183 Z6.142
X11.558 Y11.162
X11.543 Y11.049 Z6.138
Y11.046 Z6.137
Y11.041
X11.544 Y11 Z6.136
X11.547 Y10.904 Z6.133
Y10.901 Z6.132
X11.548 Y10.899
X11.551 Y10.879
X11.572 Y10.761 Z6.127
X11.573 Y10.759
X11.599 Y10.682 Z6.125
X11.619 Y10.624 Z6.122
X11.62 Y10.622
X11.628 Y10.606
X11.686 Y10.495 Z6.117
X11.687 Y10.493
X11.696 Y10.481
X11.708 Y10.464 Z6.116
X11.773 Y10.376 Z6.112
X11.782 Y10.367
X11.811 Y10.338 Z6.11
X11.875 Y10.274 Z6.107
X11.878 Y10.272
X11.884 Y10.267
X11.9 Y10.255 Z6.106
X11.933 Y10.231 Z6.105
X11.992 Y10.188 Z6.102
X11.995 Y10.186
X11.999 Y10.184
X12.071 Y10.146 Z6.099
X12.121 Y10.12 Z6.097
X12.123 Y10.119
X12.126
X12.145 Y10.112 Z6.096
X12.258 Y10.073 Z6.092
X12.26
X12.28 Y10.069 Z6.091
X12.381 Y10.051 Z6.088
X12.401 Y10.047 Z6.087
X12.403
X12.421 Y10.046 Z6.086
X12.462 Y10.045 Z6.085
X12.548 Y10.043 Z6.082
X12.553 Y10.044
X12.563 Y10.045
X12.583 Y10.048 Z6.081
X12.664 Y10.058 Z6.078
X12.692 Y10.061 Z6.077
X12.694 Y10.062
X12.704 Y10.065
X12.782 Y10.087 Z6.074
X12.831 Y10.101 Z6.073
X12.834 Y10.102
X12.841 Y10.105 Z6.072
X12.859 Y10.114
X12.963 Y10.162 Z6.068
X12.965 Y10.163
X12.97 Y10.166
X13.004 Y10.188 Z6.067
X13.084 Y10.241 Z6.064
X13.086 Y10.243
X13.088 Y10.244
X13.104 Y10.258 Z6.063
X13.164 Y10.313 Z6.061
X13.192 Y10.338 Z6.06
X13.194 Y10.34 Z6.059
X13.207 Y10.356
X13.246 Y10.403 Z6.057
X13.286 Y10.452 Z6.055
X13.287 Y10.454
X13.295 Y10.468
X13.336 Y10.538 Z6.052
X13.36 Y10.577 Z6.051
X13.361 Y10.579
X13.365 Y10.591
X13.373 Y10.61 Z6.05
X13.413 Y10.712 Z6.047
X13.414 Y10.714
X13.417 Y10.724
X13.426 Y10.764 Z6.046
X13.446 Y10.853 Z6.043
X13.447 Y10.855
X13.448 Y10.863
X13.449 Y10.883
X13.452 Y10.924 Z6.042
X13.458 Y11.005 Z6.04
X13.465 Y11.086 Z6.038
X13.472 Y11.126 Z6.037
X13.48 Y11.166 Z6.036
X13.491 Y11.205 Z6.035
X13.505 Y11.244 Z6.034
X13.52 Y11.281 Z6.033
X13.538 Y11.318 Z6.032
X13.558 Y11.354 Z6.031
X13.579 Y11.388 Z6.03
X13.603 Y11.421 Z6.029
X13.629 Y11.453 Z6.028
X13.657 Y11.482 Z6.027
X13.686 Y11.511
X13.717 Y11.537 Z6.026
X13.749 Y11.562 Z6.025
X13.783 Y11.584 Z6.024
X13.818 Y11.605 Z6.023
X13.855 Y11.624
X13.892 Y11.64 Z6.022
X13.93 Y11.654 Z6.021
X13.969 Y11.666 Z6.02
X14.009 Y11.675 Z6.019
X14.049 Y11.683
X14.089 Y11.687 Z6.018
X14.13 Y11.69 Z6.017
X14.211 Z6.016
X14.292 Z6.015
X14.343 Z6.014
X14.346
X14.348 Y11.691
X14.353 Y11.692
X14.373 Y11.696 Z6.013
X14.414 Y11.701
X14.454 Y11.704 Z6.012
X14.536 Y11.705 Z6.011
X14.617 Z6.01
X14.694 Z6.009
X14.697
X14.704 Y11.708
X14.72 Y11.718 Z6.008
X14.722 Y11.719
X14.724 Y11.721
X14.734 Y11.729
X14.736 Y11.731
X14.745 Y11.743
X14.747 Y11.746
X14.757 Y11.764
X14.759 Y11.766
X14.76 Y11.769
X14.769 Y11.798 Z6.007
X14.77 Y11.801
X14.772 Y11.822
Y11.824
X14.77 Y11.848
Y11.85
X14.769 Y11.855 Z6.006
X14.764 Y11.872
X14.763 Y11.875
X14.762 Y11.877
X14.752 Y11.895
X14.751 Y11.897
X14.75 Y11.899
X14.737 Y11.915
X14.735 Y11.917
X14.733 Y11.919
X14.717 Y11.933 Z6.005
X14.715 Y11.934
X14.713 Y11.936
X14.697 Y11.945
X14.694
X14.66
X14.578 Z6.004
X14.497 Z6.003
X14.456
X14.415 Y11.948
X14.375 Y11.953 Z6.002
X14.355 Y11.956
X14.345 Y11.958
X14.338 Y11.96
X14.335
X14.294
X14.254
X14.172 Z6.001
X14.009
X13.847 Z6
X13.669
X12.611
X12.518 Y11.959
X12.356 Y11.947
X12.355
X12.214 Y11.914
X12.213
X12.078 Y11.86
X12.077 Y11.859
X12.021 Y11.827
X11.953 Y11.787
X11.951 Y11.785
X11.926 Y11.765
X11.841 Y11.695
X11.84 Y11.694
X11.832 Y11.685
X11.744 Y11.588
X11.742 Y11.586
X11.731 Y11.57
X11.664 Y11.467
X11.662 Y11.465
X11.66 Y11.46
X11.602 Y11.334
X11.601 Y11.331
X11.597 Y11.316
X11.562 Y11.193
X11.561 Y11.192
Y11.185
X11.543 Y11.05
Y11.048
X11.544 Y11.001
X11.547 Y10.904
Y10.902
X11.55 Y10.886
X11.573 Y10.76
Y10.759
X11.576 Y10.749
X11.584 Y10.726
X11.619 Y10.623
X11.62 Y10.621
X11.625 Y10.611
X11.637 Y10.588
X11.686 Y10.495
X11.687 Y10.493
X11.701 Y10.474
X11.773 Y10.377
X11.775 Y10.374
X11.79 Y10.359
X11.875 Y10.274
X11.877 Y10.272
X11.884 Y10.267
X11.963 Y10.21
X11.992 Y10.188
X11.994 Y10.187
X12.002 Y10.182
X12.015 Y10.176
X12.122 Y10.12
X12.123 Y10.119
X12.148 Y10.111
X12.259 Y10.073
X12.261 Y10.072
X12.287 Y10.068
X12.403 Y10.047
X12.404
X12.426 Y10.046
X12.547 Y10.043
X12.549
X12.565 Y10.045
X12.611 Y10.051
X12.692 Y10.062
X12.693
X12.704 Y10.065
X12.77 Y10.084
X12.831 Y10.101
X12.832 Y10.102
X12.843 Y10.106
X12.889 Y10.127
X12.964 Y10.162
X12.966 Y10.163
X12.982 Y10.173
X13.084 Y10.241
X13.087 Y10.243
X13.094 Y10.249
X13.114 Y10.267
X13.193 Y10.338
X13.194 Y10.34
X13.201 Y10.348
X13.21 Y10.359
X13.286 Y10.452
X13.287 Y10.454
X13.292 Y10.462
X13.299 Y10.474
X13.36 Y10.578
X13.362 Y10.582
X13.369 Y10.599
X13.413 Y10.712
X13.414 Y10.713
X13.417 Y10.726
X13.438 Y10.818
X13.447 Y10.853
Y10.855
X13.449 Y10.877
X13.458 Y11.001
X13.466 Y11.093
X13.474 Y11.139
X13.485 Y11.185
X13.5 Y11.23
X13.518 Y11.276
X13.537 Y11.317
X13.566 Y11.368
X13.596 Y11.411
X13.63 Y11.453
X13.635 Y11.46
X13.656 Y11.482
X13.679 Y11.504
X13.723 Y11.542
X13.735 Y11.551
X13.775 Y11.579
X13.815 Y11.603
X13.858 Y11.625
X13.9 Y11.643
X13.908 Y11.646
X13.954 Y11.662
X14 Y11.674
X14.047 Y11.682
X14.093 Y11.688
X14.186 Y11.69
X14.333
X14.335
X14.336
X14.348 Y11.693
X14.371 Y11.697
X14.417 Y11.702
X14.464 Y11.705
X14.556
X14.688
X14.69
X14.698 Y11.708
X14.699 Y11.709
X14.715 Y11.718
X14.716 Y11.719
X14.717 Y11.72
X14.728 Y11.729
X14.73 Y11.73
X14.731 Y11.732
X14.741 Y11.744
X14.742 Y11.745
X14.753 Y11.766
X14.754 Y11.767
X14.764 Y11.797
X14.765 Y11.799
X14.767 Y11.821
X14.768 Y11.824
Y11.825
X14.766 Y11.846
Y11.849
Y11.851
X14.759 Y11.873
Y11.875
X14.749 Y11.895
X14.747 Y11.897
X14.745 Y11.9
X14.742 Y11.905
X14.731 Y11.918
X14.729 Y11.919
X14.713 Y11.933
X14.711 Y11.934
X14.71 Y11.935
X14.709 Y11.936
X14.692 Y11.945
X14.691
X14.556
X14.464
X14.417 Y11.948
X14.371 Y11.953
X14.348 Y11.957
X14.336 Y11.96
X14.335
X14.333
X13.669
X13.506
X13.343 Z5.999
X13.18
X13.017 Z5.998
X12.854 Z5.997
X12.691 Z5.995
X12.528 Z5.994
X12.355 Y11.947 Z5.992
X12.353 Y11.946
X12.325 Y11.94 Z5.991
X12.246 Y11.922 Z5.99
X12.214 Y11.914
X12.211 Y11.913
X12.207 Y11.911
X12.131 Y11.881 Z5.989
X12.079 Y11.86 Z5.988
X12.077 Y11.859
X12.057 Y11.848
X11.96 Y11.791 Z5.986
X11.954 Y11.787
X11.952 Y11.786
X11.92 Y11.76 Z5.985
X11.841 Y11.695 Z5.983
X11.839 Y11.694
X11.827 Y11.68
X11.8 Y11.65 Z5.982
X11.744 Y11.588 Z5.981
X11.742 Y11.586
X11.734 Y11.573
X11.7 Y11.522 Z5.979
X11.664 Y11.467 Z5.978
X11.662 Y11.464
X11.657 Y11.453
X11.623 Y11.379 Z5.976
X11.603 Y11.335 Z5.975
X11.602 Y11.333
X11.599 Y11.323
X11.593 Y11.303
X11.562 Y11.195 Z5.972
Y11.193
X11.561 Y11.185
X11.555 Y11.145 Z5.971
X11.543 Y11.049 Z5.969
Y11.046
X11.544 Y11.023
X11.546 Y10.942 Z5.967
X11.547 Y10.904 Z5.966
Y10.901
X11.562 Y10.821 Z5.964
X11.572 Y10.761 Z5.962
X11.573 Y10.758
X11.579 Y10.742
X11.619 Y10.623 Z5.959
X11.62 Y10.621
X11.627 Y10.608 Z5.958
X11.637 Y10.589
X11.686 Y10.495 Z5.955
X11.688 Y10.492
X11.695 Y10.482
X11.719 Y10.449 Z5.954
X11.772 Y10.377 Z5.951
X11.774 Y10.376
X11.781 Y10.368
X11.795 Y10.354 Z5.95
X11.853 Y10.296 Z5.948
X11.875 Y10.275 Z5.947
X11.876 Y10.273
X11.883 Y10.268
X11.948 Y10.22 Z5.945
X11.991 Y10.188 Z5.943
X11.993 Y10.187
X12.016 Y10.175 Z5.942
X12.12 Y10.121 Z5.939
X12.122 Y10.12
X12.125 Y10.119
X12.163 Y10.106 Z5.937
X12.257 Y10.074 Z5.934
X12.26 Y10.073
X12.28 Y10.069
X12.32 Y10.062 Z5.933
X12.402 Y10.047 Z5.93
X12.405
X12.42 Y10.046 Z5.929
X12.441
X12.542 Y10.043 Z5.926
X12.548 Z5.925
X12.55
X12.563 Y10.045
X12.644 Y10.055 Z5.922
X12.692 Y10.061 Z5.921
X12.694 Y10.062
X12.704 Y10.065 Z5.92
X12.724 Y10.07
X12.831 Y10.101 Z5.916
X12.834 Y10.102
X12.841 Y10.105
X12.878 Y10.122 Z5.914
X12.963 Y10.162 Z5.911
X12.966 Y10.163
X12.987 Y10.177 Z5.91
X13.072 Y10.233 Z5.907
X13.085 Y10.241 Z5.906
X13.087 Y10.243
X13.089 Y10.245
X13.149 Y10.299 Z5.903
X13.193 Y10.338 Z5.901
X13.194 Y10.34
X13.207 Y10.356 Z5.9
X13.259 Y10.419 Z5.897
X13.285 Y10.451 Z5.896
X13.286 Y10.453
X13.295 Y10.468 Z5.895
X13.306 Y10.486 Z5.894
X13.359 Y10.576 Z5.891
X13.36 Y10.578
X13.366 Y10.592 Z5.89
X13.381 Y10.63 Z5.889
X13.413 Y10.71 Z5.886
X13.414 Y10.713
X13.417 Y10.725 Z5.885
X13.421 Y10.745 Z5.884
X13.447 Y10.854 Z5.881
Y10.859 Z5.88
X13.448 Y10.864
X13.454 Y10.946 Z5.877
X13.46 Y11.027 Z5.875
X13.468 Y11.108 Z5.872
X13.476 Y11.147 Z5.87
X13.486 Y11.187 Z5.869
X13.498 Y11.225 Z5.867
X13.512 Y11.263 Z5.866
X13.529 Y11.3 Z5.865
X13.547 Y11.336 Z5.863
X13.568 Y11.371 Z5.862
X13.59 Y11.404 Z5.86
X13.615 Y11.436 Z5.859
X13.641 Y11.466 Z5.858
X13.669 Y11.495 Z5.856
X13.699 Y11.522 Z5.855
X13.73 Y11.547 Z5.853
X13.762 Y11.571 Z5.852
X13.796 Y11.592 Z5.851
X13.831 Y11.612 Z5.849
X13.867 Y11.629 Z5.848
X13.904 Y11.645 Z5.846
X13.941 Y11.658 Z5.845
X13.98 Y11.669 Z5.844
X14.018 Y11.677 Z5.842
X14.057 Y11.684 Z5.841
X14.097 Y11.688 Z5.84
X14.138 Y11.69 Z5.838
X14.224 Z5.835
X14.226 Y11.691
X14.229
X14.239 Y11.693
X14.259 Y11.697 Z5.834
X14.301 Y11.702 Z5.832
X14.342 Y11.705 Z5.831
X14.384 Z5.829
X14.573 Z5.824
X14.576
X14.579 Y11.707
X14.582 Y11.708
X14.585 Y11.709
X14.6 Y11.719
X14.603 Y11.721
X14.611 Y11.728 Z5.823
X14.614 Y11.731
X14.625 Y11.745
X14.627 Y11.748
X14.637 Y11.766 Z5.822
X14.638 Y11.77
X14.647 Y11.797
X14.648 Y11.8 Z5.821
X14.65 Y11.821
Y11.825
X14.648 Y11.846 Z5.82
Y11.85
X14.641 Y11.874
X14.639 Y11.877
X14.629 Y11.896 Z5.819
X14.627 Y11.899
X14.621 Y11.907
X14.612 Y11.917 Z5.818
X14.611 Y11.919
X14.593 Y11.933
X14.591 Y11.935 Z5.817
X14.572 Y11.945
X14.57
X14.552 Z5.816
X14.473 Z5.813
X14.397 Z5.811
X14.32 Z5.808
X14.279 Y11.948 Z5.807
X14.239 Y11.953 Z5.805
X14.219 Y11.957
X14.209 Y11.959 Z5.804
X14.203 Y11.96
X14.201
X14.157 Z5.802
X13.751 Z5.788
X13.18 Z5.768
X12.528 Z5.746
X12.447 Y11.954 Z5.743
X12.355 Y11.947 Z5.74
X12.353 Y11.946 Z5.739
X12.214 Y11.914 Z5.734
X12.211 Y11.913
X12.207 Y11.911
X12.079 Y11.86 Z5.729
X12.077 Y11.859
X12.057 Y11.848
X11.954 Y11.787 Z5.724
X11.952 Y11.786
X11.92 Y11.76 Z5.723
X11.841 Y11.695 Z5.719
X11.839 Y11.694
X11.827 Y11.68
X11.744 Y11.588 Z5.714
X11.742 Y11.586
X11.722 Y11.556 Z5.713
X11.664 Y11.467 Z5.709
X11.662 Y11.464
X11.657 Y11.453
X11.603 Y11.335 Z5.704
X11.602 Y11.333
X11.593 Y11.303 Z5.703
X11.562 Y11.195 Z5.699
Y11.193
X11.561 Y11.185
X11.555 Y11.145 Z5.697
X11.543 Y11.049 Z5.694
Y11.044
X11.544 Y11.023 Z5.693
X11.547 Y10.904 Z5.689
Y10.901
X11.562 Y10.821 Z5.686
X11.572 Y10.761 Z5.684
X11.573 Y10.758
X11.579 Y10.742 Z5.683
X11.619 Y10.623 Z5.679
X11.62 Y10.621
X11.627 Y10.608 Z5.678
X11.637 Y10.589 Z5.677
X11.686 Y10.495 Z5.674
X11.688 Y10.492
X11.695 Y10.482 Z5.673
X11.719 Y10.449 Z5.672
X11.772 Y10.377 Z5.669
X11.774 Y10.376
X11.795 Y10.354 Z5.667
X11.875 Y10.275 Z5.664
X11.876 Y10.273 Z5.663
X11.883 Y10.268
X11.948 Y10.22 Z5.66
X11.991 Y10.188 Z5.658
X11.993 Y10.187
X12.016 Y10.175
X12.12 Y10.121 Z5.653
X12.122 Y10.12
X12.125 Y10.119
X12.163 Y10.106 Z5.652
X12.257 Y10.074 Z5.648
X12.26 Y10.073
X12.28 Y10.069
X12.32 Y10.062 Z5.646
X12.402 Y10.047 Z5.643
X12.42
X12.441 Y10.046 Z5.642
X12.548 Y10.043 Z5.638
X12.55 Y10.044
X12.563 Y10.045
X12.644 Y10.055 Z5.635
X12.692 Y10.061 Z5.633
X12.694 Y10.062
X12.724 Y10.07 Z5.632
X12.831 Y10.101 Z5.628
X12.834 Y10.102
X12.841 Y10.105
X12.878 Y10.122 Z5.626
X12.963 Y10.162 Z5.623
X12.965 Y10.163
X12.987 Y10.177 Z5.622
X13.021 Y10.199 Z5.621
X13.085 Y10.241 Z5.618
X13.087 Y10.243
X13.089 Y10.245
X13.149 Y10.299 Z5.615
X13.193 Y10.338 Z5.613
X13.194 Y10.34
X13.207 Y10.356 Z5.612
X13.259 Y10.419 Z5.609
X13.285 Y10.451 Z5.608
X13.286 Y10.453
X13.295 Y10.468 Z5.607
X13.306 Y10.486 Z5.606
X13.359 Y10.576 Z5.603
X13.36 Y10.578
X13.366 Y10.592 Z5.602
X13.381 Y10.63 Z5.601
X13.413 Y10.71 Z5.598
X13.414 Y10.713
X13.421 Y10.745 Z5.596
X13.444 Y10.844 Z5.593
X13.446 Y10.852
X13.447 Y10.854
X13.448 Y10.864 Z5.592
X13.454 Y10.946 Z5.589
X13.46 Y11.027 Z5.587
X13.468 Y11.108 Z5.584
X13.476 Y11.147 Z5.583
X13.486 Y11.187 Z5.581
X13.498 Y11.225 Z5.58
X13.512 Y11.263 Z5.579
X13.529 Y11.3 Z5.577
X13.547 Y11.336 Z5.576
X13.568 Y11.371 Z5.575
X13.59 Y11.404 Z5.573
X13.615 Y11.436 Z5.572
X13.641 Y11.466 Z5.571
X13.669 Y11.495 Z5.57
X13.699 Y11.522 Z5.568
X13.73 Y11.547 Z5.567
X13.762 Y11.571 Z5.566
X13.796 Y11.592 Z5.565
X13.831 Y11.612 Z5.563
X13.867 Y11.629 Z5.562
X13.885 Y11.637 Z5.561
X13.895 Y11.641
X13.899 Y11.643
X13.904 Y11.645
X13.941 Y11.661 Z5.56
X13.978 Y11.674 Z5.559
X14.017 Y11.685 Z5.557
X14.056 Y11.694 Z5.556
X14.096 Y11.7 Z5.555
X14.137 Y11.704 Z5.554
X14.218 Y11.706 Z5.552
X14.301 Z5.549
X14.384 Y11.705 Z5.547
X14.394
X14.397 Y11.706
X14.4 Y11.708
X14.416 Y11.717 Z5.546
X14.419 Y11.719
X14.43 Y11.729 Z5.545
X14.432 Y11.732
X14.444 Y11.746
X14.445 Y11.749
X14.454 Y11.765 Z5.544
X14.456 Y11.768
X14.465 Y11.797 Z5.543
Y11.8
X14.467 Y11.821 Z5.542
X14.468 Y11.824
X14.465 Y11.848
Y11.851 Z5.541
X14.461 Y11.862
X14.458 Y11.873
X14.457 Y11.876
X14.446 Y11.896 Z5.54
X14.445 Y11.898
X14.43 Y11.916 Z5.539
X14.428 Y11.918
X14.409 Y11.934
X14.406 Y11.936 Z5.538
X14.391 Y11.944
X14.388 Y11.945
X14.365 Z5.537
X14.32 Y11.944 Z5.536
X14.239 Z5.534
X14.157 Z5.532
X14.076 Y11.95 Z5.53
X14.036 Y11.956
X14.026 Y11.958 Z5.529
X14.018 Y11.96
X14.016
X13.955 Z5.528
X13.914 Z5.527
X13.832 Z5.525
X13.669 Z5.522
X13.506 Z5.519
X13.343 Z5.516
X13.18 Z5.514
X13.017 Z5.511
X12.854 Z5.509
X12.691 Z5.507
X12.528 Z5.505
X12.355 Y11.947 Z5.504
X12.353 Y11.946
X12.325 Y11.94 Z5.503
X12.286 Y11.931
X12.214 Y11.914
X12.211 Y11.913
X12.207 Y11.911
X12.131 Y11.881 Z5.502
X12.079 Y11.86
X12.077 Y11.859
X12.057 Y11.848
X11.969 Y11.796 Z5.501
X11.954 Y11.787
X11.952 Y11.786
X11.92 Y11.76
X11.841 Y11.695 Z5.5
X11.839 Y11.694
X11.827 Y11.68
X11.8 Y11.65
X11.744 Y11.588
X11.742 Y11.586
X11.722 Y11.556
X11.68 Y11.491
X11.664 Y11.468
X11.662 Y11.464
X11.66 Y11.459
X11.618 Y11.368
X11.602 Y11.334
X11.601 Y11.331
X11.592 Y11.299
X11.562 Y11.195
Y11.193
X11.561 Y11.185
X11.549 Y11.093
X11.543 Y11.05
Y11.048
X11.544 Y11.001
X11.547 Y10.904
Y10.902
X11.55 Y10.886
X11.554 Y10.863
X11.573 Y10.76
X11.584 Y10.726
X11.619 Y10.623
X11.621 Y10.62
X11.637 Y10.588
X11.686 Y10.495
X11.687 Y10.493
X11.701 Y10.474
X11.718 Y10.451
X11.772 Y10.377
X11.775 Y10.374
X11.79 Y10.359
X11.875 Y10.274
X11.877 Y10.272
X11.884 Y10.267
X11.963 Y10.21
X11.992 Y10.188
X11.994 Y10.187
X12.015 Y10.176
X12.055 Y10.155
X12.12 Y10.121
X12.122 Y10.12
X12.148 Y10.111
X12.258 Y10.073
X12.259
X12.287 Y10.068
X12.333 Y10.059
X12.401 Y10.047
X12.403
X12.426 Y10.046
X12.518 Y10.044
X12.547 Y10.043
X12.549
X12.565 Y10.045
X12.611 Y10.051
X12.692 Y10.062
X12.704 Y10.065
X12.77 Y10.084
X12.831 Y10.101
X12.832 Y10.102
X12.843 Y10.106
X12.889 Y10.127
X12.964 Y10.162
X12.985 Y10.176
X13.084 Y10.241
X13.087 Y10.243
X13.094 Y10.249
X13.114 Y10.267
X13.193 Y10.338
X13.194 Y10.34
X13.21 Y10.359
X13.259 Y10.42
X13.285 Y10.451
X13.286 Y10.452
X13.299 Y10.474
X13.312 Y10.497
X13.358 Y10.575
X13.36 Y10.578
X13.369 Y10.599
X13.382 Y10.634
X13.413 Y10.712
X13.414 Y10.713
X13.417 Y10.726
X13.438 Y10.818
X13.447 Y10.853
Y10.855
X13.449 Y10.877
X13.451 Y10.909
X13.458 Y11.001
X13.464 Y11.093
X13.471 Y11.139
X13.481 Y11.185
X13.494 Y11.23
X13.511 Y11.276
X13.523 Y11.305
X13.537 Y11.334
X13.556 Y11.368
X13.586 Y11.414
X13.621 Y11.46
X13.63 Y11.47
X13.65 Y11.492
X13.672 Y11.514
X13.715 Y11.551
X13.723 Y11.558
X13.769 Y11.591
X13.815 Y11.619
X13.862 Y11.643
X13.908 Y11.662
X13.954 Y11.678
X14 Y11.69
X14.047 Y11.698
X14.093 Y11.704
X14.186 Y11.706
X14.364 Y11.705
X14.365 Y11.706
X14.368 Y11.707
X14.37 Y11.708
X14.388 Y11.719
X14.39 Y11.721
X14.4 Y11.729
X14.402 Y11.731
X14.415 Y11.746
X14.416 Y11.748
X14.426 Y11.766
X14.427 Y11.768
X14.436 Y11.796
X14.437 Y11.798
X14.44 Y11.822
Y11.824
X14.438 Y11.848
Y11.85
X14.431 Y11.874
Y11.875
X14.42 Y11.897
X14.419 Y11.898
X14.404 Y11.917
X14.403 Y11.918
X14.385 Y11.933
X14.383 Y11.935
X14.365 Y11.944
X14.364 Y11.945
X14.186 Y11.944
X14.139
X14.093 Y11.946
X14.047 Y11.951
X14 Y11.96
X13.999
X13.998
X12.611
X12.518 Y11.959
X12.356 Y11.947
X12.355
X12.214 Y11.914
X12.213
X12.148 Y11.888
X12.078 Y11.86
X12.077 Y11.859
X12.055 Y11.847
X11.953 Y11.787
X11.951 Y11.785
X11.926 Y11.765
X11.841 Y11.695
X11.84 Y11.694
X11.832 Y11.685
X11.777 Y11.625
X11.744 Y11.588
X11.742 Y11.586
X11.731 Y11.57
X11.719 Y11.551
X11.664 Y11.467
X11.662 Y11.465
X11.66 Y11.459
X11.626 Y11.385
X11.602 Y11.334
X11.601 Y11.332
X11.595 Y11.31
X11.567 Y11.212
X11.562 Y11.195
Y11.192
X11.559 Y11.172
X11.556 Y11.152 Z5.499
X11.543 Y11.051
Y11.048
X11.544 Y11.03
X11.545 Y10.989
X11.547 Y10.905 Z5.498
Y10.903
X11.553 Y10.868
X11.56 Y10.827
X11.572 Y10.762 Z5.497
X11.573 Y10.76
X11.577 Y10.748
X11.603 Y10.67
X11.619 Y10.625 Z5.496
X11.62 Y10.622
X11.634 Y10.595
X11.686 Y10.496 Z5.495
X11.687 Y10.493
X11.692 Y10.487
X11.716 Y10.454
X11.771 Y10.378 Z5.494
X11.773 Y10.376
X11.791 Y10.358 Z5.493
X11.82 Y10.329
X11.874 Y10.275 Z5.492
X11.876 Y10.273
X11.878 Y10.272
X11.943 Y10.224 Z5.491
X11.993 Y10.187 Z5.49
X12.011 Y10.178
X12.083 Y10.14 Z5.489
X12.122 Y10.12 Z5.488
X12.124 Y10.119
X12.138 Y10.114
X12.158 Y10.107
X12.259 Y10.073 Z5.486
X12.262 Y10.072
X12.274 Y10.07
X12.314 Y10.063 Z5.485
X12.402 Y10.047 Z5.484
X12.405 Z5.483
X12.435 Y10.046
X12.517 Y10.044 Z5.482
X12.547 Y10.043 Z5.481
X12.55 Y10.044
X12.558
X12.639 Y10.055 Z5.479
X12.692 Y10.061 Z5.478
X12.694 Y10.062
X12.719 Y10.069
X12.827 Y10.1 Z5.476
X12.831 Y10.101 Z5.475
X12.834 Y10.102
X12.836 Y10.103
X12.873 Y10.12
X12.964 Y10.162 Z5.473
X12.966 Y10.163 Z5.472
X12.983 Y10.174
X13.017 Y10.197 Z5.471
X13.085 Y10.242 Z5.469
X13.087 Y10.243
X13.1 Y10.255
X13.115 Y10.269 Z5.468
X13.176 Y10.323 Z5.467
X13.193 Y10.339 Z5.466
X13.195 Y10.341
X13.204 Y10.353
X13.256 Y10.416 Z5.464
X13.285 Y10.451 Z5.463
X13.286 Y10.453
X13.303 Y10.482 Z5.462
X13.359 Y10.576 Z5.459
X13.36 Y10.579
X13.364 Y10.588
X13.379 Y10.626 Z5.458
X13.413 Y10.711 Z5.455
X13.414 Y10.714
X13.42 Y10.741
X13.43 Y10.781 Z5.453
X13.446 Y10.853 Z5.451
X13.447 Y10.855
Y10.86
X13.454 Y10.942 Z5.449
X13.466 Y11.104 Z5.444
X13.472 Y11.145 Z5.443
X13.481 Y11.184 Z5.442
X13.492 Y11.224 Z5.441
X13.505 Y11.262 Z5.44
X13.521 Y11.3 Z5.439
X13.539 Y11.336 Z5.437
X13.559 Y11.372 Z5.436
X13.581 Y11.406 Z5.435
X13.605 Y11.439 Z5.434
X13.63 Y11.47 Z5.432
X13.658 Y11.5 Z5.431
X13.687 Y11.528 Z5.43
X13.718 Y11.554 Z5.429
X13.751 Y11.579 Z5.427
X13.785 Y11.601 Z5.426
X13.82 Y11.622 Z5.425
X13.856 Y11.64 Z5.423
X13.893 Y11.656 Z5.422
X13.931 Y11.67 Z5.421
X13.97 Y11.682 Z5.42
X14 Y11.69 Z5.419
X14.031 Y11.696 Z5.418
X14.061 Y11.7 Z5.417
X14.092 Y11.704 Z5.416
X14.154 Y11.706 Z5.414
X14.216 Z5.412
X14.306 Z5.411
X14.308
X14.311 Y11.708
X14.327 Y11.718 Z5.41
X14.329 Y11.719
X14.342 Y11.73
X14.344 Y11.732
X14.355 Y11.746
X14.357 Y11.749
X14.366 Y11.765
X14.367 Y11.767
X14.377 Y11.797 Z5.409
Y11.8
X14.38 Y11.821
Y11.824
X14.378 Y11.847 Z5.408
Y11.85
X14.371 Y11.872
X14.37 Y11.875
X14.359 Y11.896
X14.358 Y11.898
X14.343 Y11.917 Z5.407
X14.34 Y11.919
X14.324 Y11.932
X14.321 Y11.935
X14.307 Y11.943
X14.303 Y11.944 Z5.406
X14.286
X14.222 Z5.405
X14.098 Z5.403
X14.054 Z5.401
X14.01 Y11.947 Z5.4
X13.966 Y11.953 Z5.398
X13.944 Y11.957 Z5.397
X13.933 Y11.959
X13.93 Y11.96
X13.928
X13.922 Z5.396
X13.841 Z5.394
X13.761 Z5.391
X13.679 Z5.388
X13.597 Z5.385
X13.515 Z5.382
X13.434 Z5.379
X13.352 Z5.377
X13.271 Z5.374
X13.189 Z5.371
X13.107 Z5.368
X13.026 Z5.365
X12.944 Z5.362
X12.863 Z5.36
X12.781 Z5.357
X12.536 Z5.348
X12.455 Y11.955 Z5.345
X12.356 Y11.947 Z5.342
X12.353
X12.214 Y11.914 Z5.337
X12.212 Y11.913
X12.176 Y11.899 Z5.335
X12.079 Y11.86 Z5.332
X12.077 Y11.859
X12.064 Y11.852 Z5.331
X11.954 Y11.787 Z5.327
X11.952 Y11.785
X11.926 Y11.764 Z5.325
X11.841 Y11.695 Z5.322
X11.839 Y11.693 Z5.321
X11.832 Y11.686
X11.805 Y11.656 Z5.32
X11.743 Y11.588 Z5.316
X11.742 Y11.585
X11.726 Y11.562 Z5.315
X11.663 Y11.466 Z5.311
X11.662 Y11.464
X11.66 Y11.459
X11.626 Y11.385 Z5.308
X11.602 Y11.334 Z5.306
X11.601 Y11.332
X11.595 Y11.31 Z5.305
X11.562 Y11.195 Z5.301
Y11.192
X11.556 Y11.152 Z5.3
X11.543 Y11.051 Z5.296
Y11.048
X11.544 Y11.03
X11.545 Y10.989 Z5.294
X11.547 Y10.905 Z5.291
Y10.903
X11.553 Y10.868 Z5.29
X11.572 Y10.762 Z5.286
X11.573 Y10.76
X11.577 Y10.748
X11.603 Y10.67 Z5.283
X11.619 Y10.625 Z5.281
X11.62 Y10.622
X11.634 Y10.595 Z5.28
X11.686 Y10.496 Z5.276
X11.687 Y10.493
X11.692 Y10.487
X11.716 Y10.454 Z5.274
X11.771 Y10.378 Z5.271
X11.773 Y10.376
X11.791 Y10.358 Z5.27
X11.82 Y10.329 Z5.269
X11.874 Y10.275 Z5.266
X11.876 Y10.273
X11.878 Y10.272
X11.943 Y10.224 Z5.263
X11.991 Y10.189 Z5.261
X11.993 Y10.187
X12.011 Y10.178 Z5.26
X12.083 Y10.14 Z5.257
X12.122 Y10.12 Z5.256
X12.158 Y10.107 Z5.254
X12.259 Y10.073 Z5.251
X12.264 Y10.072 Z5.25
X12.274 Y10.07
X12.314 Y10.063 Z5.249
X12.402 Y10.047 Z5.245
X12.405
X12.435 Y10.046 Z5.244
X12.476 Y10.045 Z5.243
X12.547 Y10.043 Z5.24
X12.55 Y10.044
X12.558
X12.639 Y10.055 Z5.237
X12.692 Y10.061 Z5.235
X12.694 Y10.062
X12.719 Y10.069 Z5.234
X12.817 Y10.097 Z5.231
X12.831 Y10.101 Z5.23
X12.834 Y10.102
X12.836 Y10.103
X12.873 Y10.12 Z5.229
X12.964 Y10.162 Z5.225
X12.966 Y10.163
X12.983 Y10.174 Z5.224
X13.017 Y10.197 Z5.223
X13.085 Y10.242 Z5.22
X13.087 Y10.243
X13.115 Y10.269 Z5.219
X13.193 Y10.339 Z5.215
X13.195 Y10.341
X13.204 Y10.353 Z5.214
X13.256 Y10.416 Z5.212
X13.285 Y10.451 Z5.21
X13.286 Y10.453
X13.303 Y10.482 Z5.209
X13.359 Y10.576 Z5.205
X13.36 Y10.579
X13.364 Y10.588
X13.379 Y10.626 Z5.203
X13.413 Y10.711 Z5.2
X13.414 Y10.714
X13.42 Y10.741 Z5.199
X13.43 Y10.781 Z5.197
X13.446 Y10.853 Z5.195
X13.447 Y10.855
Y10.86
X13.454 Y10.942 Z5.192
X13.46 Y11.023 Z5.189
X13.466 Y11.104 Z5.186
X13.472 Y11.145 Z5.185
X13.481 Y11.184 Z5.183
X13.492 Y11.224 Z5.182
X13.505 Y11.262 Z5.18
X13.521 Y11.3 Z5.179
X13.539 Y11.336 Z5.178
X13.559 Y11.372 Z5.176
X13.581 Y11.406 Z5.175
X13.605 Y11.439 Z5.173
X13.63 Y11.47 Z5.172
X13.658 Y11.5 Z5.17
X13.687 Y11.528 Z5.169
X13.718 Y11.554 Z5.168
X13.751 Y11.579 Z5.166
X13.785 Y11.601 Z5.165
X13.82 Y11.622 Z5.163
X13.856 Y11.64 Z5.162
X13.893 Y11.656 Z5.161
X13.931 Y11.67 Z5.159
X13.97 Y11.682 Z5.158
X14.02 Y11.694 Z5.156
X14.072 Y11.702 Z5.154
X14.124 Y11.706 Z5.152
X14.131
X14.135
X14.138
X14.141 Y11.708
X14.159 Y11.719 Z5.151
X14.161 Y11.721
X14.171 Y11.73
X14.174 Y11.733 Z5.15
X14.185 Y11.747
X14.187 Y11.751
X14.196 Y11.766 Z5.149
X14.198 Y11.77
X14.205 Y11.795 Z5.148
X14.206 Y11.799
X14.209 Y11.821
Y11.826
X14.207 Y11.847 Z5.147
X14.206 Y11.852
X14.199 Y11.873 Z5.146
X14.197 Y11.877
X14.187 Y11.897 Z5.145
X14.184 Y11.901
X14.172 Y11.915
X14.169 Y11.918
X14.152 Y11.933 Z5.144
X14.148 Y11.935
X14.135 Y11.942
X14.131 Y11.944
X14.117 Z5.143
X14.098
X14.01 Z5.14
X13.922 Y11.943 Z5.137
X13.881 Y11.944 Z5.135
X13.841 Y11.946 Z5.134
X13.8 Y11.951 Z5.132
X13.76 Y11.958 Z5.131
X13.753 Y11.959
X13.75 Y11.96 Z5.13
X13.748
X13.597 Z5.125
X13.515 Z5.122
X13.434 Z5.119
X13.352 Z5.117
X13.271 Z5.114
X13.189 Z5.111
X13.107 Z5.108
X13.026 Z5.105
X12.944 Z5.102
X12.863 Z5.099
X12.618 Z5.091
X12.536 Z5.088
X12.455 Y11.955 Z5.085
X12.356 Y11.947 Z5.082
X12.353
X12.294 Y11.933 Z5.08
X12.214 Y11.914 Z5.077
X12.212 Y11.913
X12.176 Y11.899 Z5.076
X12.1 Y11.869 Z5.073
X12.079 Y11.86
X12.077 Y11.859
X12.064 Y11.852 Z5.072
X11.993 Y11.81 Z5.07
X11.954 Y11.787 Z5.068
X11.952 Y11.785
X11.926 Y11.764 Z5.067
X11.841 Y11.695 Z5.064
X11.839 Y11.693
X11.805 Y11.656 Z5.062
X11.743 Y11.588 Z5.059
X11.742 Y11.585
X11.726 Y11.562
X11.682 Y11.494 Z5.056
X11.663 Y11.466 Z5.055
X11.662 Y11.464
X11.66 Y11.459
X11.626 Y11.385 Z5.053
X11.602 Y11.334 Z5.051
X11.601 Y11.332
X11.595 Y11.31
X11.567 Y11.212 Z5.048
X11.562 Y11.195 Z5.047
Y11.192
X11.556 Y11.152 Z5.046
X11.543 Y11.051 Z5.043
Y11.048
X11.544 Y11.03
X11.545 Y10.989 Z5.042
X11.547 Y10.905 Z5.04
Y10.903
X11.553 Y10.868 Z5.039
X11.56 Y10.827 Z5.038
X11.572 Y10.762 Z5.036
X11.573 Y10.76
X11.577 Y10.748
X11.603 Y10.67 Z5.034
X11.619 Y10.625 Z5.033
X11.62 Y10.622
X11.634 Y10.595 Z5.032
X11.681 Y10.505 Z5.03
X11.686 Y10.496
X11.687 Y10.493
X11.716 Y10.454 Z5.029
X11.771 Y10.378 Z5.027
X11.773 Y10.376 Z5.026
X11.791 Y10.358
X11.82 Y10.329 Z5.025
X11.874 Y10.275 Z5.024
X11.876 Y10.273
X11.878 Y10.272 Z5.023
X11.943 Y10.224 Z5.022
X11.991 Y10.189 Z5.021
X11.993 Y10.187
X12.011 Y10.178 Z5.02
X12.083 Y10.14 Z5.019
X12.119 Y10.121 Z5.018
X12.122 Y10.12
X12.158 Y10.107 Z5.017
X12.257 Y10.074 Z5.016
X12.259 Y10.073
X12.274 Y10.07 Z5.015
X12.314 Y10.063
X12.402 Y10.047 Z5.013
X12.435 Y10.046
X12.476 Y10.045 Z5.012
X12.547 Y10.043 Z5.011
X12.558 Y10.045
X12.639 Y10.055 Z5.01
X12.692 Y10.061 Z5.009
X12.694 Y10.062
X12.719 Y10.069
X12.797 Y10.091 Z5.008
X12.831 Y10.101 Z5.007
X12.834 Y10.102
X12.873 Y10.12
X12.964 Y10.162 Z5.006
X12.966 Y10.163
X12.983 Y10.174
X13.017 Y10.197 Z5.005
X13.085 Y10.242 Z5.004
X13.087 Y10.243
X13.115 Y10.269
X13.146 Y10.296
X13.193 Y10.339 Z5.003
X13.195 Y10.341
X13.204 Y10.353
X13.256 Y10.416
X13.285 Y10.451 Z5.002
X13.286 Y10.453
X13.303 Y10.482
X13.345 Y10.552
X13.359 Y10.576 Z5.001
X13.36 Y10.579
X13.364 Y10.588
X13.379 Y10.626
X13.413 Y10.711
X13.414 Y10.714
X13.42 Y10.741
X13.43 Y10.781 Z5
X13.446 Y10.853
X13.447 Y10.855
Y10.86
X13.454 Y10.942
X13.463 Y11.087
X13.464 Y11.093
X13.47 Y11.139
X13.48 Y11.185
X13.493 Y11.23
X13.509 Y11.276
X13.522 Y11.307
X13.537 Y11.338
X13.554 Y11.368
X13.583 Y11.414
X13.618 Y11.46
X13.63 Y11.474
X13.67 Y11.516
X13.71 Y11.551
X13.723 Y11.562
X13.769 Y11.595
X13.815 Y11.623
X13.854 Y11.643
X13.908 Y11.666
X13.954 Y11.682
X14 Y11.694
X14.01 Y11.696
X14.018 Y11.697
X14.02 Y11.698
X14.04 Y11.706
X14.043 Y11.707
X14.063 Y11.719
X14.065 Y11.721
X14.075 Y11.729
X14.077 Y11.731
X14.091 Y11.747
X14.092 Y11.749
X14.101 Y11.766
X14.102 Y11.768
X14.112 Y11.796
Y11.798
X14.115 Y11.822
Y11.824
X14.114 Y11.847
X14.113 Y11.849
X14.107 Y11.872
X14.106 Y11.874
X14.095 Y11.897
X14.093 Y11.899
X14.08 Y11.916
X14.077 Y11.918
X14.061 Y11.932
X14.058 Y11.934
X14.041 Y11.944
X14.039
X13.908 Y11.943
X13.815
X13.769 Y11.945
X13.723 Y11.95
X13.676 Y11.958
X13.67 Y11.959
X13.666 Y11.96
X13.665
X12.611
X12.518 Y11.959
X12.356 Y11.947
X12.355
X12.214 Y11.914
X12.213
X12.19 Y11.905
X12.078 Y11.86
X12.077 Y11.859
X12.055 Y11.847
X11.953 Y11.787
X11.951 Y11.785
X11.926 Y11.765
X11.841 Y11.695
X11.84 Y11.694
X11.794 Y11.643
X11.744 Y11.588
X11.742 Y11.586
X11.719 Y11.551
X11.664 Y11.467
X11.662 Y11.465
X11.618 Y11.368
X11.602 Y11.333
X11.601 Y11.331
X11.592 Y11.299
X11.585 Y11.276
X11.562 Y11.195
Y11.193
X11.561 Y11.185
X11.549 Y11.093
X11.543 Y11.05
Y11.048
X11.544 Y11.001
X11.547 Y10.904
X11.554 Y10.863
X11.572 Y10.762
X11.573 Y10.76
X11.584 Y10.726
X11.592 Y10.703
X11.619 Y10.624
Y10.623
X11.637 Y10.588
X11.661 Y10.542
X11.686 Y10.495
X11.687 Y10.493
X11.701 Y10.474
X11.718 Y10.451
X11.772 Y10.377
X11.775 Y10.374
X11.79 Y10.359
X11.875 Y10.274
X11.877 Y10.273
X11.884 Y10.267
X11.963 Y10.21
X11.992 Y10.188
X11.994 Y10.187
X12.015 Y10.176
X12.055 Y10.155
X12.12 Y10.121
X12.122 Y10.12
X12.148 Y10.111
X12.227 Y10.084
X12.258 Y10.073
X12.259
X12.287 Y10.068
X12.333 Y10.059
X12.401 Y10.047
X12.403
X12.426 Y10.046
X12.518 Y10.044
X12.547 Y10.043
X12.549
X12.565 Y10.045
X12.611 Y10.051
X12.691 Y10.061
X12.692 Y10.062
X12.704 Y10.065
X12.77 Y10.084
X12.831 Y10.101
X12.832 Y10.102
X12.843 Y10.106
X12.889 Y10.127
X12.963 Y10.161
X12.964 Y10.162
X12.985 Y10.176
X13.074 Y10.234
X13.084 Y10.241
X13.087 Y10.243
X13.114 Y10.267
X13.167 Y10.315
X13.193 Y10.338
X13.194 Y10.34
X13.21 Y10.359
X13.259 Y10.42
X13.285 Y10.451
X13.286 Y10.452
X13.299 Y10.474
X13.312 Y10.497
X13.358 Y10.575
X13.36 Y10.578
X13.368 Y10.599
X13.382 Y10.634
X13.413 Y10.712
X13.414 Y10.713
X13.417 Y10.726
X13.438 Y10.818
X13.447 Y10.853
Y10.855
X13.449 Y10.877
X13.451 Y10.909
X13.458 Y11.001
X13.463 Y11.087
X13.468 Y11.126
X13.475 Y11.166
X13.485 Y11.204
X13.497 Y11.243
X13.51 Y11.279
X13.525 Y11.314
X13.543 Y11.348
X13.562 Y11.382
X13.582 Y11.412 Z4.999
X13.603 Y11.442
X13.626 Y11.47
X13.65 Y11.497
X13.675 Y11.521
X13.7 Y11.544
X13.726 Y11.566 Z4.998
X13.754 Y11.586
X13.786 Y11.607
X13.819 Y11.626
X13.853 Y11.644
X13.888 Y11.659 Z4.997
X13.924 Y11.673
X13.96 Y11.684
X13.997 Y11.694 Z4.996
X14.007 Y11.696
X14.011 Y11.697
X14.016 Y11.698
X14.036 Y11.706
X14.039 Y11.708
X14.057 Y11.719
X14.059 Y11.72
X14.071 Y11.731
X14.072 Y11.733
X14.084 Y11.747
X14.086 Y11.749
X14.096 Y11.767 Z4.995
X14.097 Y11.77
X14.105 Y11.795
X14.106 Y11.797
X14.109 Y11.821
Y11.824
X14.107 Y11.847
X14.106 Y11.85
X14.1 Y11.873
X14.098 Y11.876
X14.088 Y11.895 Z4.994
X14.087 Y11.898
X14.072 Y11.917
X14.07 Y11.919
X14.052 Y11.933
X14.05 Y11.935
X14.035 Y11.943
X14.033 Y11.944
X14.03
X13.985 Z4.993
X13.864 Y11.943 Z4.992
X13.803 Z4.991
X13.772 Y11.944 Z4.99
X13.742 Y11.946
X13.699 Y11.951 Z4.989
X13.657 Y11.959
X13.655 Y11.96
X13.652 Z4.988
X13.614
X13.572 Z4.987
X13.411 Z4.985
X13.249 Z4.982
X13.087 Z4.979
X12.925 Z4.976
X12.763 Z4.973
X12.601 Z4.969
X12.439 Y11.953 Z4.966
X12.356 Y11.947 Z4.964
X12.354 Z4.963
X12.319 Y11.939
X12.24 Y11.92 Z4.961
X12.215 Y11.915 Z4.96
X12.213 Y11.914
X12.201 Y11.909
X12.126 Y11.879 Z4.958
X12.079 Y11.86 Z4.956
X12.077 Y11.859
X12.053 Y11.845
X11.955 Y11.787 Z4.953
X11.952 Y11.786 Z4.952
X11.917 Y11.757 Z4.951
X11.841 Y11.695 Z4.949
X11.839 Y11.693 Z4.948
X11.825 Y11.678
X11.798 Y11.648 Z4.947
X11.744 Y11.588 Z4.944
X11.742 Y11.586
X11.721 Y11.554 Z4.943
X11.677 Y11.487 Z4.941
X11.663 Y11.466 Z4.94
X11.662 Y11.463
X11.656 Y11.452
X11.623 Y11.378 Z4.937
X11.603 Y11.335 Z4.936
X11.602 Y11.332
X11.593 Y11.303 Z4.935
X11.562 Y11.194 Z4.931
X11.561 Y11.191
X11.556 Y11.146 Z4.93
X11.543 Y11.051 Z4.927
Y11.048
X11.544 Y11.025 Z4.926
X11.545 Y10.985 Z4.925
X11.547 Y10.904 Z4.922
Y10.901
X11.554 Y10.864 Z4.921
X11.568 Y10.784 Z4.918
X11.572 Y10.762
X11.573 Y10.759 Z4.917
X11.578 Y10.745
X11.604 Y10.668 Z4.914
X11.619 Y10.625 Z4.913
Y10.623
X11.635 Y10.593 Z4.912
X11.686 Y10.495 Z4.908
X11.688 Y10.493
X11.716 Y10.454 Z4.906
X11.771 Y10.378 Z4.903
X11.773 Y10.376
X11.791 Y10.358 Z4.902
X11.819 Y10.33 Z4.9
X11.875 Y10.274 Z4.898
X11.877 Y10.273 Z4.897
X11.942 Y10.225 Z4.895
X11.991 Y10.189 Z4.893
X11.993 Y10.187 Z4.892
X12.009 Y10.179
X12.08 Y10.142 Z4.889
X12.121 Y10.12 Z4.887
X12.123 Y10.119
X12.154 Y10.109 Z4.886
X12.257 Y10.074 Z4.882
X12.26 Y10.073
X12.309 Y10.064 Z4.881
X12.402 Y10.047 Z4.877
X12.404
X12.429 Y10.046 Z4.876
X12.47 Y10.045 Z4.875
X12.546 Y10.043 Z4.872
X12.548
X12.551 Y10.044
X12.631 Y10.054 Z4.869
X12.691 Y10.061 Z4.867
X12.694 Y10.062
X12.711 Y10.067 Z4.866
X12.789 Y10.089 Z4.864
X12.83 Y10.101 Z4.862
X12.833 Y10.102
X12.865 Y10.116 Z4.861
X12.957 Y10.159 Z4.857
X12.964 Y10.162
X12.974 Y10.169
X13.008 Y10.191 Z4.855
X13.084 Y10.241 Z4.852
X13.086 Y10.243
X13.107 Y10.261 Z4.851
X13.137 Y10.288 Z4.85
X13.192 Y10.337 Z4.847
X13.193 Y10.339
X13.197 Y10.343
X13.248 Y10.406 Z4.844
X13.285 Y10.451 Z4.842
X13.286 Y10.453
X13.297 Y10.47 Z4.841
X13.338 Y10.54 Z4.838
X13.358 Y10.575 Z4.837
X13.359 Y10.577
X13.374 Y10.612 Z4.835
X13.412 Y10.709 Z4.832
X13.413 Y10.711
X13.414 Y10.713
X13.417 Y10.726 Z4.831
X13.426 Y10.765 Z4.83
X13.446 Y10.851 Z4.827
X13.447 Y10.854
X13.449 Y10.884 Z4.826
X13.452 Y10.925 Z4.824
X13.458 Y11.005 Z4.821
X13.46 Y11.086 Z4.818
X13.463 Y11.126 Z4.817
X13.468 Y11.166 Z4.816
X13.475 Y11.205 Z4.814
X13.485 Y11.244 Z4.813
X13.496 Y11.281 Z4.812
X13.51 Y11.318 Z4.81
X13.526 Y11.353 Z4.809
X13.543 Y11.388 Z4.807
X13.562 Y11.421 Z4.806
X13.582 Y11.452 Z4.805
X13.604 Y11.482 Z4.804
X13.628 Y11.511 Z4.802
X13.652 Y11.538 Z4.801
X13.677 Y11.563 Z4.8
X13.704 Y11.588 Z4.798
X13.732 Y11.61 Z4.797
X13.782 Y11.645 Z4.795
X13.808 Y11.661 Z4.794
X13.835 Y11.676 Z4.793
X13.89 Y11.702 Z4.791
X13.897 Y11.705
X13.901 Y11.706 Z4.79
X13.904 Y11.708
X13.921 Y11.718
X13.924 Y11.721
X13.935 Y11.731 Z4.789
X13.94 Y11.737
X13.948 Y11.747 Z4.788
X13.95 Y11.75
X13.959 Y11.767
X13.961 Y11.77
X13.969 Y11.795 Z4.787
Y11.798
X13.972 Y11.82
Y11.824 Z4.786
X13.97 Y11.846
Y11.849
X13.963 Y11.871 Z4.785
X13.962 Y11.874
X13.951 Y11.895
X13.95 Y11.897
X13.935 Y11.915 Z4.784
X13.933 Y11.917
X13.926 Y11.924
X13.914 Y11.933 Z4.783
X13.911 Y11.935
X13.897 Y11.943
X13.894
X13.882 Z4.782
X13.833 Z4.781
X13.739 Z4.779
X13.655 Z4.776
X13.613 Y11.945 Z4.774
X13.572 Y11.949 Z4.773
X13.532 Y11.955 Z4.771
X13.512 Y11.959
X13.509 Y11.96
X13.507
X13.492 Z4.77
X13.249 Z4.762
X12.601 Z4.739
X12.52 Z4.736
X12.356 Y11.947 Z4.73
X12.354
X12.28 Y11.929 Z4.728
X12.215 Y11.915 Z4.725
X12.213 Y11.914
X12.201 Y11.909
X12.079 Y11.86 Z4.72
X12.077 Y11.859
X12.053 Y11.845 Z4.719
X11.955 Y11.787 Z4.715
X11.952 Y11.786
X11.917 Y11.757 Z4.714
X11.841 Y11.695 Z4.71
X11.839 Y11.693
X11.825 Y11.678 Z4.709
X11.798 Y11.648 Z4.708
X11.744 Y11.588 Z4.705
X11.742 Y11.586
X11.721 Y11.554 Z4.704
X11.664 Y11.468 Z4.7
X11.663 Y11.466
X11.662 Y11.463
X11.656 Y11.452 Z4.699
X11.623 Y11.378 Z4.697
X11.603 Y11.335 Z4.695
X11.602 Y11.332
X11.593 Y11.303 Z4.694
X11.562 Y11.194 Z4.69
X11.561 Y11.191
X11.556 Y11.146 Z4.688
X11.543 Y11.051 Z4.685
Y11.048
X11.544 Y11.025 Z4.684
X11.545 Y10.985 Z4.682
X11.547 Y10.904 Z4.68
X11.548 Y10.899 Z4.679
X11.554 Y10.864 Z4.678
X11.561 Y10.824 Z4.677
X11.572 Y10.762 Z4.675
X11.573 Y10.759
X11.578 Y10.745 Z4.674
X11.604 Y10.668 Z4.671
X11.619 Y10.625 Z4.67
Y10.623
X11.635 Y10.593 Z4.668
X11.685 Y10.497 Z4.665
X11.686 Y10.495
X11.688 Y10.493 Z4.664
X11.716 Y10.454 Z4.663
X11.771 Y10.378 Z4.659
X11.773 Y10.376
X11.791 Y10.358
X11.819 Y10.33 Z4.657
X11.875 Y10.274 Z4.654
X11.877 Y10.273
X11.942 Y10.225 Z4.651
X11.991 Y10.189 Z4.649
X11.993 Y10.187
X12.009 Y10.179
X12.08 Y10.142 Z4.646
X12.121 Y10.12 Z4.644
X12.123
X12.154 Y10.109 Z4.643
X12.25 Y10.076 Z4.639
X12.257 Y10.074
X12.26 Y10.073
X12.309 Y10.064 Z4.637
X12.402 Y10.047 Z4.634
X12.404
X12.429 Y10.046 Z4.633
X12.47 Y10.045 Z4.632
X12.546 Y10.043 Z4.629
X12.548
X12.551 Y10.044
X12.631 Y10.054 Z4.626
X12.691 Y10.061 Z4.624
X12.696 Y10.063
X12.711 Y10.067 Z4.623
X12.789 Y10.089 Z4.62
X12.83 Y10.101 Z4.619
X12.833 Y10.102
X12.865 Y10.116 Z4.618
X12.938 Y10.15 Z4.615
X12.961 Y10.161 Z4.614
X12.964 Y10.162
X13.008 Y10.191 Z4.612
X13.084 Y10.241 Z4.609
X13.086 Y10.243
X13.107 Y10.261 Z4.608
X13.137 Y10.288 Z4.606
X13.192 Y10.337 Z4.604
X13.193 Y10.339
X13.197 Y10.343 Z4.603
X13.248 Y10.406 Z4.601
X13.285 Y10.451 Z4.599
X13.286 Y10.453
X13.296 Y10.47 Z4.598
X13.338 Y10.54 Z4.595
X13.358 Y10.575 Z4.594
X13.359 Y10.577
X13.374 Y10.612 Z4.592
X13.404 Y10.687 Z4.589
X13.413 Y10.711
X13.414 Y10.713 Z4.588
X13.426 Y10.765 Z4.587
X13.446 Y10.851 Z4.584
X13.447 Y10.854
X13.449 Y10.884 Z4.583
X13.452 Y10.925 Z4.581
X13.459 Y11.018 Z4.578
Y11.021
Y11.026
X13.458 Y11.046 Z4.577
X13.456 Y11.086 Z4.576
X13.454 Y11.127 Z4.575
X13.455 Y11.167 Z4.573
X13.458 Y11.207 Z4.572
X13.464 Y11.247 Z4.571
X13.471 Y11.286 Z4.57
X13.481 Y11.325 Z4.568
X13.493 Y11.364 Z4.567
X13.507 Y11.401 Z4.566
X13.523 Y11.437 Z4.565
X13.541 Y11.473 Z4.564
X13.562 Y11.507 Z4.562
X13.584 Y11.54 Z4.561
X13.607 Y11.572 Z4.56
X13.633 Y11.602 Z4.559
X13.66 Y11.631 Z4.558
X13.689 Y11.658 Z4.557
X13.722 Y11.686 Z4.555
X13.757 Y11.712 Z4.554
X13.762 Y11.715
X13.764 Y11.716
X13.766 Y11.718
X13.781 Y11.731 Z4.553
X13.794 Y11.748 Z4.552
X13.796 Y11.751
X13.805 Y11.768
X13.806 Y11.77
X13.809 Y11.781 Z4.551
X13.814 Y11.795
X13.815 Y11.798
X13.817 Y11.819 Z4.55
Y11.822
X13.815 Y11.847 Z4.549
X13.814 Y11.85
X13.807 Y11.873 Z4.548
X13.806 Y11.875
X13.794 Y11.897 Z4.547
X13.779 Y11.916
X13.777 Y11.918 Z4.546
X13.758 Y11.933
X13.756 Y11.935
X13.742 Y11.942 Z4.545
X13.739 Y11.943
X13.697 Z4.544
X13.655 Z4.543
X13.572 Y11.942 Z4.541
X13.491 Z4.539
X13.45 Y11.945 Z4.538
X13.41 Y11.949 Z4.537
X13.37 Y11.956 Z4.536
X13.36 Y11.958
X13.353 Y11.959
X13.35 Y11.96 Z4.535
X13.345
X13.33
X13.249 Z4.533
X13.087 Z4.529
X12.925 Z4.526
X12.763 Z4.523
X12.601 Z4.52
X12.439 Y11.953 Z4.517
X12.356 Y11.947 Z4.515
X12.354
X12.319 Y11.939
X12.24 Y11.92 Z4.514
X12.215 Y11.915 Z4.513
X12.213 Y11.914
X12.201 Y11.909
X12.126 Y11.879 Z4.512
X12.079 Y11.86 Z4.511
X12.077 Y11.859
X12.053 Y11.845
X11.966 Y11.794 Z4.509
X11.955 Y11.787
X11.952 Y11.786
X11.917 Y11.757
X11.841 Y11.695 Z4.507
X11.839 Y11.693
X11.798 Y11.648
X11.744 Y11.588 Z4.506
X11.742 Y11.586
X11.721 Y11.554 Z4.505
X11.699 Y11.521
X11.663 Y11.466 Z4.504
X11.662 Y11.463
X11.656 Y11.452
X11.623 Y11.378
X11.603 Y11.335 Z4.503
X11.602 Y11.332
X11.593 Y11.303
X11.565 Y11.206 Z4.502
X11.562 Y11.194
X11.561 Y11.191
X11.556 Y11.146
X11.543 Y11.051 Z4.501
Y11.048
X11.544 Y11.025
X11.545 Y10.985
X11.547 Y10.906
Y10.904
X11.549 Y10.894
X11.554 Y10.864
X11.561 Y10.824 Z4.5
X11.572 Y10.762
X11.573 Y10.759
X11.578 Y10.745
X11.604 Y10.668
X11.619 Y10.624
X11.621 Y10.62
X11.626 Y10.61
X11.655 Y10.554
X11.661 Y10.542
X11.686 Y10.495
X11.687 Y10.493
X11.718 Y10.451
X11.772 Y10.377
X11.775 Y10.374
X11.79 Y10.359
X11.875 Y10.274
X11.877 Y10.273
X11.884 Y10.267
X11.963 Y10.21
X11.992 Y10.188
X11.994 Y10.187
X12.015 Y10.176
X12.055 Y10.155
X12.12 Y10.121
X12.122 Y10.12
X12.148 Y10.111
X12.227 Y10.084
X12.258 Y10.073
X12.259
X12.287 Y10.068
X12.333 Y10.059
X12.401 Y10.047
X12.403
X12.426 Y10.046
X12.518 Y10.044
X12.546 Y10.043
X12.547
X12.565 Y10.045
X12.611 Y10.051
X12.691 Y10.061
X12.692 Y10.062
X12.704 Y10.065
X12.77 Y10.084
X12.831 Y10.101
X12.832 Y10.102
X12.889 Y10.127
X12.963 Y10.161
X12.964 Y10.162
X12.985 Y10.176
X13.074 Y10.234
X13.084 Y10.241
X13.087 Y10.243
X13.114 Y10.267
X13.167 Y10.315
X13.192 Y10.338
X13.194 Y10.34
X13.21 Y10.359
X13.259 Y10.42
X13.285 Y10.451
X13.286 Y10.452
X13.312 Y10.497
X13.339 Y10.542
X13.358 Y10.575
X13.36 Y10.578
X13.368 Y10.599
X13.382 Y10.634
X13.413 Y10.71
Y10.712
X13.417 Y10.726
X13.438 Y10.818
X13.446 Y10.851
X13.447 Y10.853
X13.451 Y10.909
X13.459 Y11.017
Y11.018
Y11.024
X13.458 Y11.047
X13.455 Y11.086
X13.454 Y11.093
X13.452 Y11.139
X13.453 Y11.185
X13.456 Y11.23
X13.462 Y11.276
X13.472 Y11.322
X13.484 Y11.368
X13.501 Y11.414
X13.521 Y11.46
X13.537 Y11.492
X13.555 Y11.521
X13.574 Y11.551
X13.6 Y11.587
X13.63 Y11.622
X13.65 Y11.643
X13.723 Y11.709
X13.747 Y11.729
X13.749 Y11.731
X13.764 Y11.749
Y11.751
X13.774 Y11.768
X13.775 Y11.769
X13.784 Y11.795
Y11.796
X13.787 Y11.822
X13.785 Y11.848
Y11.85
X13.779 Y11.872
X13.778 Y11.874
X13.767 Y11.895
X13.766 Y11.897
X13.75 Y11.917
X13.749 Y11.918
X13.731 Y11.933
X13.729 Y11.934
X13.714 Y11.943
X13.712
X13.537 Y11.942
X13.445 Y11.944
X13.398 Y11.949
X13.352 Y11.956
X13.34 Y11.959
X13.335 Y11.96
X13.333
X12.611
X12.518 Y11.959
X12.356 Y11.947
X12.355
X12.214 Y11.914
X12.213
X12.148 Y11.888
X12.078 Y11.86
X12.077 Y11.859
X12.021 Y11.827
X11.953 Y11.787
X11.951 Y11.785
X11.926 Y11.765
X11.851 Y11.703
X11.841 Y11.695
X11.84 Y11.694
X11.794 Y11.643
X11.744 Y11.588
X11.742 Y11.586
X11.719 Y11.551
X11.664 Y11.467
X11.662 Y11.465
X11.618 Y11.368
X11.602 Y11.333
X11.601 Y11.331
X11.585 Y11.276
X11.562 Y11.195
Y11.193
X11.561 Y11.185
X11.549 Y11.093
X11.543 Y11.05
Y11.048
X11.544 Y11.001
X11.547 Y10.905
Y10.904
X11.554 Y10.863
X11.562 Y10.818
X11.572 Y10.762
X11.573 Y10.76
X11.584 Y10.726
X11.592 Y10.703
X11.619 Y10.624
X11.62 Y10.623
X11.637 Y10.588
X11.655 Y10.554
X11.686 Y10.495
X11.687 Y10.493
X11.695 Y10.483
X11.743 Y10.417
X11.772 Y10.377
X11.774 Y10.375
X11.796 Y10.354
X11.853 Y10.296 Z4.499
X11.875 Y10.274
X11.877 Y10.272
X11.916 Y10.244
X11.99 Y10.189
X11.992 Y10.188
X12.017 Y10.174
X12.054 Y10.155 Z4.498
X12.119 Y10.121
X12.122 Y10.12
X12.126 Y10.118
X12.204 Y10.092 Z4.497
X12.257 Y10.074
X12.26 Y10.073
X12.282 Y10.069
X12.363 Y10.054 Z4.496
X12.401 Y10.047
X12.403
X12.444 Y10.046 Z4.495
X12.544 Y10.043 Z4.494
X12.546
X12.549
X12.567 Y10.046
X12.607 Y10.051
X12.691 Y10.061 Z4.493
X12.694 Y10.062
X12.728 Y10.072 Z4.492
X12.767 Y10.083
X12.831 Y10.101 Z4.491
X12.845 Y10.108
X12.92 Y10.142 Z4.49
X12.962 Y10.161 Z4.489
X12.964 Y10.162
X12.992 Y10.18
X13.06 Y10.225 Z4.487
X13.084 Y10.241
X13.086 Y10.242
X13.124 Y10.276 Z4.486
X13.192 Y10.338 Z4.485
X13.194 Y10.34
X13.212 Y10.362 Z4.484
X13.238 Y10.393
X13.285 Y10.451 Z4.482
X13.286 Y10.453
X13.289 Y10.457
X13.33 Y10.528 Z4.481
X13.359 Y10.576 Z4.48
X13.36 Y10.578
X13.369 Y10.6 Z4.479
X13.399 Y10.676 Z4.478
X13.413 Y10.711 Z4.477
X13.414 Y10.714
X13.423 Y10.754 Z4.476
X13.445 Y10.848 Z4.474
X13.446 Y10.851
X13.447 Y10.853
X13.448 Y10.874
X13.452 Y10.915 Z4.473
X13.459 Y11.017 Z4.471
Y11.019 Z4.47
X13.455 Y11.078 Z4.469
X13.45 Y11.162 Z4.467
Y11.203 Z4.466
X13.453 Y11.245 Z4.465
X13.458 Y11.288 Z4.464
X13.466 Y11.33 Z4.463
X13.476 Y11.371 Z4.462
X13.489 Y11.412 Z4.461
X13.502 Y11.446 Z4.46
X13.516 Y11.478 Z4.459
X13.532 Y11.51
X13.549 Y11.541 Z4.458
X13.567 Y11.57 Z4.457
X13.587 Y11.597 Z4.456
X13.607 Y11.624 Z4.455
X13.629 Y11.65 Z4.454
X13.667 Y11.689 Z4.453
X13.707 Y11.725 Z4.451
X13.713 Y11.73
X13.715 Y11.733
X13.728 Y11.749
X13.73 Y11.752
X13.739 Y11.767 Z4.45
X13.74 Y11.771
X13.747 Y11.794
X13.748 Y11.798
X13.751 Y11.822 Z4.449
Y11.826
X13.749 Y11.845 Z4.448
X13.748 Y11.849
X13.742 Y11.872
X13.74 Y11.876
X13.729 Y11.897 Z4.447
X13.726 Y11.9
X13.714 Y11.915
X13.711 Y11.918
X13.693 Y11.933 Z4.446
X13.69 Y11.935
X13.676 Y11.943
X13.671
X13.664
X13.633 Z4.445
X13.571 Y11.942 Z4.444
X13.443 Y11.944 Z4.44
X13.379 Y11.951 Z4.438
X13.347 Y11.954
X13.315 Y11.959 Z4.437
X13.313 Y11.96
X13.31 Z4.436
X13.274 Z4.435
X13.233 Z4.434
X13.151 Z4.432
X13.069 Z4.429
X12.988 Z4.427
X12.906 Z4.424
X12.824 Z4.421
X12.742 Z4.419
X12.66 Z4.416
X12.578 Z4.413
X12.497 Y11.958 Z4.41
X12.359 Y11.947 Z4.406
X12.356 Z4.405
X12.354
X12.334 Y11.942
X12.214 Y11.914 Z4.4
X12.212 Y11.913
X12.176 Y11.899 Z4.399
X12.079 Y11.86 Z4.395
X12.076 Y11.859
X12.028 Y11.831 Z4.393
X11.953 Y11.786 Z4.39
X11.949 Y11.783
X11.925 Y11.764 Z4.389
X11.893 Y11.738 Z4.388
X11.842 Y11.696 Z4.385
X11.84 Y11.694
X11.831 Y11.685
X11.776 Y11.624 Z4.382
X11.744 Y11.588 Z4.38
X11.742 Y11.586
X11.725 Y11.56 Z4.379
X11.669 Y11.475 Z4.375
X11.663 Y11.466
X11.662 Y11.464
X11.642 Y11.42 Z4.373
X11.602 Y11.334 Z4.37
X11.601 Y11.332
X11.594 Y11.307 Z4.369
X11.583 Y11.268 Z4.368
X11.562 Y11.194 Z4.365
Y11.191
X11.561 Y11.189
X11.551 Y11.108 Z4.362
X11.543 Y11.049 Z4.36
Y11.047
X11.544 Y11.026 Z4.359
X11.546 Y10.924 Z4.355
X11.547 Y10.906
Y10.904
X11.554 Y10.863 Z4.353
X11.572 Y10.763 Z4.35
X11.573 Y10.76
X11.592 Y10.704 Z4.348
X11.619 Y10.624 Z4.345
X11.62 Y10.622
X11.636 Y10.59 Z4.343
X11.655 Y10.554 Z4.342
X11.686 Y10.495 Z4.34
X11.687 Y10.493
X11.695 Y10.483 Z4.339
X11.743 Y10.417 Z4.336
X11.772 Y10.377 Z4.335
X11.774 Y10.375 Z4.334
X11.796 Y10.354 Z4.333
X11.853 Y10.296 Z4.331
X11.875 Y10.274 Z4.329
X11.877 Y10.272
X11.916 Y10.244 Z4.328
X11.99 Y10.189 Z4.324
X11.992 Y10.188
X12.017 Y10.174 Z4.323
X12.054 Y10.155 Z4.322
X12.119 Y10.121 Z4.319
X12.122 Y10.12
X12.126 Y10.118
X12.204 Y10.092 Z4.316
X12.257 Y10.074 Z4.314
X12.26 Y10.073
X12.282 Y10.069 Z4.313
X12.363 Y10.054 Z4.311
X12.401 Y10.047 Z4.309
X12.403
X12.444 Y10.046 Z4.308
X12.544 Y10.043 Z4.304
X12.546
X12.549
X12.607 Y10.051 Z4.302
X12.691 Y10.061 Z4.299
X12.694 Y10.062
X12.728 Y10.072 Z4.298
X12.767 Y10.083 Z4.296
X12.829 Y10.101 Z4.294
X12.831
X12.845 Y10.108 Z4.293
X12.92 Y10.142 Z4.291
X12.962 Y10.161 Z4.289
X12.964 Y10.162
X12.992 Y10.18 Z4.288
X13.06 Y10.225 Z4.285
X13.084 Y10.241 Z4.284
X13.086 Y10.242
X13.124 Y10.276 Z4.282
X13.192 Y10.338 Z4.279
X13.194 Y10.34
X13.212 Y10.362 Z4.278
X13.238 Y10.393 Z4.276
X13.285 Y10.451 Z4.274
X13.286 Y10.453
X13.289 Y10.457 Z4.273
X13.33 Y10.528 Z4.271
X13.359 Y10.576 Z4.269
X13.36 Y10.578
X13.369 Y10.6 Z4.268
X13.399 Y10.676 Z4.265
X13.413 Y10.711 Z4.264
X13.423 Y10.754 Z4.262
X13.444 Y10.843 Z4.259
X13.446 Y10.851
X13.447 Y10.853 Z4.258
X13.451 Y10.915 Z4.256
X13.458 Y11.006 Z4.253
X13.459 Y11.009
X13.454 Y11.078 Z4.251
X13.449 Y11.139 Z4.248
Y11.142
X13.446 Y11.16
X13.439 Y11.2 Z4.246
X13.434 Y11.241 Z4.245
X13.431 Y11.282 Z4.243
X13.43 Y11.323 Z4.242
X13.432 Y11.364 Z4.241
X13.437 Y11.405 Z4.239
X13.443 Y11.443 Z4.238
X13.451 Y11.479 Z4.237
X13.461 Y11.516 Z4.235
X13.473 Y11.552 Z4.234
X13.486 Y11.586 Z4.233
X13.501 Y11.619 Z4.231
X13.517 Y11.652 Z4.23
X13.536 Y11.683 Z4.229
X13.554 Y11.712 Z4.228
X13.574 Y11.74 Z4.227
X13.58 Y11.747 Z4.226
X13.582 Y11.751
X13.591 Y11.766
X13.593 Y11.77
X13.6 Y11.795 Z4.225
X13.601 Y11.8
X13.602 Y11.813 Z4.224
X13.603 Y11.822
X13.602 Y11.84 Z4.223
X13.601 Y11.844
Y11.849
X13.594 Y11.871
X13.593 Y11.875 Z4.222
X13.582 Y11.895
X13.579 Y11.898
X13.565 Y11.916 Z4.221
X13.562 Y11.919
X13.548 Y11.93 Z4.22
X13.545 Y11.933
X13.542 Y11.935
X13.528 Y11.942 Z4.219
X13.524
X13.52
X13.49 Z4.218
X13.432 Y11.945 Z4.216
X13.29 Y11.96 Z4.211
X13.287
X13.069 Z4.203
X12.66 Z4.189
X12.578 Z4.186
X12.497 Y11.958 Z4.183
X12.356 Y11.947 Z4.179
X12.354 Z4.178
X12.334 Y11.942
X12.214 Y11.914 Z4.173
X12.212 Y11.913
X12.176 Y11.899 Z4.172
X12.079 Y11.86 Z4.168
X12.076 Y11.859
X12.028 Y11.831 Z4.166
X11.953 Y11.786 Z4.163
X11.949 Y11.783
X11.925 Y11.764 Z4.162
X11.893 Y11.738 Z4.161
X11.842 Y11.696 Z4.158
X11.84 Y11.694
X11.831 Y11.685
X11.776 Y11.624 Z4.155
X11.744 Y11.588 Z4.153
X11.742 Y11.586
X11.725 Y11.56 Z4.152
X11.663 Y11.466 Z4.148
X11.662 Y11.464
X11.642 Y11.42 Z4.146
X11.602 Y11.334 Z4.143
X11.601 Y11.332
X11.583 Y11.268 Z4.141
X11.562 Y11.194 Z4.138
Y11.191
X11.561 Y11.189
X11.551 Y11.108 Z4.135
X11.543 Y11.049 Z4.133
Y11.047
X11.544 Y11.026 Z4.132
X11.546 Y10.945 Z4.129
X11.547 Y10.906 Z4.128
Y10.904
X11.554 Y10.863 Z4.126
X11.572 Y10.763 Z4.123
X11.573 Y10.76
X11.592 Y10.704 Z4.121
X11.619 Y10.624 Z4.118
X11.62 Y10.622
X11.636 Y10.59 Z4.116
X11.655 Y10.554 Z4.115
X11.686 Y10.495 Z4.113
X11.687 Y10.493
X11.695 Y10.483 Z4.112
X11.743 Y10.417 Z4.109
X11.772 Y10.377 Z4.108
X11.774 Y10.375
X11.796 Y10.354 Z4.106
X11.853 Y10.296 Z4.104
X11.875 Y10.274 Z4.103
X11.877 Y10.272 Z4.102
X11.916 Y10.244 Z4.101
X11.99 Y10.189 Z4.098
X11.992 Y10.188 Z4.097
X12.054 Y10.155 Z4.095
X12.119 Y10.121 Z4.092
X12.122 Y10.12
X12.126 Y10.118
X12.204 Y10.092 Z4.089
X12.257 Y10.074 Z4.088
X12.26 Y10.073 Z4.087
X12.282 Y10.069
X12.363 Y10.054 Z4.084
X12.401 Y10.047 Z4.083
X12.403
X12.444 Y10.046 Z4.081
X12.536 Y10.044 Z4.078
X12.546 Y10.043
X12.549
X12.607 Y10.051 Z4.076
X12.691 Y10.061 Z4.073
X12.693 Y10.062
X12.728 Y10.072 Z4.072
X12.767 Y10.083 Z4.071
X12.829 Y10.101 Z4.069
X12.831
X12.845 Y10.108 Z4.068
X12.92 Y10.142 Z4.066
X12.962 Y10.161 Z4.064
X12.964 Y10.162
X12.992 Y10.18 Z4.063
X13.06 Y10.225 Z4.061
X13.084 Y10.241 Z4.06
X13.086 Y10.242
X13.124 Y10.276 Z4.058
X13.192 Y10.338 Z4.056
X13.194 Y10.34
X13.238 Y10.393 Z4.054
X13.285 Y10.451 Z4.052
X13.286 Y10.453
X13.289 Y10.457 Z4.051
X13.33 Y10.528 Z4.049
X13.359 Y10.576 Z4.048
X13.36 Y10.578
X13.369 Y10.6 Z4.047
X13.399 Y10.676 Z4.045
X13.412 Y10.709 Z4.044
X13.413 Y10.711
X13.423 Y10.754 Z4.043
X13.442 Y10.833 Z4.041
X13.446 Y10.851 Z4.04
Y10.853
X13.451 Y10.915 Z4.039
X13.458 Y10.999 Z4.037
Y11.001 Z4.036
X13.455 Y11.037
X13.449 Y11.119 Z4.034
X13.448 Y11.144 Z4.033
X13.447 Y11.147
X13.444 Y11.159
X13.426 Y11.239 Z4.031
X13.408 Y11.319 Z4.029
X13.401 Y11.359 Z4.028
X13.396 Y11.4 Z4.027
X13.393 Y11.44 Z4.026
X13.392 Y11.481
X13.394 Y11.522 Z4.025
X13.399 Y11.562 Z4.024
X13.405 Y11.602 Z4.023
X13.414 Y11.642 Z4.022
X13.425 Y11.681
X13.438 Y11.719 Z4.021
X13.446 Y11.739 Z4.02
X13.45 Y11.748
X13.452 Y11.753
X13.453 Y11.756
X13.465 Y11.793 Z4.019
X13.466 Y11.796
X13.468 Y11.82
X13.469 Y11.823
X13.466 Y11.847 Z4.018
Y11.849
X13.459 Y11.873 Z4.017
X13.458 Y11.875
X13.454 Y11.882
X13.447 Y11.896
X13.445 Y11.898
X13.43 Y11.917 Z4.016
X13.428 Y11.918
X13.41 Y11.933
X13.408 Y11.935
X13.387 Y11.946
X13.384 Y11.947
X13.369 Y11.951 Z4.015
X13.367 Y11.952
X13.315 Y11.957 Z4.014
X13.29 Y11.96
X13.287
X13.233 Z4.013
X13.151 Z4.012
X12.988 Z4.01
X12.824 Z4.008
X12.66 Z4.006
X12.497 Y11.958 Z4.004
X12.415 Y11.952
X12.356 Y11.947 Z4.003
X12.354
X12.334 Y11.942
X12.234 Y11.919 Z4.002
X12.214 Y11.914
X12.212 Y11.913
X12.176 Y11.899
X12.079 Y11.86 Z4.001
X12.076 Y11.859
X12.028 Y11.831
X11.953 Y11.786
X11.949 Y11.783
X11.925 Y11.764
X11.893 Y11.738 Z4
X11.842 Y11.696
X11.84 Y11.694
X11.831 Y11.685
X11.776 Y11.624
X11.745 Y11.589
X11.742 Y11.586
X11.738 Y11.58
X11.706 Y11.531
X11.685 Y11.499
X11.664 Y11.467
X11.662 Y11.465
X11.618 Y11.368
X11.602 Y11.333
X11.601 Y11.331
X11.585 Y11.276
X11.562 Y11.195
Y11.193
X11.549 Y11.093
X11.543 Y11.05
Y11.048
X11.544 Y11.001
X11.547 Y10.905
Y10.904
X11.554 Y10.863
X11.562 Y10.818
X11.572 Y10.762
X11.573 Y10.76
X11.592 Y10.703
X11.619 Y10.624
X11.62 Y10.623
X11.637 Y10.588
X11.655 Y10.554
X11.661 Y10.542
X11.686 Y10.495
X11.687 Y10.493
X11.718 Y10.451
X11.747 Y10.411
X11.772 Y10.377
X11.775 Y10.374
X11.79 Y10.359
X11.873 Y10.276
X11.875 Y10.274
X11.884 Y10.267
X11.963 Y10.21
X11.991 Y10.189
X11.992 Y10.188
X12.055 Y10.155
X12.12 Y10.121
X12.122 Y10.12
X12.148 Y10.111
X12.227 Y10.084
X12.258 Y10.073
X12.259
X12.287 Y10.068
X12.333 Y10.059
X12.401 Y10.047
X12.403
X12.426 Y10.046
X12.518 Y10.044
X12.546 Y10.043
X12.547
X12.611 Y10.051
X12.657 Y10.057
X12.691 Y10.061
X12.692 Y10.062
X12.704 Y10.065
X12.77 Y10.084
X12.831 Y10.101
X12.834 Y10.102
X12.889 Y10.127
X12.935 Y10.149
X12.963 Y10.161
X12.964 Y10.162
X12.985 Y10.176
X13.074 Y10.234
X13.084 Y10.241
X13.087 Y10.243
X13.114 Y10.267
X13.167 Y10.315
X13.193 Y10.338
X13.194 Y10.34
X13.21 Y10.359
X13.259 Y10.42
X13.285 Y10.451
X13.286 Y10.452
X13.312 Y10.497
X13.339 Y10.542
X13.358 Y10.575
X13.36 Y10.578
X13.382 Y10.634
X13.401 Y10.68
X13.413 Y10.71
Y10.712
X13.417 Y10.726
X13.438 Y10.818
X13.446 Y10.851
Y10.853
X13.451 Y10.909
X13.455 Y10.955
X13.458 Y10.997
Y10.998
X13.448 Y11.141
X13.447 Y11.143
X13.417 Y11.276
X13.397 Y11.368
X13.391 Y11.414
X13.388 Y11.46
Y11.506
X13.392 Y11.551
X13.398 Y11.597
X13.407 Y11.643
X13.42 Y11.689
X13.428 Y11.712
X13.432 Y11.723
X13.434 Y11.729
X13.436 Y11.733
Y11.735
X13.456 Y11.796
X13.457 Y11.798
X13.46 Y11.82
Y11.822
X13.458 Y11.847
Y11.848
X13.451 Y11.872
X13.45 Y11.874
X13.439 Y11.895
X13.438 Y11.897
X13.423 Y11.916
X13.421 Y11.918
X13.404 Y11.933
X13.401 Y11.934
X13.38 Y11.946
X13.378 Y11.947
X13.358 Y11.953
X13.356
X13.29 Y11.96
X13.288
X12.611
X12.518 Y11.959
X12.356 Y11.947
X12.355
X12.214 Y11.914
X12.213
X12.148 Y11.888
X12.078 Y11.86
X12.075 Y11.858
X12.021 Y11.827
X11.953 Y11.787
X11.951 Y11.785
X11.926 Y11.765
X11.89 Y11.735
X11.841 Y11.695
X11.84 Y11.694
X11.794 Y11.643
X11.744 Y11.588
X11.742 Y11.586
X11.719 Y11.551
X11.706 Y11.531
X11.672 Y11.48
X11.664 Y11.467
X11.662 Y11.465
X11.661 Y11.462
X11.627 Y11.388
X11.603 Y11.335
X11.602 Y11.332
X11.596 Y11.313
X11.573 Y11.234 Z3.999
X11.562 Y11.195
Y11.192
X11.557 Y11.154
X11.544 Y11.053
X11.543 Y11.05
Y11.048
X11.545 Y10.991 Z3.998
X11.547 Y10.904
Y10.902
X11.553 Y10.869
X11.56 Y10.829 Z3.997
X11.572 Y10.761
X11.573 Y10.759
X11.576 Y10.749
X11.603 Y10.672 Z3.996
X11.619 Y10.623
X11.634 Y10.596 Z3.995
X11.671 Y10.523
X11.686 Y10.496 Z3.994
X11.687 Y10.494
X11.715 Y10.455
X11.771 Y10.378 Z3.993
X11.773 Y10.376
X11.791 Y10.358 Z3.992
X11.82 Y10.329
X11.874 Y10.275 Z3.991
X11.876 Y10.273
X11.878 Y10.272
X11.944 Y10.223 Z3.99
X11.991 Y10.188 Z3.989
X11.994 Y10.187
X12.012 Y10.178
X12.084 Y10.14 Z3.987
X12.12 Y10.121
X12.123 Y10.12
X12.159 Y10.107 Z3.986
X12.236 Y10.081 Z3.985
X12.258 Y10.073
X12.261
X12.316 Y10.063 Z3.984
X12.402 Y10.047 Z3.982
X12.407
X12.437 Y10.046 Z3.981
X12.478 Y10.045
X12.545 Y10.043 Z3.98
X12.547 Z3.979
X12.56 Y10.045
X12.641 Y10.055 Z3.978
X12.689 Y10.061 Z3.977
X12.692 Y10.062
X12.721 Y10.07 Z3.976
X12.8 Y10.092 Z3.974
X12.829 Y10.101
X12.832 Y10.102
X12.876 Y10.122 Z3.973
X12.962 Y10.161 Z3.971
X12.964 Y10.162
X12.986 Y10.176 Z3.97
X13.02 Y10.199 Z3.969
X13.084 Y10.241 Z3.967
X13.086 Y10.242
X13.088 Y10.244
X13.149 Y10.299 Z3.965
X13.192 Y10.338 Z3.964
X13.194 Y10.34
X13.207 Y10.356
X13.259 Y10.419 Z3.962
X13.285 Y10.451 Z3.961
X13.286 Y10.453 Z3.96
X13.306 Y10.486
X13.347 Y10.557 Z3.957
X13.358 Y10.574
X13.359 Y10.576
X13.366 Y10.593 Z3.956
X13.381 Y10.631 Z3.955
X13.412 Y10.709 Z3.953
X13.413 Y10.712
X13.422 Y10.746 Z3.952
X13.431 Y10.786 Z3.951
X13.446 Y10.851 Z3.949
X13.447 Y10.854
X13.448 Y10.866
X13.454 Y10.948 Z3.947
X13.458 Y10.996 Z3.945
Y10.999
X13.456 Y11.029 Z3.944
X13.448 Y11.139 Z3.941
X13.447 Y11.142
X13.436 Y11.191 Z3.939
X13.4 Y11.351 Z3.935
X13.393 Y11.391 Z3.933
X13.389 Y11.432 Z3.932
X13.387 Y11.473 Z3.931
X13.388 Y11.514 Z3.93
X13.39 Y11.555 Z3.928
X13.396 Y11.595 Z3.927
X13.403 Y11.635 Z3.926
X13.413 Y11.675 Z3.924
X13.439 Y11.753 Z3.922
X13.453 Y11.794 Z3.92
Y11.796
X13.456 Y11.819 Z3.919
X13.457 Y11.822
X13.455 Y11.847
X13.454 Y11.85 Z3.918
X13.448 Y11.872
X13.447 Y11.874
X13.436 Y11.895 Z3.917
X13.435 Y11.897
X13.421 Y11.915 Z3.916
X13.419 Y11.917
X13.399 Y11.933 Z3.915
X13.397 Y11.935
X13.377 Y11.946 Z3.914
X13.375 Y11.947
X13.355 Y11.953
X13.353 Z3.913
X13.319 Y11.957 Z3.912
X13.291 Y11.96 Z3.911
X13.289
X13.279
X13.197 Z3.908
X13.115 Z3.905
X13.033 Z3.902
X12.952 Z3.9
X12.87 Z3.897
X12.788 Z3.894
X12.706 Z3.891
X12.624 Z3.888
X12.542 Z3.885
X12.461 Y11.955 Z3.882
X12.356 Y11.947 Z3.879
X12.354
X12.299 Y11.934 Z3.877
X12.214 Y11.914 Z3.874
X12.212 Y11.913
X12.181 Y11.901 Z3.872
X12.079 Y11.86 Z3.869
X12.077 Y11.859
X12.068 Y11.854 Z3.868
X11.958 Y11.789 Z3.864
X11.953 Y11.787
X11.951 Y11.785 Z3.863
X11.929 Y11.767 Z3.862
X11.84 Y11.695 Z3.858
X11.835 Y11.689
X11.808 Y11.659 Z3.857
X11.744 Y11.588 Z3.853
X11.743 Y11.586
X11.706 Y11.531 Z3.851
X11.664 Y11.467 Z3.848
X11.662 Y11.465
X11.661 Y11.462
X11.627 Y11.388 Z3.845
X11.603 Y11.335 Z3.843
X11.602 Y11.332
X11.596 Y11.313
X11.573 Y11.234 Z3.84
X11.562 Y11.195 Z3.838
Y11.192
X11.557 Y11.154 Z3.837
X11.543 Y11.05 Z3.833
Y11.048
X11.545 Y10.991 Z3.831
X11.547 Y10.904 Z3.828
Y10.902
X11.553 Y10.869 Z3.827
X11.56 Y10.829 Z3.825
X11.572 Y10.761 Z3.823
X11.573 Y10.759
X11.576 Y10.749
X11.603 Y10.672 Z3.82
X11.619 Y10.623 Z3.818
X11.634 Y10.596 Z3.817
X11.671 Y10.523 Z3.814
X11.686 Y10.496 Z3.813
X11.687 Y10.494
X11.715 Y10.455 Z3.811
X11.771 Y10.378 Z3.808
X11.773 Y10.376
X11.82 Y10.329 Z3.805
X11.874 Y10.275 Z3.803
X11.876 Y10.273
X11.878 Y10.272
X11.944 Y10.223 Z3.8
X11.991 Y10.188 Z3.798
X11.994 Y10.187
X12.012 Y10.178 Z3.797
X12.084 Y10.14 Z3.794
X12.12 Y10.121 Z3.793
X12.123 Y10.12
X12.159 Y10.107 Z3.791
X12.236 Y10.081 Z3.788
X12.258 Y10.073
X12.261 Z3.787
X12.316 Y10.063 Z3.785
X12.402 Y10.047 Z3.782
X12.407
X12.437 Y10.046 Z3.781
X12.478 Y10.045 Z3.78
X12.545 Y10.043 Z3.777
X12.547
X12.56 Y10.045
X12.641 Y10.055 Z3.774
X12.689 Y10.061 Z3.772
X12.692 Y10.062
X12.721 Y10.07 Z3.771
X12.8 Y10.092 Z3.768
X12.829 Y10.101 Z3.767
X12.832 Y10.102
X12.876 Y10.122 Z3.766
X12.962 Y10.161 Z3.762
X12.964 Y10.162
X13.02 Y10.199 Z3.76
X13.084 Y10.241 Z3.757
X13.086 Y10.242
X13.088 Y10.244
X13.149 Y10.299 Z3.754
X13.192 Y10.338 Z3.752
X13.194 Y10.34
X13.207 Y10.356 Z3.751
X13.259 Y10.419 Z3.748
X13.285 Y10.451 Z3.747
X13.286 Y10.453
X13.306 Y10.486 Z3.746
X13.347 Y10.557 Z3.743
X13.358 Y10.574 Z3.742
X13.359 Y10.576
X13.381 Y10.631 Z3.74
X13.412 Y10.709 Z3.737
X13.413 Y10.712
X13.422 Y10.746 Z3.736
X13.431 Y10.786 Z3.734
X13.446 Y10.851 Z3.732
X13.447 Y10.854
X13.448 Y10.866 Z3.731
X13.454 Y10.948 Z3.728
X13.458 Y10.996 Z3.727
Y10.999
X13.45 Y11.111 Z3.723
X13.448 Y11.139 Z3.722
X13.447 Y11.142
X13.436 Y11.191 Z3.72
X13.418 Y11.271 Z3.717
X13.4 Y11.351 Z3.714
X13.393 Y11.391 Z3.713
X13.389 Y11.432 Z3.711
X13.387 Y11.473 Z3.71
X13.388 Y11.514 Z3.709
X13.39 Y11.555 Z3.707
X13.396 Y11.595 Z3.706
X13.403 Y11.635 Z3.704
X13.413 Y11.675 Z3.703
X13.439 Y11.753 Z3.7
X13.453 Y11.794 Z3.698
Y11.796
X13.456 Y11.819
X13.457 Y11.822 Z3.697
X13.456 Y11.832
X13.455 Y11.847
X13.454 Y11.85
X13.448 Y11.872 Z3.696
X13.447 Y11.874
X13.436 Y11.895 Z3.695
X13.435 Y11.897
X13.421 Y11.915 Z3.694
X13.419 Y11.917
X13.399 Y11.933 Z3.693
X13.397 Y11.935
X13.377 Y11.946 Z3.692
X13.375 Y11.947
X13.355 Y11.953
X13.353
X13.291 Y11.96 Z3.689
X13.289
X13.115 Z3.683
X12.87 Z3.675
X12.624 Z3.666
X12.542 Z3.663
X12.461 Y11.955 Z3.66
X12.356 Y11.947 Z3.657
X12.354
X12.299 Y11.934 Z3.655
X12.214 Y11.914 Z3.652
X12.212 Y11.913
X12.143 Y11.886 Z3.649
X12.079 Y11.86 Z3.647
X12.077 Y11.859 Z3.646
X12.068 Y11.854
X11.962 Y11.792 Z3.642
X11.953 Y11.787 Z3.641
X11.951 Y11.785
X11.929 Y11.767 Z3.64
X11.84 Y11.695 Z3.636
X11.835 Y11.689
X11.808 Y11.659 Z3.635
X11.744 Y11.588 Z3.631
X11.743 Y11.586
X11.706 Y11.531 Z3.629
X11.664 Y11.467 Z3.626
X11.662 Y11.465
X11.661 Y11.462
X11.627 Y11.388 Z3.623
X11.603 Y11.335 Z3.621
X11.602 Y11.332
X11.596 Y11.313 Z3.62
X11.573 Y11.234 Z3.618
X11.562 Y11.195 Z3.616
Y11.192
X11.557 Y11.154 Z3.615
X11.543 Y11.05 Z3.611
Y11.048
X11.545 Y10.991 Z3.609
X11.547 Y10.904 Z3.606
Y10.902
X11.553 Y10.869 Z3.605
X11.56 Y10.829 Z3.603
X11.572 Y10.761 Z3.601
X11.573 Y10.759
X11.576 Y10.749
X11.603 Y10.672 Z3.598
X11.619 Y10.623 Z3.596
X11.634 Y10.596 Z3.595
X11.671 Y10.523 Z3.592
X11.686 Y10.496 Z3.591
X11.687 Y10.494
X11.715 Y10.455 Z3.589
X11.771 Y10.378 Z3.586
X11.773 Y10.376
X11.82 Y10.329 Z3.584
X11.874 Y10.275 Z3.581
X11.876 Y10.273
X11.878 Y10.272
X11.944 Y10.223 Z3.578
X11.991 Y10.188 Z3.576
X11.994 Y10.187
X12.012 Y10.178
X12.084 Y10.14 Z3.573
X12.12 Y10.121 Z3.572
X12.123 Y10.12
X12.159 Y10.107 Z3.57
X12.236 Y10.081 Z3.568
X12.258 Y10.073 Z3.567
X12.261
X12.316 Y10.063 Z3.565
X12.402 Y10.047 Z3.563
X12.407
X12.437 Y10.046 Z3.562
X12.478 Y10.045 Z3.561
X12.545 Y10.043 Z3.559
X12.547
X12.56 Y10.045 Z3.558
X12.641 Y10.055 Z3.556
X12.689 Y10.061 Z3.554
X12.692 Y10.062
X12.721 Y10.07 Z3.553
X12.8 Y10.092 Z3.551
X12.829 Y10.101 Z3.55
X12.832 Y10.102
X12.876 Y10.122 Z3.549
X12.962 Y10.161 Z3.546
X12.964 Y10.162
X13.02 Y10.199 Z3.545
X13.084 Y10.241 Z3.543
X13.086 Y10.242
X13.088 Y10.244
X13.149 Y10.299 Z3.54
X13.192 Y10.338 Z3.539
X13.194 Y10.34
X13.207 Y10.356 Z3.538
X13.259 Y10.419 Z3.536
X13.285 Y10.451 Z3.535
X13.286 Y10.453
X13.306 Y10.486
X13.347 Y10.557 Z3.533
X13.358 Y10.574 Z3.532
X13.359 Y10.576
X13.381 Y10.631 Z3.531
X13.412 Y10.709 Z3.529
X13.413 Y10.712
X13.422 Y10.746 Z3.528
X13.431 Y10.786 Z3.527
X13.446 Y10.851 Z3.526
X13.447 Y10.854
X13.448 Y10.866
X13.454 Y10.948 Z3.524
X13.458 Y10.996 Z3.523
Y10.999
X13.456 Y11.029 Z3.522
X13.448 Y11.139 Z3.52
X13.447 Y11.142
X13.436 Y11.191 Z3.519
X13.4 Y11.351 Z3.516
X13.393 Y11.391
X13.389 Y11.432 Z3.515
X13.387 Y11.473 Z3.514
X13.388 Y11.514
X13.39 Y11.555 Z3.513
X13.396 Y11.595
X13.403 Y11.635 Z3.512
X13.413 Y11.675 Z3.511
X13.439 Y11.753 Z3.51
X13.453 Y11.794
Y11.796
X13.456 Y11.819 Z3.509
X13.457 Y11.822
X13.455 Y11.847
X13.454 Y11.85
X13.448 Y11.872
X13.447 Y11.874
X13.436 Y11.895 Z3.508
X13.435 Y11.897
X13.421 Y11.915
X13.419 Y11.917
X13.399 Y11.933
X13.397 Y11.935
X13.377 Y11.946 Z3.507
X13.375 Y11.947
X13.355 Y11.953
X13.353
X13.291 Y11.96 Z3.506
X13.289
X13.279
X13.197 Z3.505
X13.033 Z3.504
X12.87 Z3.503
X12.706 Z3.502
X12.542 Z3.501
X12.379 Y11.949 Z3.5
X12.356 Y11.947
X12.354
X12.339 Y11.943
X12.299 Y11.934
X12.214 Y11.914
X12.212
X12.181 Y11.901
X12.144 Y11.886
X12.078 Y11.86
X12.075 Y11.858
X12.021 Y11.827
X11.953 Y11.787
X11.951 Y11.785
X11.926 Y11.765
X11.89 Y11.735
X11.841 Y11.695
X11.84 Y11.694
X11.794 Y11.643
X11.744 Y11.588
X11.742 Y11.586
X11.719 Y11.551
X11.685 Y11.499
X11.664 Y11.467
X11.662 Y11.465
X11.618 Y11.368
X11.602 Y11.333
X11.601 Y11.331
X11.585 Y11.276
X11.562 Y11.195
Y11.193
X11.549 Y11.093
X11.543 Y11.05
Y11.048
X11.544 Y11.001
X11.547 Y10.905
Y10.904
X11.554 Y10.863
X11.562 Y10.818
X11.572 Y10.762
X11.573 Y10.76
X11.592 Y10.703
X11.619 Y10.624
X11.62 Y10.623
X11.637 Y10.588
X11.661 Y10.542
X11.686 Y10.495
X11.687 Y10.493
X11.718 Y10.451
X11.747 Y10.411
X11.772 Y10.377
X11.775 Y10.374
X11.79 Y10.359
X11.873 Y10.276
X11.875 Y10.274
X11.884 Y10.267
X11.963 Y10.21
X11.991 Y10.189
X11.992 Y10.188
X12.055 Y10.155
X12.12 Y10.121
X12.122 Y10.12
X12.148 Y10.111
X12.227 Y10.084
X12.258 Y10.073
X12.259
X12.287 Y10.068
X12.333 Y10.059
X12.401 Y10.047
X12.403
X12.426 Y10.046
X12.518 Y10.044
X12.546 Y10.043
X12.547
X12.611 Y10.051
X12.657 Y10.057
X12.691 Y10.061
X12.692 Y10.062
X12.704 Y10.065
X12.77 Y10.084
X12.831 Y10.101
X12.834 Y10.102
X12.889 Y10.127
X12.935 Y10.149
X12.963 Y10.161
X12.964 Y10.162
X12.985 Y10.176
X13.074 Y10.234
X13.084 Y10.241
X13.087 Y10.243
X13.114 Y10.267
X13.167 Y10.315
X13.193 Y10.338
X13.194 Y10.34
X13.21 Y10.359
X13.259 Y10.42
X13.285 Y10.451
X13.286 Y10.452
X13.312 Y10.497
X13.339 Y10.542
X13.358 Y10.575
X13.36 Y10.578
X13.382 Y10.634
X13.401 Y10.68
X13.413 Y10.71
Y10.712
X13.417 Y10.726
X13.438 Y10.818
X13.446 Y10.851
Y10.853
X13.451 Y10.909
X13.455 Y10.955
X13.458 Y10.997
Y10.998
X13.448 Y11.14
X13.417 Y11.276
X13.397 Y11.368
X13.391 Y11.414
X13.387 Y11.46
Y11.506
X13.39 Y11.551
X13.396 Y11.597
X13.405 Y11.643
X13.418 Y11.689
X13.433 Y11.735
X13.453 Y11.795
Y11.797
X13.456 Y11.821
Y11.823
X13.455 Y11.848
X13.454 Y11.849
X13.448 Y11.872
X13.447 Y11.874
X13.436 Y11.896
X13.434 Y11.898
X13.42 Y11.916
X13.419 Y11.917
X13.401 Y11.932
X13.399 Y11.934
X13.377 Y11.946
X13.375 Y11.947
X13.354 Y11.953
X13.352
X13.29 Y11.96
X13.288
X12.611
X12.518 Y11.959
X12.356 Y11.947
X12.355
X12.214 Y11.914
X12.213
X12.148 Y11.888
X12.144 Y11.886
X12.08 Y11.861
X12.077 Y11.86
X12.068 Y11.854
X11.998 Y11.813
X11.954 Y11.787
X11.952 Y11.785
X11.93 Y11.768
X11.851 Y11.703 Z3.499
X11.841 Y11.695
X11.839 Y11.693
X11.808 Y11.659
X11.743 Y11.587
X11.742 Y11.585
X11.729 Y11.566
X11.706 Y11.532 Z3.498
X11.663 Y11.465
X11.662 Y11.463
X11.627 Y11.389 Z3.497
X11.603 Y11.335
X11.602 Y11.333
X11.596 Y11.313
X11.574 Y11.235 Z3.496
