(1041)
(Machine)
(  vendor: Nikodem Bartnik)
(  model: Generic 3-axis Router)
(  description: This machine has XYZ axis on the Head)
(T1  D=3.175 CR=0 - ZMIN=-3.5 - flat end mill)
G90 G94
G17
G21
(When using Fusion 360 for Personal Use, the feedrate of)
(rapid moves is reduced to match the feedrate of cutting)
(moves, which can increase machining time. Unrestricted rapid)
(moves are available with a Fusion 360 Subscription.)

(Bore4)
T1
S5000 M3
G54
G0 X-4.244 Y5.78
Z20.5
G1 Z6.5 F50
Z4.818 F20
G19 G3 Y6.097 Z4.5 J0.317 K0
G1 Y6.256
G17 G3 X-4.5 Y6.512 I-0.256 J0
X-4.5 Y5.488 Z4.316 I0 J-0.512 F50
X-4.5 Y6.512 Z4.133 I0 J0.512
X-4.5 Y5.488 Z3.949 I0 J-0.512
X-4.5 Y6.512 Z3.765 I0 J0.512
X-4.5 Y5.488 Z3.581 I0 J-0.512
X-4.5 Y6.512 Z3.398 I0 J0.512
X-4.5 Y5.488 Z3.214 I0 J-0.512
X-4.5 Y6.512 Z3.03 I0 J0.512
X-4.5 Y5.488 Z2.846 I0 J-0.512
X-4.5 Y6.512 Z2.663 I0 J0.512
X-4.5 Y5.488 Z2.479 I0 J-0.512
X-4.5 Y6.512 Z2.295 I0 J0.512
X-4.5 Y5.488 Z2.112 I0 J-0.512
X-4.5 Y6.512 Z1.928 I0 J0.512
X-4.5 Y5.488 Z1.744 I0 J-0.512
X-4.5 Y6.512 Z1.56 I0 J0.512
X-4.5 Y5.488 Z1.377 I0 J-0.512
X-4.5 Y6.512 Z1.193 I0 J0.512
X-4.5 Y5.488 Z1.009 I0 J-0.512
X-4.5 Y6.512 Z0.825 I0 J0.512
X-4.5 Y5.488 Z0.642 I0 J-0.512
X-4.5 Y6.512 Z0.458 I0 J0.512
X-4.5 Y5.488 Z0.274 I0 J-0.512
X-4.5 Y6.512 Z0.091 I0 J0.512
X-4.5 Y5.488 Z-0.093 I0 J-0.512
X-4.5 Y6.512 Z-0.277 I0 J0.512
X-4.5 Y5.488 Z-0.461 I0 J-0.512
X-4.5 Y6.512 Z-0.644 I0 J0.512
X-4.5 Y5.488 Z-0.828 I0 J-0.512
X-4.5 Y6.513 Z-1.012 I0 J0.512
X-4.5 Y5.487 Z-1.196 I0 J-0.513
X-4.5 Y6.513 Z-1.379 I0 J0.513
X-4.5 Y5.487 Z-1.563 I0 J-0.513
X-4.5 Y6.513 Z-1.747 I0 J0.513
X-4.5 Y5.487 Z-1.93 I0 J-0.513
X-4.5 Y6.513 Z-2.114 I0 J0.513
X-4.5 Y5.487 Z-2.298 I0 J-0.513
X-4.5 Y6.513 Z-2.482 I0 J0.513
X-4.5 Y5.487 Z-2.665 I0 J-0.513
X-4.5 Y6.513 Z-2.849 I0 J0.513
X-4.5 Y5.487 Z-3.033 I0 J-0.513
X-4.5 Y6.513 Z-3.217 I0 J0.513
X-4.5 Y5.487 Z-3.4 I0 J-0.513
X-3.992 Y6.069 Z-3.5 I0 J0.513
X-5.008 Y5.931 I-0.508 J-0.069
X-3.992 Y6.069 I0.508 J0.069
X-4.281 Y6.288 I-0.254 J-0.035
G1 X-4.438 Y6.267
X-4.508 Y6.258 Z-3.492
X-4.574 Y6.248 Z-3.469
X-4.634 Y6.24 Z-3.431
X-4.684 Y6.234 Z-3.38
X-4.721 Y6.228 Z-3.32
X-4.745 Y6.225 Z-3.253
X-4.753 Y6.224 Z-3.182
Z20.5
M5
M30
