(1043contourfix)
(Machine)
(  vendor: Nikodem Bartnik)
(  model: Generic 3-axis Router)
(  description: This machine has XYZ axis on the Head)
(T1  D=3.175 CR=0 - ZMIN=-0.3 - flat end mill)
G90 G94
G17
G21
(When using Fusion 360 for Personal Use, the feedrate of)
(rapid moves is reduced to match the feedrate of cutting)
(moves, which can increase machining time. Unrestricted rapid)
(moves are available with a Fusion 360 Subscription.)

(2D Contour3 2)
T1
S5000 M3
G54
G0 X22.317 Y-1.54
Z22.7
G1 Z3.5 F50
Z2.7 F16.7
Z1.517
G19 G3 Y-1.222 Z1.2 J0.317 K0 F20
G1 Y-0.905
G17 G3 X22 Y-0.587 I-0.317 J0
G1 X5 F50
G2 X-0.587 Y5 I0 J5.587
G1 Y17
G2 X5 Y22.587 I5.587 J0
G1 X22
G2 X27.587 Y17 I0 J-5.587
G1 Y5
G2 X22 Y-0.587 I-5.587 J0
G3 X21.683 Y-0.905 I0 J-0.317
G1 Y-1.222
G19 G2 Y-1.54 Z1.517 J0 K0.317
G1 Z12.7
X22.317
Z3.5
Z2.2 F16.7
Z1.017
G3 Y-1.222 Z0.7 J0.317 K0 F20
G1 Y-0.905
G17 G3 X22 Y-0.587 I-0.317 J0
G1 X5 F50
G2 X-0.587 Y5 I0 J5.587
G1 Y17
G2 X5 Y22.587 I5.587 J0
G1 X22
G2 X27.587 Y17 I0 J-5.587
G1 Y5
G2 X22 Y-0.587 I-5.587 J0
G3 X21.683 Y-0.905 I0 J-0.317
G1 Y-1.222
G19 G2 Y-1.54 Z1.017 J0 K0.318
G1 Z12.7
X22.317
Z3.5
Z1.7 F16.7
Z0.517
G3 Y-1.222 Z0.2 J0.317 K0 F20
G1 Y-0.905
G17 G3 X22 Y-0.587 I-0.317 J0
G1 X5 F50
G2 X-0.587 Y5 I0 J5.587
G1 Y17
G2 X5 Y22.587 I5.587 J0
G1 X22
G2 X27.587 Y17 I0 J-5.587
G1 Y5
G2 X22 Y-0.587 I-5.587 J0
G3 X21.683 Y-0.905 I0 J-0.317
G1 Y-1.222
G19 G2 Y-1.54 Z0.517 J0 K0.317
G1 Z12.7
X22.317
Z3.5
Z1.2 F16.7
Z0.017
G3 Y-1.222 Z-0.3 J0.317 K0 F20
G1 Y-0.905
G17 G3 X22 Y-0.587 I-0.317 J0
G1 X5 F50
G2 X-0.587 Y5 I0 J5.587
G1 Y17
G2 X5 Y22.587 I5.587 J0
G1 X22
G2 X27.587 Y17 I0 J-5.587
G1 Y5
G2 X22 Y-0.587 I-5.587 J0
G3 X21.683 Y-0.905 I0 J-0.317
G1 Y-1.222
G19 G2 Y-1.54 Z0.017 J0 K0.318
G1 Z22.7
G17
M5
M30
