(1051)
(Machine)
(  vendor: Nikodem Bartnik)
(  model: Generic 3-axis Router)
(  description: This machine has XYZ axis on the Head)
(T2  D=3.175 CR=0 - ZMIN=-7 - flat end mill)
G90 G94
G17
G21
(When using Fusion 360 for Personal Use, the feedrate of)
(rapid moves is reduced to match the feedrate of cutting)
(moves, which can increase machining time. Unrestricted rapid)
(moves are available with a Fusion 360 Subscription.)

(2D Contour1)
T2
S5000 M3
G54
G0 X-73.54 Y-61.729
Z9
G1 Z2 F70
Z-0.683 F23.3
G18 G2 X-73.223 Z-1 I0.317 K0 F30
G1 X-72.905
G17 G3 X-72.588 Y-61.412 I0 J0.318
G1 Y63 F70
G2 X-69 Y66.588 I3.588 J0
G1 X-3
G2 X0.587 Y63 I0 J-3.588
G1 Y-63
G2 X-3 Y-66.588 I-3.587 J0
G1 X-69
G2 X-72.588 Y-63 I0 J3.588
G1 Y-61.412
G3 X-72.905 Y-61.094 I-0.317 J0
G1 X-73.223
G18 G3 X-73.54 Z-0.683 I0 K0.317
G1 Z4
Y-61.729
Z2
Z1 F23.3
Z-1.683
G2 X-73.223 Z-2 I0.317 K0 F30
G1 X-72.905
G17 G3 X-72.588 Y-61.412 I0 J0.318
G1 Y63 F70
G2 X-69 Y66.588 I3.588 J0
G1 X-3
G2 X0.587 Y63 I0 J-3.588
G1 Y-63
G2 X-3 Y-66.588 I-3.587 J0
G1 X-69
G2 X-72.588 Y-63 I0 J3.588
G1 Y-61.412
G3 X-72.905 Y-61.094 I-0.317 J0
G1 X-73.223
G18 G3 X-73.54 Z-1.683 I0 K0.317
G1 Z4
Y-61.729
Z2
Z0 F23.3
Z-2.683
G2 X-73.223 Z-3 I0.317 K0 F30
G1 X-72.905
G17 G3 X-72.588 Y-61.412 I0 J0.318
G1 Y63 F70
G2 X-69 Y66.588 I3.588 J0
G1 X-3
G2 X0.587 Y63 I0 J-3.588
G1 Y-63
G2 X-3 Y-66.588 I-3.587 J0
G1 X-69
G2 X-72.588 Y-63 I0 J3.588
G1 Y-61.412
G3 X-72.905 Y-61.094 I-0.317 J0
G1 X-73.223
G18 G3 X-73.54 Z-2.683 I0 K0.318
G1 Z4
Y-61.729
Z2
Z-1 F23.3
Z-3.683
G2 X-73.223 Z-4 I0.317 K0 F30
G1 X-72.905
G17 G3 X-72.588 Y-61.412 I0 J0.318
G1 Y63 F70
G2 X-69 Y66.588 I3.588 J0
G1 X-3
G2 X0.587 Y63 I0 J-3.588
G1 Y-63
G2 X-3 Y-66.588 I-3.587 J0
G1 X-69
G2 X-72.588 Y-63 I0 J3.588
G1 Y-61.412
G3 X-72.905 Y-61.094 I-0.317 J0
G1 X-73.223
G18 G3 X-73.54 Z-3.683 I0 K0.318
G1 Z4
Y-61.729
Z2
Z-2 F23.3
Z-4.683
G2 X-73.223 Z-5 I0.317 K0 F30
G1 X-72.905
G17 G3 X-72.588 Y-61.412 I0 J0.318
G1 Y63 F70
G2 X-69 Y66.588 I3.588 J0
G1 X-3
G2 X0.587 Y63 I0 J-3.588
G1 Y-63
G2 X-3 Y-66.588 I-3.587 J0
G1 X-69
G2 X-72.588 Y-63 I0 J3.588
G1 Y-61.412
G3 X-72.905 Y-61.094 I-0.317 J0
G1 X-73.223
G18 G3 X-73.54 Z-4.683 I0 K0.318
G1 Z4
Y-61.729
Z2
Z-3 F23.3
Z-5.683
G2 X-73.223 Z-6 I0.317 K0 F30
G1 X-72.905
G17 G3 X-72.588 Y-61.412 I0 J0.318
G1 Y63 F70
G2 X-69 Y66.588 I3.588 J0
G1 X-3
G2 X0.587 Y63 I0 J-3.588
G1 Y-63
G2 X-3 Y-66.588 I-3.587 J0
G1 X-69
G2 X-72.588 Y-63 I0 J3.588
G1 Y-61.412
G3 X-72.905 Y-61.094 I-0.317 J0
G1 X-73.223
G18 G3 X-73.54 Z-5.683 I0 K0.318
G1 Z4
Y-61.729
Z2
Z-4 F23.3
Z-6.683
G2 X-73.223 Z-7 I0.317 K0 F30
G1 X-72.905
G17 G3 X-72.588 Y-61.412 I0 J0.318
G1 Y-50.425 F70
Z-6.206
Y-44.075
Z-7 F23.3
Y-18.925 F70
Z-6.206
Y-12.575
Z-7 F23.3
Y12.575 F70
Z-6.206
Y18.925
Z-7 F23.3
Y44.075 F70
Z-6.206
Y50.425
Z-7 F23.3
Y63 F70
G2 X-69 Y66.588 I3.588 J0
G1 X-55.675
Z-6.206
X-49.325
Z-7 F23.3
X-22.675 F70
Z-6.206
X-16.325
Z-7 F23.3
X-3 F70
G2 X0.587 Y63 I0 J-3.588
G1 Y50.425
Z-6.206
Y44.075
Z-7 F23.3
Y18.925 F70
Z-6.206
Y12.575
Z-7 F23.3
Y-12.575 F70
Z-6.206
Y-18.925
Z-7 F23.3
Y-44.075 F70
Z-6.206
Y-50.425
Z-7 F23.3
Y-63 F70
G2 X-3 Y-66.588 I-3.587 J0
G1 X-16.325
Z-6.206
X-22.675
Z-7 F23.3
X-49.325 F70
Z-6.206
X-55.675
Z-7 F23.3
X-69 F70
G2 X-72.588 Y-63 I0 J3.588
G1 Y-61.412
G3 X-72.905 Y-61.094 I-0.317 J0
G1 X-73.223
G18 G3 X-73.54 Z-6.683 I0 K0.318
G1 Z9
G17
M5
M30
