(1001tip)
(Machine)
(  vendor: Nikodem Bartnik)
(  model: Generic 3-axis Router)
(  description: This machine has XYZ axis on the Head)
(T1  D=1 CR=0.5 - ZMIN=-5.966 - ball end mill)
G90 G94
G17
G21
(When using Fusion 360 for Personal Use, the feedrate of)
(rapid moves is reduced to match the feedrate of cutting)
(moves, which can increase machining time. Unrestricted rapid)
(moves are available with a Fusion 360 Subscription.)

(Parallel1)
T1
S5000 M3
G54
G0 X2.637 Y15.6
Z3
G1 Z-1.527 F1000
Z-3.225 F333.3
Y15.592 Z-3.263 F1000
Y15.571 Z-3.296
Y15.538 Z-3.317
Y15.5 Z-3.325
Y1
Y0.978 Z-3.32
Y0.956 Z-3.315
X2.63 Y0.925
X2.61 Y0.901
X2.582 Y0.887
X2.551
X2.522 Y0.901
X2.503 Y0.925
X2.496 Y0.956
Y0.958
Y0.98 Z-3.32
Y1 Z-3.325
Y1.034 Z-3.326
Y1.131 Z-3.342
Y15.5 Z-3.345
Y15.522 Z-3.34
Y15.544 Z-3.335
X2.494 Y15.561 Z-3.336
X2.489 Y15.578 Z-3.339
X2.48 Y15.593 Z-3.343
X2.469 Y15.605 Z-3.348
X2.456 Y15.614 Z-3.354
X2.441 Y15.62 Z-3.361
X2.425 Y15.622 Z-3.369
X2.41 Y15.62 Z-3.376
X2.395 Y15.614 Z-3.383
X2.381 Y15.605 Z-3.39
X2.37 Y15.593 Z-3.395
X2.362 Y15.578 Z-3.399
X2.357 Y15.561 Z-3.401
X2.355 Y15.544 Z-3.402
Y15.522 Z-3.407
Y15.5 Z-3.413
Y1.281 Z-3.411
Y1.193 Z-3.364
Y1.094 Z-3.334
Y1 Z-3.325
Y0.983 Z-3.32
Y0.961 Z-3.315
X2.348 Y0.93
X2.328 Y0.906
X2.3 Y0.892
X2.269
X2.24 Y0.906
X2.221 Y0.93
X2.214 Y0.961
Y0.983 Z-3.32
Y1 Z-3.325
Y1.097 Z-3.334
Y1.195 Z-3.365
Y1.284 Z-3.413
Y1.358 Z-3.476
Y1.422 Z-3.558
Y15.5 Z-3.559
Y15.522 Z-3.554
Y15.544 Z-3.549
X2.213 Y15.567 Z-3.551
X2.212 Y15.59 Z-3.556
X2.21 Y15.612 Z-3.565
X2.207 Y15.632 Z-3.577
X2.204 Y15.65 Z-3.592
X2.2 Y15.665 Z-3.609
X2.195 Y15.678 Z-3.629
X2.19 Y15.687 Z-3.65
X2.185 Y15.692 Z-3.672
X2.179 Y15.694 Z-3.695
X2.107 Z-4.002
X2.102 Y15.692 Z-4.025
X2.097 Y15.687 Z-4.047
X2.092 Y15.678 Z-4.068
X2.087 Y15.665 Z-4.088
X2.083 Y15.65 Z-4.105
X2.079 Y15.632 Z-4.12
X2.077 Y15.612 Z-4.132
X2.075 Y15.59 Z-4.141
X2.073 Y15.567 Z-4.146
Y15.544 Z-4.148
Y15.522 Z-4.153
Y15.5 Z-4.158
Y1.5 Z-4.157
Y1.497 Z-3.773
Y1.467 Z-3.647
Y1.416 Z-3.548
Y1.324 Z-3.444
Y1.242 Z-3.387
Y1.148 Z-3.347
Y1.046 Z-3.327
Y1 Z-3.325
Y0.976 Z-3.318
Y0.959 Z-3.299
Y0.952 Z-3.275
X2.066 Z-3.244
X2.046 Y0.953 Z-3.22
X2.018 Y0.954 Z-3.206
X1.987
X1.958 Y0.955 Z-3.22
X1.939 Z-3.244
X1.932 Y0.956 Z-3.275
Y0.961 Z-3.299
Y0.977 Z-3.317
Y1 Z-3.325
Y1.111 Z-3.338
Y1.209 Z-3.371
Y1.295 Z-3.421
Y1.368 Z-3.486
Y1.424 Z-3.561
Y1.475 Z-3.668
Y1.498 Z-3.777
Y1.5 Z-4.336
Y2.703 Z-4.552
Y15.5
Y15.522 Z-4.547
Y15.544 Z-4.541
X1.931 Y15.566 Z-4.543
X1.928 Y15.588 Z-4.547
X1.924 Y15.609 Z-4.555
X1.918 Y15.628 Z-4.565
X1.911 Y15.645 Z-4.578
X1.903 Y15.659 Z-4.592
X1.893 Y15.671 Z-4.609
X1.883 Y15.679 Z-4.627
X1.872 Y15.685 Z-4.646
X1.861 Y15.686 Z-4.665
X1.85 Y15.685 Z-4.685
X1.84 Y15.679 Z-4.703
X1.829 Y15.671 Z-4.721
X1.82 Y15.659 Z-4.738
X1.812 Y15.645 Z-4.753
X1.804 Y15.628 Z-4.765
X1.799 Y15.609 Z-4.775
X1.794 Y15.588 Z-4.783
X1.792 Y15.566 Z-4.787
X1.791 Y15.544 Z-4.789
Y15.522 Z-4.794
Y15.5 Z-4.799
Y4.116 Z-4.805
Y1.5 Z-4.336
Z-3.812
Y1.493 Z-3.743
Y1.48 Z-3.685
Y1.454 Z-3.615
Y1.401 Z-3.526
Y1.343 Z-3.462
Y1.265 Z-3.401
Y1.175 Z-3.356
Y1.074 Z-3.331
Y1 Z-3.325
Y0.982 Z-3.32
Y0.981
Y0.959 Z-3.315
Y0.958
X1.784 Y0.927
X1.764 Y0.903
X1.736 Y0.889
X1.705
X1.677 Y0.903
X1.657 Y0.927
X1.65 Y0.958
Y0.98 Z-3.32
Y1 Z-3.325
Y1.036 Z-3.326
Y1.139 Z-3.345
Y1.233 Z-3.383
Y1.316 Z-3.438
Y1.409 Z-3.537
Y1.459 Z-3.627
Y1.486 Z-3.706
Y1.499 Z-3.792
Y1.5 Z-4.336
Y5.178 Z-4.995
Y15.5 Z-4.991
Y15.522 Z-4.986
Y15.544 Z-4.981
X1.649 Y15.562 Z-4.982
X1.646 Y15.58 Z-4.986
X1.641 Y15.597 Z-4.991
X1.633 Y15.612 Z-4.999
X1.625 Y15.625 Z-5.009
X1.615 Y15.635 Z-5.02
X1.604 Y15.643 Z-5.032
X1.592 Y15.648 Z-5.046
X1.58 Y15.649 Z-5.059
X1.567 Y15.648 Z-5.073
X1.555 Y15.643 Z-5.086
X1.544 Y15.635 Z-5.098
X1.534 Y15.625 Z-5.109
X1.526 Y15.612 Z-5.119
X1.518 Y15.597 Z-5.127
X1.513 Y15.58 Z-5.133
X1.51 Y15.562 Z-5.136
X1.509 Y15.544 Z-5.137
Y15.522 Z-5.142
Y15.5 Z-5.148
Y6.038 Z-5.149
Y1.5 Z-4.336
Y1.497 Z-3.767
Y1.47 Z-3.655
Y1.412 Z-3.541
Y1.318 Z-3.439
Y1.235 Z-3.384
Y1.14 Z-3.345
Y1.037 Z-3.326
Y1 Z-3.325
Y0.98 Z-3.32
Y0.958 Z-3.315
X1.502 Y0.927
X1.482 Y0.903
X1.454 Y0.889
X1.423
X1.395 Y0.903
X1.375 Y0.927
X1.368 Y0.958
Y0.96
Y0.982 Z-3.32
Y1 Z-3.325
Y1.088 Z-3.333
Y1.188 Z-3.362
Y1.277 Z-3.409
Y1.353 Z-3.471
Y1.434 Z-3.576
Y1.48 Z-3.685
Y1.493 Z-3.743
Y1.5 Z-3.815
Z-4.336
Y6.749 Z-5.276
Y15.5 Z-5.272
Y15.522 Z-5.267
Y15.544 Z-5.262
X1.367 Y15.561 Z-5.263
X1.363 Y15.578 Z-5.266
X1.356 Y15.593 Z-5.271
X1.347 Y15.607 Z-5.277
X1.337 Y15.618 Z-5.285
X1.325 Y15.626 Z-5.295
X1.311 Y15.631 Z-5.305
X1.298 Y15.632 Z-5.315
X1.284 Y15.631 Z-5.326
X1.271 Y15.626 Z-5.336
X1.258 Y15.618 Z-5.345
X1.248 Y15.607 Z-5.353
X1.239 Y15.593 Z-5.36
X1.232 Y15.578 Z-5.364
X1.228 Y15.561 Z-5.368
X1.227 Y15.544 Z-5.369
Y15.522 Z-5.374
Y15.5 Z-5.379
Y7.348 Z-5.384
Y1.5 Z-4.336
Y1.499 Z-3.803
Y1.48 Z-3.684
Y1.453 Z-3.614
Y1.402 Z-3.528
Y1.306 Z-3.43
Y1.222 Z-3.377
Y1.126 Z-3.341
Y1 Z-3.325
Y0.984 Z-3.32
Y0.962 Z-3.315
Y0.96
X1.22 Y0.93
X1.201 Y0.905
X1.172 Y0.891
X1.141
X1.113 Y0.905
X1.093 Y0.93
X1.086 Y0.96
Y0.982 Z-3.32
Y1 Z-3.325
Y1.083 Z-3.332
Y1.183 Z-3.36
Y1.272 Z-3.405
Y1.348 Z-3.466
Y1.431 Z-3.572
Y1.471 Z-3.657
Y1.497 Z-3.773
Y1.5 Z-4.336
Y7.829 Z-5.47
Y15.5 Z-5.473
Y15.522 Z-5.468
Y15.544 Z-5.462
X1.084 Y15.562 Z-5.463
X1.079 Y15.578 Z-5.466
X1.071 Y15.594 Z-5.47
X1.06 Y15.606 Z-5.476
X1.046 Y15.616 Z-5.483
X1.031 Y15.621 Z-5.491
X1.016 Y15.623 Z-5.499
X1 Y15.621 Z-5.507
X0.985 Y15.616 Z-5.515
X0.972 Y15.606 Z-5.522
X0.961 Y15.594 Z-5.528
X0.952 Y15.578 Z-5.532
X0.947 Y15.562 Z-5.535
X0.945 Y15.544 Z-5.536
Y15.522 Z-5.541
Y15.5 Z-5.546
Y8.278 Z-5.55
Y1.5 Z-4.336
Y1.499 Z-3.789
Y1.479 Z-3.681
Y1.439 Z-3.586
Y1.36 Z-3.478
Y1.287 Z-3.415
Y1.2 Z-3.367
Y1.102 Z-3.335
Y1 Z-3.325
Y0.983 Z-3.32
Y0.961 Z-3.315
Y0.96
X0.938 Y0.929
X0.919 Y0.904
X0.89 Y0.891
X0.859
X0.831 Y0.904
X0.811 Y0.929
X0.804 Y0.96
Y0.982 Z-3.32
Y1 Z-3.325
Y1.072 Z-3.33
Y1.172 Z-3.355
Y1.262 Z-3.399
Y1.34 Z-3.459
Y1.403 Z-3.529
Y1.468 Z-3.649
Y1.495 Z-3.755
Y1.5 Z-4.336
Y8.609 Z-5.61
Y15.5 Z-5.609
Y15.522 Z-5.604
Y15.544 Z-5.599
X0.802 Y15.561 Z-5.6
X0.797 Y15.577 Z-5.602
X0.789 Y15.591 Z-5.605
X0.778 Y15.603 Z-5.609
X0.764 Y15.612 Z-5.614
X0.749 Y15.617 Z-5.62
X0.734 Y15.619 Z-5.625
X0.718 Y15.617 Z-5.631
X0.703 Y15.612 Z-5.637
X0.69 Y15.603 Z-5.642
X0.679 Y15.591 Z-5.646
X0.67 Y15.577 Z-5.649
X0.665 Y15.561 Z-5.651
X0.663 Y15.544 Z-5.652
Y15.522 Z-5.657
Y15.5 Z-5.662
Y8.913 Z-5.664
Y1.5 Z-4.336
Y1.497 Z-3.774
Y1.481 Z-3.688
Y1.455 Z-3.617
Y1.41 Z-3.539
Y1.349 Z-3.467
Y1.272 Z-3.405
Y1.182 Z-3.359
Y1.082 Z-3.332
Y1 Z-3.325
Y0.982 Z-3.32
Y0.96 Z-3.315
X0.656 Y0.929
X0.637 Y0.905
X0.608 Y0.891
X0.577
X0.549 Y0.905
X0.529 Y0.929
X0.522 Y0.96
Y0.982 Z-3.32
Y1 Z-3.325
Y1.074 Z-3.33
Y1.174 Z-3.356
Y1.265 Z-3.401
Y1.343 Z-3.461
Y1.428 Z-3.567
Y1.474 Z-3.664
Y1.496 Z-3.763
Y1.5 Z-4.336
Y9.143 Z-5.705
Y15.5 Z-5.701
Y15.522 Z-5.696
Y15.544 Z-5.69
X0.521 Y15.56 Z-5.691
X0.515 Y15.575 Z-5.692
X0.507 Y15.589 Z-5.694
X0.496 Y15.601 Z-5.697
X0.482 Y15.609 Z-5.7
X0.467 Y15.615 Z-5.704
X0.452 Y15.617 Z-5.708
X0.436 Y15.615 Z-5.711
X0.421 Y15.609 Z-5.715
X0.408 Y15.601 Z-5.718
X0.397 Y15.589 Z-5.721
X0.388 Y15.575 Z-5.723
X0.383 Y15.56 Z-5.724
X0.381 Y15.544 Z-5.725
Y15.522 Z-5.73
Y15.5 Z-5.735
Y9.306 Z-5.734
Y1.5 Z-4.336
Y1.498 Z-3.781
Y1.482 Z-3.691
Y1.435 Z-3.579
Y1.356 Z-3.474
Y1.28 Z-3.411
Y1.192 Z-3.363
Y1.093 Z-3.334
Y1 Z-3.325
Y0.983 Z-3.32
Y0.982
Y0.96 Z-3.315
Y0.959
X0.374 Y0.928
X0.355 Y0.904
X0.327 Y0.89
X0.295
X0.267 Y0.904
X0.247 Y0.928
X0.24 Y0.959
Y0.981 Z-3.32
Y1 Z-3.325
Y1.055 Z-3.328
Y1.157 Z-3.35
Y1.25 Z-3.392
Y1.33 Z-3.45
Y1.42 Z-3.554
Y1.475 Z-3.668
Y1.498 Z-3.78
Y1.5 Z-4.336
Y9.401 Z-5.751
Y15.5 Z-5.752
Y15.522 Z-5.747
Y15.544 Z-5.742
X0.239 Y15.56
X0.233 Y15.575
X0.225 Y15.588 Z-5.743
X0.214 Y15.599 Z-5.744
X0.2 Y15.608 Z-5.745
X0.186 Y15.613 Z-5.747
X0.17 Y15.615 Z-5.748
X0.154 Y15.613 Z-5.75
X0.139 Y15.608 Z-5.751
X0.126 Y15.599 Z-5.753
X0.115 Y15.588 Z-5.754
X0.106 Y15.575
X0.101 Y15.56 Z-5.755
X0.099 Y15.544
Y15.522 Z-5.76
Y15.5 Z-5.765
Y9.478
Y1.5 Z-4.336
Y1.497 Z-3.774
Y1.471 Z-3.657
Y1.431 Z-3.572
Y1.348 Z-3.466
Y1.272 Z-3.406
Y1.183 Z-3.36
Y1.084 Z-3.332
Y1 Z-3.325
Y0.982 Z-3.32
Y0.96 Z-3.315
X0.092 Y0.93
X0.073 Y0.905
X0.045 Y0.891
X0.013
X-0.015 Y0.905
X-0.035 Y0.93
X-0.042 Y0.96
Y0.962
Y0.984 Z-3.32
Y1 Z-3.325
Y1.127 Z-3.341
Y1.223 Z-3.377
Y1.307 Z-3.43
Y1.402 Z-3.528
Y1.454 Z-3.615
Y1.48 Z-3.685
Y1.493 Z-3.744
Y1.5 Z-3.816
Z-4.336
Y9.484 Z-5.766
Y15.5 Z-5.765
Y15.522 Z-5.76
Y15.544 Z-5.755
X-0.043 Y15.56
X-0.049 Y15.575
X-0.057 Y15.588 Z-5.754
X-0.068 Y15.599
X-0.081 Y15.608 Z-5.753
X-0.096 Y15.613
X-0.112 Y15.615 Z-5.752
X-0.128 Y15.613 Z-5.751
X-0.143 Y15.608 Z-5.75
X-0.156 Y15.599
X-0.167 Y15.588 Z-5.749
X-0.176 Y15.575
X-0.181 Y15.56
X-0.183 Y15.544
Y15.522 Z-5.754
Y15.5 Z-5.759
Y9.458 Z-5.762
Y1.5 Z-4.336
Y1.498 Z-3.775
Y1.481 Z-3.689
Y1.455 Z-3.617
Y1.41 Z-3.539
Y1.349 Z-3.467
Y1.272 Z-3.406
Y1.182 Z-3.359
Y1.082 Z-3.332
Y1 Z-3.325
Y0.982 Z-3.32
Y0.96 Z-3.315
X-0.19 Y0.93
X-0.209 Y0.905
X-0.237 Y0.891
X-0.269
X-0.297 Y0.905
X-0.317 Y0.93
X-0.323 Y0.96
Y0.961
Y0.983 Z-3.32
Y0.984
Y1 Z-3.325
Y1.11 Z-3.337
Y1.207 Z-3.37
Y1.294 Z-3.421
Y1.367 Z-3.485
Y1.424 Z-3.56
Y1.474 Z-3.666
Y1.497 Z-3.773
Y1.5 Z-4.336
Y9.365 Z-5.745
Y15.5 Z-5.742
Y15.522 Z-5.737
Y15.544 Z-5.732
X-0.325 Y15.56 Z-5.731
X-0.33 Y15.575 Z-5.73
X-0.339 Y15.589 Z-5.729
X-0.35 Y15.6 Z-5.726
X-0.363 Y15.609 Z-5.724
X-0.378 Y15.614 Z-5.721
X-0.394 Y15.616 Z-5.718
X-0.41 Y15.614 Z-5.715
X-0.425 Y15.609 Z-5.712
X-0.438 Y15.6 Z-5.71
X-0.449 Y15.589 Z-5.707
X-0.457 Y15.575 Z-5.706
X-0.463 Y15.56 Z-5.705
X-0.464 Y15.544
Y15.522 Z-5.71
Y15.5 Z-5.715
Y9.218 Z-5.719
Y1.5 Z-4.336
Y1.498 Z-3.779
Y1.475 Z-3.668
Y1.435 Z-3.579
Y1.353 Z-3.471
Y1.278 Z-3.409
Y1.188 Z-3.362
Y1.089 Z-3.333
Y1 Z-3.325
Y0.982 Z-3.32
Y0.96 Z-3.315
Y0.959
X-0.471 Y0.929
X-0.491 Y0.904
X-0.519 Y0.89
X-0.551
X-0.579 Y0.904
X-0.598 Y0.929
X-0.605 Y0.959
Y0.981 Z-3.32
Y1 Z-3.325
Y1.062 Z-3.329
Y1.163 Z-3.352
Y1.254 Z-3.395
Y1.334 Z-3.453
Y1.421 Z-3.556
Y1.469 Z-3.651
Y1.498 Z-3.786
Y1.5 Z-4.336
Y9.008 Z-5.681
Y15.5 Z-5.68
Y15.522 Z-5.675
Y15.544 Z-5.67
X-0.607 Y15.561
X-0.612 Y15.576 Z-5.668
X-0.621 Y15.591 Z-5.665
X-0.632 Y15.602 Z-5.661
X-0.645 Y15.611 Z-5.656
X-0.66 Y15.617 Z-5.651
X-0.676 Y15.619 Z-5.645
X-0.692 Y15.617 Z-5.64
X-0.706 Y15.611 Z-5.635
X-0.72 Y15.602 Z-5.63
X-0.731 Y15.591 Z-5.626
X-0.739 Y15.576 Z-5.623
X-0.745 Y15.561 Z-5.621
X-0.746 Y15.544
Y15.522 Z-5.626
Y15.5 Z-5.631
Y8.755 Z-5.636
Y1.5 Z-4.336
Y1.498 Z-3.785
Y1.475 Z-3.668
Y1.428 Z-3.567
Y1.342 Z-3.461
Y1.264 Z-3.401
Y1.173 Z-3.356
Y1.073 Z-3.33
Y1 Z-3.325
Y0.982 Z-3.32
Y0.96 Z-3.315
X-0.753 Y0.929
X-0.773 Y0.905
X-0.801 Y0.891
X-0.833
X-0.861 Y0.905
X-0.88 Y0.929
X-0.887 Y0.96
Y0.982 Z-3.32
Y1 Z-3.325
Y1.087 Z-3.333
Y1.185 Z-3.361
Y1.274 Z-3.407
Y1.35 Z-3.468
Y1.433 Z-3.574
Y1.48 Z-3.685
Y1.498 Z-3.779
Y1.5 Z-4.336
Y8.43 Z-5.578
Y15.5 Z-5.576
Y15.522 Z-5.571
Y15.544 Z-5.566
X-0.889 Y15.562 Z-5.565
X-0.894 Y15.578 Z-5.562
X-0.903 Y15.593 Z-5.558
X-0.914 Y15.606 Z-5.552
X-0.927 Y15.616 Z-5.545
X-0.942 Y15.621 Z-5.537
X-0.958 Y15.623 Z-5.529
X-0.973 Y15.621 Z-5.521
X-0.988 Y15.616 Z-5.513
X-1.002 Y15.606 Z-5.506
X-1.013 Y15.593 Z-5.5
X-1.021 Y15.578 Z-5.496
X-1.027 Y15.562 Z-5.493
X-1.028 Y15.544 Z-5.492
Y15.522 Z-5.498
Y15.5 Z-5.503
Y8.037 Z-5.507
Y1.5 Z-4.336
Y1.496 Z-3.764
Y1.476 Z-3.673
Y1.429 Z-3.568
Y1.346 Z-3.464
Y1.269 Z-3.403
Y1.179 Z-3.358
Y1.078 Z-3.331
Y1 Z-3.325
Y0.982 Z-3.32
Y0.96 Z-3.315
X-1.035 Y0.929
X-1.055 Y0.905
X-1.083 Y0.891
X-1.114
X-1.143 Y0.905
X-1.162 Y0.929
X-1.169 Y0.96
Y0.961
Y0.983 Z-3.32
Y1 Z-3.325
Y1.102 Z-3.335
Y1.2 Z-3.367
Y1.288 Z-3.416
Y1.362 Z-3.48
Y1.415 Z-3.546
Y1.468 Z-3.649
Y1.498 Z-3.777
Y1.5 Z-4.336
Y7.54 Z-5.418
Y15.5
Y15.522 Z-5.413
Y15.544 Z-5.408
X-1.171 Y15.561 Z-5.407
X-1.175 Y15.577 Z-5.404
X-1.181 Y15.591 Z-5.4
X-1.19 Y15.604 Z-5.394
X-1.201 Y15.615 Z-5.387
X-1.213 Y15.623 Z-5.378
X-1.226 Y15.628 Z-5.369
X-1.24 Y15.629 Z-5.36
X-1.253 Y15.628 Z-5.351
X-1.267 Y15.623 Z-5.342
X-1.279 Y15.615 Z-5.333
X-1.29 Y15.604 Z-5.326
X-1.298 Y15.591 Z-5.32
X-1.305 Y15.577 Z-5.316
X-1.309 Y15.561 Z-5.313
X-1.31 Y15.544 Z-5.312
Y15.522 Z-5.317
Y15.5 Z-5.322
Y7.008 Z-5.323
Y1.5 Z-4.336
Y1.497 Z-3.768
Y1.472 Z-3.661
Y1.411 Z-3.541
Y1.317 Z-3.438
Y1.234 Z-3.383
Y1.139 Z-3.345
Y1.036 Z-3.326
Y1 Z-3.325
Y0.976 Z-3.318
Y0.958 Z-3.3
Y0.952 Z-3.275
X-1.317 Z-3.244
X-1.337 Z-3.22
X-1.365 Y0.953 Z-3.206
X-1.396 Y0.954
X-1.425 Z-3.22
X-1.444 Y0.955 Z-3.244
X-1.451 Z-3.275
Y0.961 Z-3.299
Y0.977 Z-3.317
Y1 Z-3.325
Y1.101 Z-3.335
Y1.199 Z-3.366
Y1.287 Z-3.415
Y1.361 Z-3.479
Y1.439 Z-3.585
Y1.482 Z-3.691
Y1.499 Z-3.8
Y1.5 Z-4.336
Y6.346 Z-5.204
Y15.5 Z-5.199
Y15.522 Z-5.194
Y15.544 Z-5.189
X-1.453 Y15.564 Z-5.188
X-1.457 Y15.583 Z-5.184
X-1.463 Y15.6 Z-5.177
X-1.472 Y15.615 Z-5.168
X-1.483 Y15.628 Z-5.157
X-1.495 Y15.637 Z-5.145
X-1.508 Y15.643 Z-5.131
X-1.522 Y15.645 Z-5.117
X-1.535 Y15.643 Z-5.103
X-1.549 Y15.637 Z-5.09
X-1.561 Y15.628 Z-5.077
X-1.572 Y15.615 Z-5.066
X-1.58 Y15.6 Z-5.057
X-1.587 Y15.583 Z-5.051
X-1.591 Y15.564 Z-5.047
X-1.592 Y15.544 Z-5.045
Y15.522 Z-5.05
Y15.5 Z-5.055
Y5.546 Z-5.061
Y1.5 Z-4.336
Y1.497 Z-3.768
Y1.487 Z-3.711
Y1.445 Z-3.597
Y1.369 Z-3.488
Y1.297 Z-3.423
Y1.211 Z-3.372
Y1.114 Z-3.338
Y1 Z-3.325
Y0.984 Z-3.32
Y0.962 Z-3.315
Y0.961
X-1.599 Y0.93
X-1.619 Y0.906
X-1.647 Y0.892
X-1.678
X-1.707 Y0.906
X-1.726 Y0.93
X-1.733 Y0.961
Y0.983 Z-3.32
Y1 Z-3.325
Y1.098 Z-3.335
Y1.197 Z-3.365
Y1.285 Z-3.414
Y1.359 Z-3.477
Y1.438 Z-3.583
Y1.481 Z-3.688
Y1.499 Z-3.787
Y1.5 Z-4.336
Y4.562 Z-4.885
Y15.5 Z-4.881
Y15.522 Z-4.876
Y15.544 Z-4.871
X-1.734 Y15.565 Z-4.87
X-1.737 Y15.585 Z-4.866
X-1.741 Y15.604 Z-4.859
X-1.747 Y15.621 Z-4.85
X-1.754 Y15.637 Z-4.838
X-1.762 Y15.65 Z-4.825
X-1.772 Y15.661 Z-4.81
X-1.782 Y15.669 Z-4.794
X-1.793 Y15.674 Z-4.777
X-1.804 Y15.676 Z-4.76
X-1.815 Y15.674 Z-4.742
X-1.825 Y15.669 Z-4.726
X-1.836 Y15.661 Z-4.709
X-1.845 Y15.65 Z-4.695
X-1.853 Y15.637 Z-4.681
X-1.861 Y15.621 Z-4.67
X-1.866 Y15.604 Z-4.661
X-1.871 Y15.585 Z-4.654
X-1.873 Y15.565 Z-4.65
X-1.874 Y15.544 Z-4.649
Y15.522 Z-4.654
Y15.5 Z-4.659
Y3.346 Z-4.667
Y1.5 Z-4.336
Z-3.815
Y1.493 Z-3.743
Y1.48 Z-3.685
Y1.434 Z-3.576
Y1.353 Z-3.471
Y1.277 Z-3.409
Y1.188 Z-3.362
Y1.088 Z-3.333
Y1 Z-3.325
Y0.982 Z-3.32
Y0.96 Z-3.315
Y0.958
X-1.881 Y0.927
X-1.901 Y0.903
X-1.929 Y0.889
X-1.96
X-1.988 Y0.903
X-2.008 Y0.927
X-2.015 Y0.958
Y0.98 Z-3.32
Y1 Z-3.325
Y1.034 Z-3.326
Y1.137 Z-3.344
Y1.232 Z-3.382
Y1.316 Z-3.437
Y1.41 Z-3.539
Y1.47 Z-3.653
Y1.498 Z-3.782
Y1.5 Z-4.336
Y1.561 Z-4.347
Y15.5 Z-4.349
Y15.522 Z-4.344
Y15.544 Z-4.339
Y15.567 Z-4.337
X-2.017 Y15.59 Z-4.332
X-2.018 Y15.612 Z-4.323
X-2.021 Y15.632 Z-4.311
X-2.024 Y15.65 Z-4.296
X-2.028 Y15.665 Z-4.279
X-2.032 Y15.678 Z-4.259
X-2.037 Y15.687 Z-4.238
X-2.041 Y15.692 Z-4.215
X-2.046 Y15.694 Z-4.192
X-2.125 Z-3.826
X-2.13 Y15.692 Z-3.804
X-2.134 Y15.687 Z-3.781
X-2.139 Y15.678 Z-3.76
X-2.143 Y15.665 Z-3.74
X-2.147 Y15.65 Z-3.723
X-2.15 Y15.632 Z-3.708
X-2.153 Y15.612 Z-3.696
X-2.154 Y15.59 Z-3.687
X-2.156 Y15.567 Z-3.682
Y15.544 Z-3.68
Y15.522 Z-3.685
Y15.5 Z-3.69
Y1.481 Z-3.687
Y1.445 Z-3.596
Y1.396 Z-3.519
Y1.33 Z-3.449
Y1.25 Z-3.392
Y1.157 Z-3.35
Y1.055 Z-3.328
Y1 Z-3.325
Y0.981 Z-3.32
Y0.959 Z-3.315
X-2.163 Y0.928
X-2.183 Y0.904
X-2.211 Y0.89
X-2.242
X-2.27 Y0.904
X-2.29 Y0.928
X-2.297 Y0.959
Y0.981 Z-3.32
Y1 Z-3.325
Y1.062 Z-3.329
Y1.164 Z-3.353
Y1.256 Z-3.395
Y1.339 Z-3.457
Y15.5 Z-3.459
Y15.522 Z-3.454
Y15.544 Z-3.449
X-2.298 Y15.56 Z-3.448
X-2.302 Y15.576 Z-3.445
X-2.309 Y15.591 Z-3.441
X-2.318 Y15.604 Z-3.435
X-2.328 Y15.614 Z-3.428
X-2.34 Y15.622 Z-3.42
X-2.354 Y15.627 Z-3.411
X-2.367 Y15.628 Z-3.402
X-2.381 Y15.627 Z-3.393
X-2.394 Y15.622 Z-3.385
X-2.407 Y15.614 Z-3.377
X-2.417 Y15.604 Z-3.37
X-2.426 Y15.591 Z-3.364
X-2.433 Y15.576 Z-3.36
X-2.437 Y15.56 Z-3.357
X-2.438 Y15.544 Z-3.356
Y15.522 Z-3.361
Y15.5 Z-3.367
Y1.199 Z-3.366
Y1.1 Z-3.335
Y1 Z-3.325
Y0.977 Z-3.317
Y0.961 Z-3.299
Y0.955 Z-3.275
X-2.445 Z-3.244
X-2.464 Y0.954 Z-3.22
X-2.493 Y0.953 Z-3.206
X-2.524 Y0.952
X-2.552 Y0.951 Z-3.22
X-2.572 Y0.95 Z-3.244
X-2.579 Z-3.275
Y0.957 Z-3.3
Y0.975 Z-3.318
Y1 Z-3.325
Y15.5 Z-3.328
X-2.577 Y15.523 Z-3.329
X-2.572 Y15.546
X-2.563 Y15.568
X-2.55 Y15.588 Z-3.33
X-2.535 Y15.606
X-2.517 Y15.621 Z-3.331
X-2.497 Y15.634 Z-3.332
X-2.475 Y15.643
X-2.452 Y15.648 Z-3.333
X-2.429 Y15.65 Z-3.334
X2.487 Z-3.519
X2.51 Y15.648 Z-3.52
X2.533 Y15.643 Z-3.521
X2.555 Y15.634 Z-3.522
X2.575 Y15.621 Z-3.523
X2.593 Y15.606
X2.608 Y15.588 Z-3.524
X2.62 Y15.568
X2.629 Y15.546 Z-3.525
X2.635 Y15.523
X2.637 Y15.5
Y1
Y0.978 Z-3.52
Y0.956 Z-3.515
X2.63 Y0.925
X2.61 Y0.901
X2.582 Y0.887
X2.551
X2.522 Y0.901
X2.503 Y0.925
X2.496 Y0.956
Y0.958
Y0.98 Z-3.52
Y1 Z-3.525
Y1.034 Z-3.526
Y1.131 Z-3.542
Y15.5 Z-3.545
Y15.522 Z-3.54
Y15.544 Z-3.535
X2.494 Y15.561 Z-3.536
X2.489 Y15.578 Z-3.539
X2.48 Y15.593 Z-3.543
X2.469 Y15.605 Z-3.548
X2.456 Y15.614 Z-3.554
X2.441 Y15.62 Z-3.561
X2.425 Y15.622 Z-3.569
X2.41 Y15.62 Z-3.576
X2.395 Y15.614 Z-3.583
X2.381 Y15.605 Z-3.59
X2.37 Y15.593 Z-3.595
X2.362 Y15.578 Z-3.599
X2.357 Y15.561 Z-3.601
X2.355 Y15.544 Z-3.602
Y15.522 Z-3.607
Y15.5 Z-3.613
Y1.281 Z-3.611
Y1.193 Z-3.564
Y1.094 Z-3.534
Y1 Z-3.525
Y0.983 Z-3.52
Y0.961 Z-3.515
X2.348 Y0.93
X2.328 Y0.906
X2.3 Y0.892
X2.269
X2.24 Y0.906
X2.221 Y0.93
X2.214 Y0.961
Y0.983 Z-3.52
Y1 Z-3.525
Y1.097 Z-3.534
Y1.195 Z-3.565
Y1.284 Z-3.613
Y1.358 Z-3.676
Y1.422 Z-3.758
Y15.5 Z-3.759
Y15.522 Z-3.754
Y15.544 Z-3.749
X2.213 Y15.567 Z-3.751
X2.212 Y15.59 Z-3.756
X2.21 Y15.612 Z-3.765
X2.207 Y15.632 Z-3.777
X2.204 Y15.65 Z-3.792
X2.2 Y15.665 Z-3.809
X2.195 Y15.678 Z-3.829
X2.19 Y15.687 Z-3.85
X2.185 Y15.692 Z-3.872
X2.179 Y15.694 Z-3.895
X2.107 Z-4.202
X2.102 Y15.692 Z-4.225
X2.097 Y15.687 Z-4.247
X2.092 Y15.678 Z-4.268
X2.087 Y15.665 Z-4.288
X2.083 Y15.65 Z-4.305
X2.079 Y15.632 Z-4.32
X2.077 Y15.612 Z-4.332
X2.075 Y15.59 Z-4.341
X2.073 Y15.567 Z-4.346
Y15.544 Z-4.348
Y15.522 Z-4.353
Y15.5 Z-4.358
Y1.5 Z-4.357
Y1.497 Z-3.973
Y1.467 Z-3.847
Y1.416 Z-3.748
Y1.324 Z-3.644
Y1.242 Z-3.587
Y1.148 Z-3.547
Y1.046 Z-3.527
Y1 Z-3.525
Y0.976 Z-3.518
Y0.959 Z-3.499
Y0.952 Z-3.475
X2.066 Z-3.444
X2.046 Y0.953 Z-3.42
X2.018 Y0.954 Z-3.406
X1.987
X1.958 Y0.955 Z-3.42
X1.939 Z-3.444
X1.932 Y0.956 Z-3.475
Y0.961 Z-3.499
Y0.977 Z-3.517
Y1 Z-3.525
Y1.111 Z-3.538
Y1.209 Z-3.571
Y1.295 Z-3.621
Y1.368 Z-3.686
Y1.424 Z-3.761
Y1.475 Z-3.868
Y1.498 Z-3.977
Y1.5 Z-4.536
Y2.703 Z-4.752
Y15.5
Y15.522 Z-4.747
Y15.544 Z-4.741
X1.931 Y15.566 Z-4.743
X1.928 Y15.588 Z-4.747
X1.924 Y15.609 Z-4.755
X1.918 Y15.628 Z-4.765
X1.911 Y15.645 Z-4.778
X1.903 Y15.659 Z-4.792
X1.893 Y15.671 Z-4.809
X1.883 Y15.679 Z-4.827
X1.872 Y15.685 Z-4.846
X1.861 Y15.686 Z-4.865
X1.85 Y15.685 Z-4.885
X1.84 Y15.679 Z-4.903
X1.829 Y15.671 Z-4.921
X1.82 Y15.659 Z-4.938
X1.812 Y15.645 Z-4.953
X1.804 Y15.628 Z-4.965
X1.799 Y15.609 Z-4.975
X1.794 Y15.588 Z-4.983
X1.792 Y15.566 Z-4.987
X1.791 Y15.544 Z-4.989
Y15.522 Z-4.994
Y15.5 Z-4.999
Y4.116 Z-5.005
Y1.5 Z-4.536
Z-4.012
Y1.493 Z-3.943
Y1.48 Z-3.885
Y1.454 Z-3.815
Y1.401 Z-3.726
Y1.343 Z-3.662
Y1.265 Z-3.601
Y1.175 Z-3.556
Y1.074 Z-3.531
Y1 Z-3.525
Y0.982 Z-3.52
Y0.981
Y0.959 Z-3.515
Y0.958
X1.784 Y0.927
X1.764 Y0.903
X1.736 Y0.889
X1.705
X1.677 Y0.903
X1.657 Y0.927
X1.65 Y0.958
Y0.98 Z-3.52
Y1 Z-3.525
Y1.036 Z-3.526
Y1.139 Z-3.545
Y1.233 Z-3.583
Y1.316 Z-3.638
Y1.409 Z-3.737
Y1.459 Z-3.827
Y1.486 Z-3.906
Y1.499 Z-3.992
Y1.5 Z-4.536
Y5.178 Z-5.195
Y15.5 Z-5.191
Y15.522 Z-5.186
Y15.544 Z-5.181
X1.649 Y15.562 Z-5.182
X1.646 Y15.58 Z-5.186
X1.641 Y15.597 Z-5.191
X1.633 Y15.612 Z-5.199
X1.625 Y15.625 Z-5.209
X1.615 Y15.635 Z-5.22
X1.604 Y15.643 Z-5.232
X1.592 Y15.648 Z-5.246
X1.58 Y15.649 Z-5.259
X1.567 Y15.648 Z-5.273
X1.555 Y15.643 Z-5.286
X1.544 Y15.635 Z-5.298
X1.534 Y15.625 Z-5.309
X1.526 Y15.612 Z-5.319
X1.518 Y15.597 Z-5.327
X1.513 Y15.58 Z-5.333
X1.51 Y15.562 Z-5.336
X1.509 Y15.544 Z-5.337
Y15.522 Z-5.342
Y15.5 Z-5.348
Y6.038 Z-5.349
Y1.5 Z-4.536
Y1.497 Z-3.967
Y1.47 Z-3.855
Y1.412 Z-3.741
Y1.318 Z-3.639
Y1.235 Z-3.584
Y1.14 Z-3.545
Y1.037 Z-3.526
Y1 Z-3.525
Y0.98 Z-3.52
Y0.958 Z-3.515
X1.502 Y0.927
X1.482 Y0.903
X1.454 Y0.889
X1.423
X1.395 Y0.903
X1.375 Y0.927
X1.368 Y0.958
Y0.96
Y0.982 Z-3.52
Y1 Z-3.525
Y1.088 Z-3.533
Y1.188 Z-3.562
Y1.277 Z-3.609
Y1.353 Z-3.671
Y1.434 Z-3.776
Y1.48 Z-3.885
Y1.493 Z-3.943
Y1.5 Z-4.015
Z-4.536
Y6.749 Z-5.476
Y15.5 Z-5.472
Y15.522 Z-5.467
Y15.544 Z-5.462
X1.367 Y15.561 Z-5.463
X1.363 Y15.578 Z-5.466
X1.356 Y15.593 Z-5.471
X1.347 Y15.607 Z-5.477
X1.337 Y15.618 Z-5.485
X1.325 Y15.626 Z-5.495
X1.311 Y15.631 Z-5.505
X1.298 Y15.632 Z-5.515
X1.284 Y15.631 Z-5.526
X1.271 Y15.626 Z-5.536
X1.258 Y15.618 Z-5.545
X1.248 Y15.607 Z-5.553
X1.239 Y15.593 Z-5.56
X1.232 Y15.578 Z-5.564
X1.228 Y15.561 Z-5.568
X1.227 Y15.544 Z-5.569
Y15.522 Z-5.574
Y15.5 Z-5.579
Y7.348 Z-5.584
Y1.5 Z-4.536
Y1.499 Z-4.003
Y1.48 Z-3.884
Y1.453 Z-3.814
Y1.402 Z-3.728
Y1.306 Z-3.63
Y1.222 Z-3.577
Y1.126 Z-3.541
Y1 Z-3.525
Y0.984 Z-3.52
Y0.962 Z-3.515
Y0.96
X1.22 Y0.93
X1.201 Y0.905
X1.172 Y0.891
X1.141
X1.113 Y0.905
X1.093 Y0.93
X1.086 Y0.96
Y0.982 Z-3.52
Y1 Z-3.525
Y1.083 Z-3.532
Y1.183 Z-3.56
Y1.272 Z-3.605
Y1.348 Z-3.666
Y1.431 Z-3.772
Y1.471 Z-3.857
Y1.497 Z-3.973
Y1.5 Z-4.536
Y7.829 Z-5.67
Y15.5 Z-5.673
Y15.522 Z-5.668
Y15.544 Z-5.662
X1.084 Y15.562 Z-5.663
X1.079 Y15.578 Z-5.666
X1.071 Y15.594 Z-5.67
X1.06 Y15.606 Z-5.676
X1.046 Y15.616 Z-5.683
X1.031 Y15.621 Z-5.691
X1.016 Y15.623 Z-5.699
X1 Y15.621 Z-5.707
X0.985 Y15.616 Z-5.715
X0.972 Y15.606 Z-5.722
X0.961 Y15.594 Z-5.728
X0.952 Y15.578 Z-5.732
X0.947 Y15.562 Z-5.735
X0.945 Y15.544 Z-5.736
Y15.522 Z-5.741
Y15.5 Z-5.746
Y8.278 Z-5.75
Y1.5 Z-4.536
Y1.499 Z-3.989
Y1.479 Z-3.881
Y1.439 Z-3.786
Y1.36 Z-3.678
Y1.287 Z-3.615
Y1.2 Z-3.567
Y1.102 Z-3.535
Y1 Z-3.525
Y0.983 Z-3.52
Y0.961 Z-3.515
Y0.96
X0.938 Y0.929
X0.919 Y0.904
X0.89 Y0.891
X0.859
X0.831 Y0.904
X0.811 Y0.929
X0.804 Y0.96
Y0.982 Z-3.52
Y1 Z-3.525
Y1.072 Z-3.53
Y1.172 Z-3.555
Y1.262 Z-3.599
Y1.34 Z-3.659
Y1.403 Z-3.729
Y1.468 Z-3.849
Y1.495 Z-3.955
Y1.5 Z-4.536
Y8.609 Z-5.81
Y15.5 Z-5.809
Y15.522 Z-5.804
Y15.544 Z-5.799
X0.802 Y15.561 Z-5.8
X0.797 Y15.577 Z-5.802
X0.789 Y15.591 Z-5.805
X0.778 Y15.603 Z-5.809
X0.764 Y15.612 Z-5.814
X0.749 Y15.617 Z-5.82
X0.734 Y15.619 Z-5.825
X0.718 Y15.617 Z-5.831
X0.703 Y15.612 Z-5.837
X0.69 Y15.603 Z-5.842
X0.679 Y15.591 Z-5.846
X0.67 Y15.577 Z-5.849
X0.665 Y15.561 Z-5.851
X0.663 Y15.544 Z-5.852
Y15.522 Z-5.857
Y15.5 Z-5.862
Y8.913 Z-5.864
Y1.5 Z-4.536
Y1.497 Z-3.974
Y1.481 Z-3.888
Y1.455 Z-3.817
Y1.41 Z-3.739
Y1.349 Z-3.667
Y1.272 Z-3.605
Y1.182 Z-3.559
Y1.082 Z-3.532
Y1 Z-3.525
Y0.982 Z-3.52
Y0.96 Z-3.515
X0.656 Y0.929
X0.637 Y0.905
X0.608 Y0.891
X0.577
X0.549 Y0.905
X0.529 Y0.929
X0.522 Y0.96
Y0.982 Z-3.52
Y1 Z-3.525
Y1.074 Z-3.53
Y1.174 Z-3.556
Y1.265 Z-3.601
Y1.343 Z-3.661
Y1.428 Z-3.767
Y1.474 Z-3.864
Y1.496 Z-3.963
Y1.5 Z-4.536
Y9.143 Z-5.905
Y15.5 Z-5.901
Y15.522 Z-5.896
Y15.544 Z-5.89
X0.521 Y15.56 Z-5.891
X0.515 Y15.575 Z-5.892
X0.507 Y15.589 Z-5.894
X0.496 Y15.601 Z-5.897
X0.482 Y15.609 Z-5.9
X0.467 Y15.615 Z-5.904
X0.452 Y15.617 Z-5.908
X0.436 Y15.615 Z-5.911
X0.421 Y15.609 Z-5.915
X0.408 Y15.601 Z-5.918
X0.397 Y15.589 Z-5.921
X0.388 Y15.575 Z-5.923
X0.383 Y15.56 Z-5.924
X0.381 Y15.544 Z-5.925
Y15.522 Z-5.93
Y15.5 Z-5.935
Y9.306 Z-5.934
Y1.5 Z-4.536
Y1.498 Z-3.981
Y1.482 Z-3.891
Y1.435 Z-3.779
Y1.356 Z-3.674
Y1.28 Z-3.611
Y1.192 Z-3.563
Y1.093 Z-3.534
Y1 Z-3.525
Y0.983 Z-3.52
Y0.982
Y0.96 Z-3.515
Y0.959
X0.374 Y0.928
X0.355 Y0.904
X0.327 Y0.89
X0.295
X0.267 Y0.904
X0.247 Y0.928
X0.24 Y0.959
Y0.981 Z-3.52
Y1 Z-3.525
Y1.055 Z-3.528
Y1.157 Z-3.55
Y1.25 Z-3.592
Y1.33 Z-3.65
Y1.42 Z-3.754
Y1.475 Z-3.868
Y1.498 Z-3.98
Y1.5 Z-4.536
Y9.401 Z-5.951
Y15.5 Z-5.952
Y15.522 Z-5.947
Y15.544 Z-5.942
X0.239 Y15.56
X0.233 Y15.575
X0.225 Y15.588 Z-5.943
X0.214 Y15.599 Z-5.944
X0.2 Y15.608 Z-5.945
X0.186 Y15.613 Z-5.947
X0.17 Y15.615 Z-5.948
X0.154 Y15.613 Z-5.95
X0.139 Y15.608 Z-5.951
X0.126 Y15.599 Z-5.953
X0.115 Y15.588 Z-5.954
X0.106 Y15.575
X0.101 Y15.56 Z-5.955
X0.099 Y15.544
Y15.522 Z-5.96
Y15.5 Z-5.965
Y9.478
Y1.5 Z-4.536
Y1.497 Z-3.974
Y1.471 Z-3.857
Y1.431 Z-3.772
Y1.348 Z-3.666
Y1.272 Z-3.606
Y1.183 Z-3.56
Y1.084 Z-3.532
Y1 Z-3.525
Y0.982 Z-3.52
Y0.96 Z-3.515
X0.092 Y0.93
X0.073 Y0.905
X0.045 Y0.891
X0.013
X-0.015 Y0.905
X-0.035 Y0.93
X-0.042 Y0.96
Y0.962
Y0.984 Z-3.52
Y1 Z-3.525
Y1.127 Z-3.541
Y1.223 Z-3.577
Y1.307 Z-3.63
Y1.402 Z-3.728
Y1.454 Z-3.815
Y1.48 Z-3.885
Y1.493 Z-3.944
Y1.5 Z-4.016
Z-4.536
Y9.484 Z-5.966
Y15.5 Z-5.965
Y15.522 Z-5.96
Y15.544 Z-5.955
X-0.043 Y15.56
X-0.049 Y15.575
X-0.057 Y15.588 Z-5.954
X-0.068 Y15.599
X-0.081 Y15.608 Z-5.953
X-0.096 Y15.613
X-0.112 Y15.615 Z-5.952
X-0.128 Y15.613 Z-5.951
X-0.143 Y15.608 Z-5.95
X-0.156 Y15.599
X-0.167 Y15.588 Z-5.949
X-0.176 Y15.575
X-0.181 Y15.56
X-0.183 Y15.544
Y15.522 Z-5.954
Y15.5 Z-5.959
Y9.458 Z-5.962
Y1.5 Z-4.536
Y1.498 Z-3.975
Y1.481 Z-3.889
Y1.455 Z-3.817
Y1.41 Z-3.739
Y1.349 Z-3.667
Y1.272 Z-3.606
Y1.182 Z-3.559
Y1.082 Z-3.532
Y1 Z-3.525
Y0.982 Z-3.52
Y0.96 Z-3.515
X-0.19 Y0.93
X-0.209 Y0.905
X-0.237 Y0.891
X-0.269
X-0.297 Y0.905
X-0.317 Y0.93
X-0.323 Y0.96
Y0.961
Y0.983 Z-3.52
Y0.984
Y1 Z-3.525
Y1.11 Z-3.537
Y1.207 Z-3.57
Y1.294 Z-3.621
Y1.367 Z-3.685
Y1.424 Z-3.76
Y1.474 Z-3.866
Y1.497 Z-3.973
Y1.5 Z-4.536
Y9.365 Z-5.945
Y15.5 Z-5.942
Y15.522 Z-5.937
Y15.544 Z-5.932
X-0.325 Y15.56 Z-5.931
X-0.33 Y15.575 Z-5.93
X-0.339 Y15.589 Z-5.929
X-0.35 Y15.6 Z-5.926
X-0.363 Y15.609 Z-5.924
X-0.378 Y15.614 Z-5.921
X-0.394 Y15.616 Z-5.918
X-0.41 Y15.614 Z-5.915
X-0.425 Y15.609 Z-5.912
X-0.438 Y15.6 Z-5.91
X-0.449 Y15.589 Z-5.907
X-0.457 Y15.575 Z-5.906
X-0.463 Y15.56 Z-5.905
X-0.464 Y15.544
Y15.522 Z-5.91
Y15.5 Z-5.915
Y9.218 Z-5.919
Y1.5 Z-4.536
Y1.498 Z-3.979
Y1.475 Z-3.868
Y1.435 Z-3.779
Y1.353 Z-3.671
Y1.278 Z-3.609
Y1.188 Z-3.562
Y1.089 Z-3.533
Y1 Z-3.525
Y0.982 Z-3.52
Y0.96 Z-3.515
Y0.959
X-0.471 Y0.929
X-0.491 Y0.904
X-0.519 Y0.89
X-0.551
X-0.579 Y0.904
X-0.598 Y0.929
X-0.605 Y0.959
Y0.981 Z-3.52
Y1 Z-3.525
Y1.062 Z-3.529
Y1.163 Z-3.552
Y1.254 Z-3.595
Y1.334 Z-3.653
Y1.421 Z-3.756
Y1.469 Z-3.851
Y1.498 Z-3.986
Y1.5 Z-4.536
Y9.008 Z-5.881
Y15.5 Z-5.88
Y15.522 Z-5.875
Y15.544 Z-5.87
X-0.607 Y15.561
X-0.612 Y15.576 Z-5.868
X-0.621 Y15.591 Z-5.865
X-0.632 Y15.602 Z-5.861
X-0.645 Y15.611 Z-5.856
X-0.66 Y15.617 Z-5.851
X-0.676 Y15.619 Z-5.845
X-0.692 Y15.617 Z-5.84
X-0.706 Y15.611 Z-5.835
X-0.72 Y15.602 Z-5.83
X-0.731 Y15.591 Z-5.826
X-0.739 Y15.576 Z-5.823
X-0.745 Y15.561 Z-5.821
X-0.746 Y15.544
Y15.522 Z-5.826
Y15.5 Z-5.831
Y8.755 Z-5.836
Y1.5 Z-4.536
Y1.498 Z-3.985
Y1.475 Z-3.868
Y1.428 Z-3.767
Y1.342 Z-3.661
Y1.264 Z-3.601
Y1.173 Z-3.556
Y1.073 Z-3.53
Y1 Z-3.525
Y0.982 Z-3.52
Y0.96 Z-3.515
X-0.753 Y0.929
X-0.773 Y0.905
X-0.801 Y0.891
X-0.833
X-0.861 Y0.905
X-0.88 Y0.929
X-0.887 Y0.96
Y0.982 Z-3.52
Y1 Z-3.525
Y1.087 Z-3.533
Y1.185 Z-3.561
Y1.274 Z-3.607
Y1.35 Z-3.668
Y1.433 Z-3.774
Y1.48 Z-3.885
Y1.498 Z-3.979
Y1.5 Z-4.536
Y8.43 Z-5.778
Y15.5 Z-5.776
Y15.522 Z-5.771
Y15.544 Z-5.766
X-0.889 Y15.562 Z-5.765
X-0.894 Y15.578 Z-5.762
X-0.903 Y15.593 Z-5.758
X-0.914 Y15.606 Z-5.752
X-0.927 Y15.616 Z-5.745
X-0.942 Y15.621 Z-5.737
X-0.958 Y15.623 Z-5.729
X-0.973 Y15.621 Z-5.721
X-0.988 Y15.616 Z-5.713
X-1.002 Y15.606 Z-5.706
X-1.013 Y15.593 Z-5.7
X-1.021 Y15.578 Z-5.696
X-1.027 Y15.562 Z-5.693
X-1.028 Y15.544 Z-5.692
Y15.522 Z-5.698
Y15.5 Z-5.703
Y8.037 Z-5.707
Y1.5 Z-4.536
Y1.496 Z-3.964
Y1.476 Z-3.873
Y1.429 Z-3.768
Y1.346 Z-3.664
Y1.269 Z-3.603
Y1.179 Z-3.558
Y1.078 Z-3.531
Y1 Z-3.525
Y0.982 Z-3.52
Y0.96 Z-3.515
X-1.035 Y0.929
X-1.055 Y0.905
X-1.083 Y0.891
X-1.114
X-1.143 Y0.905
X-1.162 Y0.929
X-1.169 Y0.96
Y0.961
Y0.983 Z-3.52
Y1 Z-3.525
Y1.102 Z-3.535
Y1.2 Z-3.567
Y1.288 Z-3.616
Y1.362 Z-3.68
Y1.415 Z-3.746
Y1.468 Z-3.849
Y1.498 Z-3.977
Y1.5 Z-4.536
Y7.54 Z-5.618
Y15.5
Y15.522 Z-5.613
Y15.544 Z-5.608
X-1.171 Y15.561 Z-5.607
X-1.175 Y15.577 Z-5.604
X-1.181 Y15.591 Z-5.6
X-1.19 Y15.604 Z-5.594
X-1.201 Y15.615 Z-5.587
X-1.213 Y15.623 Z-5.578
X-1.226 Y15.628 Z-5.569
X-1.24 Y15.629 Z-5.56
X-1.253 Y15.628 Z-5.551
X-1.267 Y15.623 Z-5.542
X-1.279 Y15.615 Z-5.533
X-1.29 Y15.604 Z-5.526
X-1.298 Y15.591 Z-5.52
X-1.305 Y15.577 Z-5.516
X-1.309 Y15.561 Z-5.513
X-1.31 Y15.544 Z-5.512
Y15.522 Z-5.517
Y15.5 Z-5.522
Y7.008 Z-5.523
Y1.5 Z-4.536
Y1.497 Z-3.968
Y1.472 Z-3.861
Y1.411 Z-3.741
Y1.317 Z-3.638
Y1.234 Z-3.583
Y1.139 Z-3.545
Y1.036 Z-3.526
Y1 Z-3.525
Y0.976 Z-3.518
Y0.958 Z-3.5
Y0.952 Z-3.475
X-1.317 Z-3.444
X-1.337 Z-3.42
X-1.365 Y0.953 Z-3.406
X-1.396 Y0.954
X-1.425 Z-3.42
X-1.444 Y0.955 Z-3.444
X-1.451 Z-3.475
Y0.961 Z-3.499
Y0.977 Z-3.517
Y1 Z-3.525
Y1.101 Z-3.535
Y1.199 Z-3.566
Y1.287 Z-3.615
Y1.361 Z-3.679
Y1.439 Z-3.785
Y1.482 Z-3.891
Y1.499 Z-4
Y1.5 Z-4.536
Y6.346 Z-5.404
Y15.5 Z-5.399
Y15.522 Z-5.394
Y15.544 Z-5.389
X-1.453 Y15.564 Z-5.388
X-1.457 Y15.583 Z-5.384
X-1.463 Y15.6 Z-5.377
X-1.472 Y15.615 Z-5.368
X-1.483 Y15.628 Z-5.357
X-1.495 Y15.637 Z-5.345
X-1.508 Y15.643 Z-5.331
X-1.522 Y15.645 Z-5.317
X-1.535 Y15.643 Z-5.303
X-1.549 Y15.637 Z-5.29
X-1.561 Y15.628 Z-5.277
X-1.572 Y15.615 Z-5.266
X-1.58 Y15.6 Z-5.257
X-1.587 Y15.583 Z-5.251
X-1.591 Y15.564 Z-5.247
X-1.592 Y15.544 Z-5.245
Y15.522 Z-5.25
Y15.5 Z-5.255
Y5.546 Z-5.261
Y1.5 Z-4.536
Y1.497 Z-3.968
Y1.487 Z-3.911
Y1.445 Z-3.797
Y1.369 Z-3.688
Y1.297 Z-3.623
Y1.211 Z-3.572
Y1.114 Z-3.538
Y1 Z-3.525
Y0.984 Z-3.52
Y0.962 Z-3.515
Y0.961
X-1.599 Y0.93
X-1.619 Y0.906
X-1.647 Y0.892
X-1.678
X-1.707 Y0.906
X-1.726 Y0.93
X-1.733 Y0.961
Y0.983 Z-3.52
Y1 Z-3.525
Y1.098 Z-3.535
Y1.197 Z-3.565
Y1.285 Z-3.614
Y1.359 Z-3.677
Y1.438 Z-3.783
Y1.481 Z-3.888
Y1.499 Z-3.987
Y1.5 Z-4.536
Y4.562 Z-5.085
Y15.5 Z-5.081
Y15.522 Z-5.076
Y15.544 Z-5.071
X-1.734 Y15.565 Z-5.07
X-1.737 Y15.585 Z-5.066
X-1.741 Y15.604 Z-5.059
X-1.747 Y15.621 Z-5.05
X-1.754 Y15.637 Z-5.038
X-1.762 Y15.65 Z-5.025
X-1.772 Y15.661 Z-5.01
X-1.782 Y15.669 Z-4.994
X-1.793 Y15.674 Z-4.977
X-1.804 Y15.676 Z-4.96
X-1.815 Y15.674 Z-4.942
X-1.825 Y15.669 Z-4.926
X-1.836 Y15.661 Z-4.909
X-1.845 Y15.65 Z-4.895
X-1.853 Y15.637 Z-4.881
X-1.861 Y15.621 Z-4.87
X-1.866 Y15.604 Z-4.861
X-1.871 Y15.585 Z-4.854
X-1.873 Y15.565 Z-4.85
X-1.874 Y15.544 Z-4.849
Y15.522 Z-4.854
Y15.5 Z-4.859
Y3.346 Z-4.867
Y1.5 Z-4.536
Z-4.015
Y1.493 Z-3.943
Y1.48 Z-3.885
Y1.434 Z-3.776
Y1.353 Z-3.671
Y1.277 Z-3.609
Y1.188 Z-3.562
Y1.088 Z-3.533
Y1 Z-3.525
Y0.982 Z-3.52
Y0.96 Z-3.515
Y0.958
X-1.881 Y0.927
X-1.901 Y0.903
X-1.929 Y0.889
X-1.96
X-1.988 Y0.903
X-2.008 Y0.927
X-2.015 Y0.958
Y0.98 Z-3.52
Y1 Z-3.525
Y1.034 Z-3.526
Y1.137 Z-3.544
Y1.232 Z-3.582
Y1.316 Z-3.637
Y1.41 Z-3.739
Y1.47 Z-3.853
Y1.498 Z-3.982
Y1.5 Z-4.536
Y1.561 Z-4.547
Y15.5 Z-4.549
Y15.522 Z-4.544
Y15.544 Z-4.539
Y15.567 Z-4.537
X-2.017 Y15.59 Z-4.532
X-2.018 Y15.612 Z-4.523
X-2.021 Y15.632 Z-4.511
X-2.024 Y15.65 Z-4.496
X-2.028 Y15.665 Z-4.479
X-2.032 Y15.678 Z-4.459
X-2.037 Y15.687 Z-4.438
X-2.041 Y15.692 Z-4.415
X-2.046 Y15.694 Z-4.392
X-2.125 Z-4.026
X-2.13 Y15.692 Z-4.004
X-2.134 Y15.687 Z-3.981
X-2.139 Y15.678 Z-3.96
X-2.143 Y15.665 Z-3.94
X-2.147 Y15.65 Z-3.923
X-2.15 Y15.632 Z-3.908
X-2.153 Y15.612 Z-3.896
X-2.154 Y15.59 Z-3.887
X-2.156 Y15.567 Z-3.882
Y15.544 Z-3.88
Y15.522 Z-3.885
Y15.5 Z-3.89
Y1.481 Z-3.887
Y1.445 Z-3.796
Y1.396 Z-3.719
Y1.33 Z-3.649
Y1.25 Z-3.592
Y1.157 Z-3.55
Y1.055 Z-3.528
Y1 Z-3.525
Y0.981 Z-3.52
Y0.959 Z-3.515
X-2.163 Y0.928
X-2.183 Y0.904
X-2.211 Y0.89
X-2.242
X-2.27 Y0.904
X-2.29 Y0.928
X-2.297 Y0.959
Y0.981 Z-3.52
Y1 Z-3.525
Y1.062 Z-3.529
Y1.164 Z-3.553
Y1.256 Z-3.595
Y1.339 Z-3.657
Y15.5 Z-3.659
Y15.522 Z-3.654
Y15.544 Z-3.649
X-2.298 Y15.56 Z-3.648
X-2.302 Y15.576 Z-3.645
X-2.309 Y15.591 Z-3.641
X-2.318 Y15.604 Z-3.635
X-2.328 Y15.614 Z-3.628
X-2.34 Y15.622 Z-3.62
X-2.354 Y15.627 Z-3.611
X-2.367 Y15.628 Z-3.602
X-2.381 Y15.627 Z-3.593
X-2.394 Y15.622 Z-3.585
X-2.407 Y15.614 Z-3.577
X-2.417 Y15.604 Z-3.57
X-2.426 Y15.591 Z-3.564
X-2.433 Y15.576 Z-3.56
X-2.437 Y15.56 Z-3.557
X-2.438 Y15.544 Z-3.556
Y15.522 Z-3.561
Y15.5 Z-3.567
Y1.199 Z-3.566
Y1.1 Z-3.535
Y1 Z-3.525
Y0.977 Z-3.517
Y0.961 Z-3.499
Y0.955 Z-3.475
X-2.445 Z-3.444
X-2.464 Y0.954 Z-3.42
X-2.493 Y0.953 Z-3.406
X-2.524 Y0.952
X-2.552 Y0.951 Z-3.42
X-2.572 Y0.95 Z-3.444
X-2.579 Z-3.475
Y0.957 Z-3.5
Y0.975 Z-3.518
Y1 Z-3.525
Y15.5 Z-3.528
Y15.538 Z-3.521
Y15.571 Z-3.499
Y15.592 Z-3.467
Y15.6 Z-3.428
Z3
M5
M30
