(1001contour)
(Machine)
(  vendor: Nikodem Bartnik)
(  model: Generic 3-axis Router)
(  description: This machine has XYZ axis on the Head)
(T1  D=3.175 CR=0 - ZMIN=-9.725 - flat end mill)
G90 G94
G17
G21
(When using Fusion 360 for Personal Use, the feedrate of)
(rapid moves is reduced to match the feedrate of cutting)
(moves, which can increase machining time. Unrestricted rapid)
(moves are available with a Fusion 360 Subscription.)

(2D Contour3)
T1
S5000 M3
G54
G0 X-0.317 Y18.953
Z5
G1 Z1 F50
Z0.117 F16.7
G19 G2 Y18.636 Z-0.2 J-0.318 K0 F20
G1 Y17.405
G17 G3 X0 Y17.087 I0.318 J0
G1 X12.7 F50
G2 X14.288 Y15.5 I0 J-1.587
G1 Y-4.5
Y-11.5
Y-15.5
G2 X12.7 Y-17.087 I-1.588 J0
G1 X-12.7
G2 X-14.288 Y-15.5 I0 J1.587
G1 Y15.5
G2 X-12.7 Y17.087 I1.588 J0
G1 X-2.637
X0
G3 X0.318 Y17.405 I0 J0.318
G1 Y17.722
G19 G3 Y18.04 Z0.117 J0 K0.318
G1 Z2
X-0.317 Y18.953
Z1
Z-0.083 F16.7
G2 Y18.636 Z-0.4 J-0.318 K0 F20
G1 Y17.405
G17 G3 X0 Y17.087 I0.318 J0
G1 X12.7 F50
G2 X14.288 Y15.5 I0 J-1.587
G1 Y-4.5
Y-11.5
Y-15.5
G2 X12.7 Y-17.087 I-1.588 J0
G1 X-12.7
G2 X-14.288 Y-15.5 I0 J1.587
G1 Y15.5
G2 X-12.7 Y17.087 I1.588 J0
G1 X-2.637
X0
G3 X0.318 Y17.405 I0 J0.318
G1 Y17.722
G19 G3 Y18.04 Z-0.083 J0 K0.318
G1 Z2
X-0.317 Y18.953
Z1
Z-0.283 F16.7
G2 Y18.636 Z-0.6 J-0.318 K0 F20
G1 Y17.405
G17 G3 X0 Y17.087 I0.318 J0
G1 X12.7 F50
G2 X14.288 Y15.5 I0 J-1.587
G1 Y-4.5
Y-11.5
Y-15.5
G2 X12.7 Y-17.087 I-1.588 J0
G1 X-12.7
G2 X-14.288 Y-15.5 I0 J1.587
G1 Y15.5
G2 X-12.7 Y17.087 I1.588 J0
G1 X-2.637
X0
G3 X0.318 Y17.405 I0 J0.318
G1 Y17.722
G19 G3 Y18.04 Z-0.283 J0 K0.318
G1 Z2
X-0.317 Y18.953
Z1
Z-0.483 F16.7
G2 Y18.636 Z-0.8 J-0.318 K0 F20
G1 Y17.405
G17 G3 X0 Y17.087 I0.318 J0
G1 X12.7 F50
G2 X14.288 Y15.5 I0 J-1.587
G1 Y-4.5
Y-11.5
Y-15.5
G2 X12.7 Y-17.087 I-1.588 J0
G1 X-12.7
G2 X-14.288 Y-15.5 I0 J1.587
G1 Y15.5
G2 X-12.7 Y17.087 I1.588 J0
G1 X-2.637
X0
G3 X0.318 Y17.405 I0 J0.318
G1 Y17.722
G19 G3 Y18.04 Z-0.483 J0 K0.318
G1 Z2
X-0.317 Y18.953
Z1
Z-0.683 F16.7
G2 Y18.636 Z-1 J-0.318 K0 F20
G1 Y17.405
G17 G3 X0 Y17.087 I0.318 J0
G1 X12.7 F50
G2 X14.288 Y15.5 I0 J-1.587
G1 Y-4.5
Y-11.5
Y-15.5
G2 X12.7 Y-17.087 I-1.588 J0
G1 X-12.7
G2 X-14.288 Y-15.5 I0 J1.587
G1 Y15.5
G2 X-12.7 Y17.087 I1.588 J0
G1 X-2.637
X0
G3 X0.318 Y17.405 I0 J0.318
G1 Y17.722
G19 G3 Y18.04 Z-0.683 J0 K0.317
G1 Z2
X-0.317 Y18.953
Z1
Z-0.883 F16.7
G2 Y18.636 Z-1.2 J-0.318 K0 F20
G1 Y17.405
G17 G3 X0 Y17.087 I0.318 J0
G1 X12.7 F50
G2 X14.288 Y15.5 I0 J-1.587
G1 Y-4.5
Y-11.5
Y-15.5
G2 X12.7 Y-17.087 I-1.588 J0
G1 X-12.7
G2 X-14.288 Y-15.5 I0 J1.587
G1 Y15.5
G2 X-12.7 Y17.087 I1.588 J0
G1 X-2.637
X0
G3 X0.318 Y17.405 I0 J0.318
G1 Y17.722
G19 G3 Y18.04 Z-0.883 J0 K0.318
G1 Z2
X-0.317 Y18.953
Z1
Z-1.083 F16.7
G2 Y18.636 Z-1.4 J-0.318 K0 F20
G1 Y17.405
G17 G3 X0 Y17.087 I0.318 J0
G1 X12.7 F50
G2 X14.288 Y15.5 I0 J-1.587
G1 Y-4.5
Y-11.5
Y-15.5
G2 X12.7 Y-17.087 I-1.588 J0
G1 X-12.7
G2 X-14.288 Y-15.5 I0 J1.587
G1 Y15.5
G2 X-12.7 Y17.087 I1.588 J0
G1 X-2.637
X0
G3 X0.318 Y17.405 I0 J0.318
G1 Y17.722
G19 G3 Y18.04 Z-1.083 J0 K0.317
G1 Z2
X-0.317 Y18.953
Z1
Z-1.283 F16.7
G2 Y18.636 Z-1.6 J-0.318 K0 F20
G1 Y17.405
G17 G3 X0 Y17.087 I0.318 J0
G1 X12.7 F50
G2 X14.288 Y15.5 I0 J-1.587
G1 Y-4.5
Y-11.5
Y-15.5
G2 X12.7 Y-17.087 I-1.588 J0
G1 X-12.7
G2 X-14.288 Y-15.5 I0 J1.587
G1 Y15.5
G2 X-12.7 Y17.087 I1.588 J0
G1 X-2.637
X0
G3 X0.318 Y17.405 I0 J0.318
G1 Y17.722
G19 G3 Y18.04 Z-1.283 J0 K0.317
G1 Z2
X-0.317 Y18.953
Z1
Z-1.483 F16.7
G2 Y18.636 Z-1.8 J-0.318 K0 F20
G1 Y17.405
G17 G3 X0 Y17.087 I0.318 J0
G1 X12.7 F50
G2 X14.288 Y15.5 I0 J-1.587
G1 Y-4.5
Y-11.5
Y-15.5
G2 X12.7 Y-17.087 I-1.588 J0
G1 X-12.7
G2 X-14.288 Y-15.5 I0 J1.587
G1 Y15.5
G2 X-12.7 Y17.087 I1.588 J0
G1 X-2.637
X0
G3 X0.318 Y17.405 I0 J0.318
G1 Y17.722
G19 G3 Y18.04 Z-1.483 J0 K0.317
G1 Z2
X-0.317 Y18.953
Z1
Z-1.683 F16.7
G2 Y18.636 Z-2 J-0.318 K0 F20
G1 Y17.405
G17 G3 X0 Y17.087 I0.318 J0
G1 X12.7 F50
G2 X14.288 Y15.5 I0 J-1.587
G1 Y-4.5
Y-11.5
Y-15.5
G2 X12.7 Y-17.087 I-1.588 J0
G1 X-12.7
G2 X-14.288 Y-15.5 I0 J1.587
G1 Y15.5
G2 X-12.7 Y17.087 I1.588 J0
G1 X-2.637
X0
G3 X0.318 Y17.405 I0 J0.318
G1 Y17.722
G19 G3 Y18.04 Z-1.683 J0 K0.317
G1 Z2
X-0.317 Y18.953
Z1
Z-1.883 F16.7
G2 Y18.636 Z-2.2 J-0.318 K0 F20
G1 Y17.405
G17 G3 X0 Y17.087 I0.318 J0
G1 X12.7 F50
G2 X14.288 Y15.5 I0 J-1.587
G1 Y-4.5
Y-11.5
Y-15.5
G2 X12.7 Y-17.087 I-1.588 J0
G1 X-12.7
G2 X-14.288 Y-15.5 I0 J1.587
G1 Y15.5
G2 X-12.7 Y17.087 I1.588 J0
G1 X-2.637
X0
G3 X0.318 Y17.405 I0 J0.318
G1 Y17.722
G19 G3 Y18.04 Z-1.883 J0 K0.317
G1 Z2
X-0.317 Y18.953
Z1
Z-2.083 F16.7
G2 Y18.636 Z-2.4 J-0.318 K0 F20
G1 Y17.405
G17 G3 X0 Y17.087 I0.318 J0
G1 X12.7 F50
G2 X14.288 Y15.5 I0 J-1.587
G1 Y-4.5
Y-11.5
Y-15.5
G2 X12.7 Y-17.087 I-1.588 J0
G1 X-12.7
G2 X-14.288 Y-15.5 I0 J1.587
G1 Y15.5
G2 X-12.7 Y17.087 I1.588 J0
G1 X-2.637
X0
G3 X0.318 Y17.405 I0 J0.318
G1 Y17.722
G19 G3 Y18.04 Z-2.083 J0 K0.318
G1 Z2
X-0.317 Y18.953
Z1
Z-2.283 F16.7
G2 Y18.636 Z-2.6 J-0.318 K0 F20
G1 Y17.405
G17 G3 X0 Y17.087 I0.318 J0
G1 X12.7 F50
G2 X14.288 Y15.5 I0 J-1.587
G1 Y-4.5
Y-11.5
Y-15.5
G2 X12.7 Y-17.087 I-1.588 J0
G1 X-12.7
G2 X-14.288 Y-15.5 I0 J1.587
G1 Y15.5
G2 X-12.7 Y17.087 I1.588 J0
G1 X-2.637
X0
G3 X0.318 Y17.405 I0 J0.318
G1 Y17.722
G19 G3 Y18.04 Z-2.283 J0 K0.317
G1 Z2
X-0.317 Y18.953
Z1
Z-2.483 F16.7
G2 Y18.636 Z-2.8 J-0.318 K0 F20
G1 Y17.405
G17 G3 X0 Y17.087 I0.318 J0
G1 X12.7 F50
G2 X14.288 Y15.5 I0 J-1.587
G1 Y-4.5
Y-11.5
Y-15.5
G2 X12.7 Y-17.087 I-1.588 J0
G1 X-12.7
G2 X-14.288 Y-15.5 I0 J1.587
G1 Y15.5
G2 X-12.7 Y17.087 I1.588 J0
G1 X-2.637
X0
G3 X0.318 Y17.405 I0 J0.318
G1 Y17.722
G19 G3 Y18.04 Z-2.483 J0 K0.317
G1 Z2
X-0.317 Y18.953
Z1
Z-2.683 F16.7
G2 Y18.636 Z-3 J-0.318 K0 F20
G1 Y17.405
G17 G3 X0 Y17.087 I0.318 J0
G1 X12.7 F50
G2 X14.288 Y15.5 I0 J-1.587
G1 Y-4.5
Y-11.5
Y-15.5
G2 X12.7 Y-17.087 I-1.588 J0
G1 X-12.7
G2 X-14.288 Y-15.5 I0 J1.587
G1 Y15.5
G2 X-12.7 Y17.087 I1.588 J0
G1 X-2.637
X0
G3 X0.318 Y17.405 I0 J0.318
G1 Y17.722
G19 G3 Y18.04 Z-2.683 J0 K0.318
G1 Z2
X-0.317 Y18.953
Z1
Z-2.883 F16.7
G2 Y18.636 Z-3.2 J-0.318 K0 F20
G1 Y17.405
G17 G3 X0 Y17.087 I0.318 J0
G1 X12.7 F50
G2 X14.288 Y15.5 I0 J-1.587
G1 Y-4.5
Y-11.5
Y-15.5
G2 X12.7 Y-17.087 I-1.588 J0
G1 X-12.7
G2 X-14.288 Y-15.5 I0 J1.587
G1 Y15.5
G2 X-12.7 Y17.087 I1.588 J0
G1 X-2.637
X0
G3 X0.318 Y17.405 I0 J0.318
G1 Y17.722
G19 G3 Y18.04 Z-2.883 J0 K0.318
G1 Z2
X-0.317 Y18.953
Z1
Z-3.083 F16.7
G2 Y18.636 Z-3.4 J-0.318 K0 F20
G1 Y17.405
G17 G3 X0 Y17.087 I0.318 J0
G1 X12.7 F50
G2 X14.288 Y15.5 I0 J-1.587
G1 Y-4.5
Y-11.5
Y-15.5
G2 X12.7 Y-17.087 I-1.588 J0
G1 X-12.7
G2 X-14.288 Y-15.5 I0 J1.587
G1 Y15.5
G2 X-12.7 Y17.087 I1.588 J0
G1 X-2.637
X0
G3 X0.318 Y17.405 I0 J0.318
G1 Y17.722
G19 G3 Y18.04 Z-3.083 J0 K0.318
G1 Z2
X-0.317 Y18.953
Z1
Z-3.283 F16.7
G2 Y18.636 Z-3.6 J-0.318 K0 F20
G1 Y17.405
G17 G3 X0 Y17.087 I0.318 J0
G1 X12.7 F50
G2 X14.288 Y15.5 I0 J-1.587
G1 Y-4.5
Y-11.5
Y-15.5
G2 X12.7 Y-17.087 I-1.588 J0
G1 X-12.7
G2 X-14.288 Y-15.5 I0 J1.587
G1 Y15.5
G2 X-12.7 Y17.087 I1.588 J0
G1 X-2.637
X0
G3 X0.318 Y17.405 I0 J0.318
G1 Y17.722
G19 G3 Y18.04 Z-3.283 J0 K0.317
G1 Z2
X-0.317 Y18.953
Z1
Z-3.483 F16.7
G2 Y18.636 Z-3.8 J-0.318 K0 F20
G1 Y17.405
G17 G3 X0 Y17.087 I0.318 J0
G1 X12.7 F50
G2 X14.288 Y15.5 I0 J-1.587
G1 Y-4.5
Y-11.5
Y-15.5
G2 X12.7 Y-17.087 I-1.588 J0
G1 X-12.7
G2 X-14.288 Y-15.5 I0 J1.587
G1 Y15.5
G2 X-12.7 Y17.087 I1.588 J0
G1 X-2.637
X0
G3 X0.318 Y17.405 I0 J0.318
G1 Y17.722
G19 G3 Y18.04 Z-3.483 J0 K0.317
G1 Z2
X-0.317 Y18.953
Z1
Z-3.683 F16.7
G2 Y18.636 Z-4 J-0.318 K0 F20
G1 Y17.405
G17 G3 X0 Y17.087 I0.318 J0
G1 X12.7 F50
G2 X14.288 Y15.5 I0 J-1.587
G1 Y-4.5
Y-11.5
Y-15.5
G2 X12.7 Y-17.087 I-1.588 J0
G1 X-12.7
G2 X-14.288 Y-15.5 I0 J1.587
G1 Y15.5
G2 X-12.7 Y17.087 I1.588 J0
G1 X-2.637
X0
G3 X0.318 Y17.405 I0 J0.318
G1 Y17.722
G19 G3 Y18.04 Z-3.683 J0 K0.318
G1 Z2
X-0.317 Y18.953
Z1
Z-3.883 F16.7
G2 Y18.636 Z-4.2 J-0.318 K0 F20
G1 Y17.405
G17 G3 X0 Y17.087 I0.318 J0
G1 X12.7 F50
G2 X14.288 Y15.5 I0 J-1.587
G1 Y-4.5
Y-11.5
Y-15.5
G2 X12.7 Y-17.087 I-1.588 J0
G1 X-12.7
G2 X-14.288 Y-15.5 I0 J1.587
G1 Y15.5
G2 X-12.7 Y17.087 I1.588 J0
G1 X-2.637
X0
G3 X0.318 Y17.405 I0 J0.318
G1 Y17.722
G19 G3 Y18.04 Z-3.883 J0 K0.317
G1 Z2
X-0.317 Y18.953
Z1
Z-4.083 F16.7
G2 Y18.636 Z-4.4 J-0.318 K0 F20
G1 Y17.405
G17 G3 X0 Y17.087 I0.318 J0
G1 X12.7 F50
G2 X14.288 Y15.5 I0 J-1.587
G1 Y-4.5
Y-11.5
Y-15.5
G2 X12.7 Y-17.087 I-1.588 J0
G1 X-12.7
G2 X-14.288 Y-15.5 I0 J1.587
G1 Y15.5
G2 X-12.7 Y17.087 I1.588 J0
G1 X-2.637
X0
G3 X0.318 Y17.405 I0 J0.318
G1 Y17.722
G19 G3 Y18.04 Z-4.083 J0 K0.318
G1 Z2
X-0.317 Y18.953
Z1
Z-4.283 F16.7
G2 Y18.636 Z-4.6 J-0.318 K0 F20
G1 Y17.405
G17 G3 X0 Y17.087 I0.318 J0
G1 X12.7 F50
G2 X14.288 Y15.5 I0 J-1.587
G1 Y-4.5
Y-11.5
Y-15.5
G2 X12.7 Y-17.087 I-1.588 J0
G1 X-12.7
G2 X-14.288 Y-15.5 I0 J1.587
G1 Y15.5
G2 X-12.7 Y17.087 I1.588 J0
G1 X-2.637
X0
G3 X0.318 Y17.405 I0 J0.318
G1 Y17.722
G19 G3 Y18.04 Z-4.283 J0 K0.318
G1 Z2
X-0.317 Y18.953
Z1
Z-4.483 F16.7
G2 Y18.636 Z-4.8 J-0.318 K0 F20
G1 Y17.405
G17 G3 X0 Y17.087 I0.318 J0
G1 X12.7 F50
G2 X14.288 Y15.5 I0 J-1.587
G1 Y-4.5
Y-11.5
Y-15.5
G2 X12.7 Y-17.087 I-1.588 J0
G1 X-12.7
G2 X-14.288 Y-15.5 I0 J1.587
G1 Y15.5
G2 X-12.7 Y17.087 I1.588 J0
G1 X-2.637
X0
G3 X0.318 Y17.405 I0 J0.318
G1 Y17.722
G19 G3 Y18.04 Z-4.483 J0 K0.318
G1 Z2
X-0.317 Y18.953
Z1
Z-4.683 F16.7
G2 Y18.636 Z-5 J-0.318 K0 F20
G1 Y17.405
G17 G3 X0 Y17.087 I0.318 J0
G1 X12.7 F50
G2 X14.288 Y15.5 I0 J-1.587
G1 Y-4.5
Y-11.5
Y-15.5
G2 X12.7 Y-17.087 I-1.588 J0
G1 X-12.7
G2 X-14.288 Y-15.5 I0 J1.587
G1 Y15.5
G2 X-12.7 Y17.087 I1.588 J0
G1 X-2.637
X0
G3 X0.318 Y17.405 I0 J0.318
G1 Y17.722
G19 G3 Y18.04 Z-4.683 J0 K0.318
G1 Z2
X-0.317 Y18.953
Z1
Z-4.883 F16.7
G2 Y18.636 Z-5.2 J-0.318 K0 F20
G1 Y17.405
G17 G3 X0 Y17.087 I0.318 J0
G1 X12.7 F50
G2 X14.288 Y15.5 I0 J-1.587
G1 Y-4.5
Y-11.5
Y-15.5
G2 X12.7 Y-17.087 I-1.588 J0
G1 X-12.7
G2 X-14.288 Y-15.5 I0 J1.587
G1 Y15.5
G2 X-12.7 Y17.087 I1.588 J0
G1 X-2.637
X0
G3 X0.318 Y17.405 I0 J0.318
G1 Y17.722
G19 G3 Y18.04 Z-4.883 J0 K0.317
G1 Z2
X-0.317 Y18.953
Z1
Z-5.083 F16.7
G2 Y18.636 Z-5.4 J-0.318 K0 F20
G1 Y17.405
G17 G3 X0 Y17.087 I0.318 J0
G1 X12.7 F50
G2 X14.288 Y15.5 I0 J-1.587
G1 Y-4.5
Y-11.5
Y-15.5
G2 X12.7 Y-17.087 I-1.588 J0
G1 X-12.7
G2 X-14.288 Y-15.5 I0 J1.587
G1 Y15.5
G2 X-12.7 Y17.087 I1.588 J0
G1 X-2.637
X0
G3 X0.318 Y17.405 I0 J0.318
G1 Y17.722
G19 G3 Y18.04 Z-5.083 J0 K0.318
G1 Z2
X-0.317 Y18.953
Z1
Z-5.283 F16.7
G2 Y18.636 Z-5.6 J-0.318 K0 F20
G1 Y17.405
G17 G3 X0 Y17.087 I0.318 J0
G1 X12.7 F50
G2 X14.288 Y15.5 I0 J-1.587
G1 Y-4.5
Y-11.5
Y-15.5
G2 X12.7 Y-17.087 I-1.588 J0
G1 X-12.7
G2 X-14.288 Y-15.5 I0 J1.587
G1 Y15.5
G2 X-12.7 Y17.087 I1.588 J0
G1 X-2.637
X0
G3 X0.318 Y17.405 I0 J0.318
G1 Y17.722
G19 G3 Y18.04 Z-5.283 J0 K0.318
G1 Z2
X-0.317 Y18.953
Z1
Z-5.483 F16.7
G2 Y18.636 Z-5.8 J-0.318 K0 F20
G1 Y17.405
G17 G3 X0 Y17.087 I0.318 J0
G1 X12.7 F50
G2 X14.288 Y15.5 I0 J-1.587
G1 Y-4.5
Y-11.5
Y-15.5
G2 X12.7 Y-17.087 I-1.588 J0
G1 X-12.7
G2 X-14.288 Y-15.5 I0 J1.587
G1 Y15.5
G2 X-12.7 Y17.087 I1.588 J0
G1 X-2.637
X0
G3 X0.318 Y17.405 I0 J0.318
G1 Y17.722
G19 G3 Y18.04 Z-5.483 J0 K0.318
G1 Z2
X-0.317 Y18.953
Z1
Z-5.683 F16.7
G2 Y18.636 Z-6 J-0.318 K0 F20
G1 Y17.405
G17 G3 X0 Y17.087 I0.318 J0
G1 X12.7 F50
G2 X14.288 Y15.5 I0 J-1.587
G1 Y-4.5
Y-11.5
Y-15.5
G2 X12.7 Y-17.087 I-1.588 J0
G1 X-12.7
G2 X-14.288 Y-15.5 I0 J1.587
G1 Y15.5
G2 X-12.7 Y17.087 I1.588 J0
G1 X-2.637
X0
G3 X0.318 Y17.405 I0 J0.318
G1 Y17.722
G19 G3 Y18.04 Z-5.683 J0 K0.318
G1 Z2
X-0.317 Y18.953
Z1
Z-5.883 F16.7
G2 Y18.636 Z-6.2 J-0.318 K0 F20
G1 Y17.405
G17 G3 X0 Y17.087 I0.318 J0
G1 X12.7 F50
G2 X14.288 Y15.5 I0 J-1.587
G1 Y-4.5
Y-11.5
Y-15.5
G2 X12.7 Y-17.087 I-1.588 J0
G1 X-12.7
G2 X-14.288 Y-15.5 I0 J1.587
G1 Y15.5
G2 X-12.7 Y17.087 I1.588 J0
G1 X-2.637
X0
G3 X0.318 Y17.405 I0 J0.318
G1 Y17.722
G19 G3 Y18.04 Z-5.883 J0 K0.317
G1 Z2
X-0.317 Y18.953
Z1
Z-6.083 F16.7
G2 Y18.636 Z-6.4 J-0.318 K0 F20
G1 Y17.405
G17 G3 X0 Y17.087 I0.318 J0
G1 X12.7 F50
G2 X14.288 Y15.5 I0 J-1.587
G1 Y-4.5
Y-11.5
Y-15.5
G2 X12.7 Y-17.087 I-1.588 J0
G1 X-12.7
G2 X-14.288 Y-15.5 I0 J1.587
G1 Y15.5
G2 X-12.7 Y17.087 I1.588 J0
G1 X-2.637
X0
G3 X0.318 Y17.405 I0 J0.318
G1 Y17.722
G19 G3 Y18.04 Z-6.083 J0 K0.318
G1 Z2
X-0.317 Y18.953
Z1
Z-6.283 F16.7
G2 Y18.636 Z-6.6 J-0.318 K0 F20
G1 Y17.405
G17 G3 X0 Y17.087 I0.318 J0
G1 X12.7 F50
G2 X14.288 Y15.5 I0 J-1.587
G1 Y-4.5
Y-11.5
Y-15.5
G2 X12.7 Y-17.087 I-1.588 J0
G1 X-12.7
G2 X-14.288 Y-15.5 I0 J1.587
G1 Y15.5
G2 X-12.7 Y17.087 I1.588 J0
G1 X-2.637
X0
G3 X0.318 Y17.405 I0 J0.318
G1 Y17.722
G19 G3 Y18.04 Z-6.283 J0 K0.318
G1 Z2
X-0.317 Y18.953
Z1
Z-6.483 F16.7
G2 Y18.636 Z-6.8 J-0.318 K0 F20
G1 Y17.405
G17 G3 X0 Y17.087 I0.318 J0
G1 X12.7 F50
G2 X14.288 Y15.5 I0 J-1.587
G1 Y-4.5
Y-11.5
Y-15.5
G2 X12.7 Y-17.087 I-1.588 J0
G1 X-12.7
G2 X-14.288 Y-15.5 I0 J1.587
G1 Y15.5
G2 X-12.7 Y17.087 I1.588 J0
G1 X-2.637
X0
G3 X0.318 Y17.405 I0 J0.318
G1 Y17.722
G19 G3 Y18.04 Z-6.483 J0 K0.318
G1 Z2
X-0.317 Y18.953
Z1
Z-6.683 F16.7
G2 Y18.636 Z-7 J-0.318 K0 F20
G1 Y17.405
G17 G3 X0 Y17.087 I0.318 J0
G1 X12.7 F50
G2 X14.288 Y15.5 I0 J-1.587
G1 Y-4.5
Y-11.5
Y-15.5
G2 X12.7 Y-17.087 I-1.588 J0
G1 X-12.7
G2 X-14.288 Y-15.5 I0 J1.587
G1 Y15.5
G2 X-12.7 Y17.087 I1.588 J0
G1 X-2.637
X0
G3 X0.318 Y17.405 I0 J0.318
G1 Y17.722
G19 G3 Y18.04 Z-6.683 J0 K0.318
G1 Z2
X-0.317 Y18.953
Z1
Z-6.883 F16.7
G2 Y18.636 Z-7.2 J-0.318 K0 F20
G1 Y17.405
G17 G3 X0 Y17.087 I0.318 J0
G1 X12.7 F50
G2 X14.288 Y15.5 I0 J-1.587
G1 Y-4.5
Y-11.5
Y-15.5
G2 X12.7 Y-17.087 I-1.588 J0
G1 X-12.7
G2 X-14.288 Y-15.5 I0 J1.587
G1 Y15.5
G2 X-12.7 Y17.087 I1.588 J0
G1 X-2.637
X0
G3 X0.318 Y17.405 I0 J0.318
G1 Y17.722
G19 G3 Y18.04 Z-6.883 J0 K0.317
G1 Z2
X-0.317 Y18.953
Z1
Z-7.083 F16.7
G2 Y18.636 Z-7.4 J-0.318 K0 F20
G1 Y17.405
G17 G3 X0 Y17.087 I0.318 J0
G1 X12.7 F50
G2 X14.288 Y15.5 I0 J-1.587
G1 Y-4.5
Y-11.5
Y-15.5
G2 X12.7 Y-17.087 I-1.588 J0
G1 X-12.7
G2 X-14.288 Y-15.5 I0 J1.587
G1 Y15.5
G2 X-12.7 Y17.087 I1.588 J0
G1 X-2.637
X0
G3 X0.318 Y17.405 I0 J0.318
G1 Y17.722
G19 G3 Y18.04 Z-7.083 J0 K0.318
G1 Z2
X-0.317 Y18.953
Z1
Z-7.283 F16.7
G2 Y18.636 Z-7.6 J-0.318 K0 F20
G1 Y17.405
G17 G3 X0 Y17.087 I0.318 J0
G1 X12.7 F50
G2 X14.288 Y15.5 I0 J-1.587
G1 Y-4.5
Y-11.5
Y-15.5
G2 X12.7 Y-17.087 I-1.588 J0
G1 X-12.7
G2 X-14.288 Y-15.5 I0 J1.587
G1 Y15.5
G2 X-12.7 Y17.087 I1.588 J0
G1 X-2.637
X0
G3 X0.318 Y17.405 I0 J0.318
G1 Y17.722
G19 G3 Y18.04 Z-7.283 J0 K0.318
G1 Z2
X-0.317 Y18.953
Z1
Z-7.483 F16.7
G2 Y18.636 Z-7.8 J-0.318 K0 F20
G1 Y17.405
G17 G3 X0 Y17.087 I0.318 J0
G1 X12.7 F50
G2 X14.288 Y15.5 I0 J-1.587
G1 Y-4.5
Y-11.5
Y-15.5
G2 X12.7 Y-17.087 I-1.588 J0
G1 X-12.7
G2 X-14.288 Y-15.5 I0 J1.587
G1 Y15.5
G2 X-12.7 Y17.087 I1.588 J0
G1 X-2.637
X0
G3 X0.318 Y17.405 I0 J0.318
G1 Y17.722
G19 G3 Y18.04 Z-7.483 J0 K0.318
G1 Z2
X-0.317 Y18.953
Z1
Z-7.683 F16.7
G2 Y18.636 Z-8 J-0.318 K0 F20
G1 Y17.405
G17 G3 X0 Y17.087 I0.318 J0
G1 X12.7 F50
G2 X14.288 Y15.5 I0 J-1.587
G1 Y-4.5
Y-11.5
Y-15.5
G2 X12.7 Y-17.087 I-1.588 J0
G1 X-12.7
G2 X-14.288 Y-15.5 I0 J1.587
G1 Y15.5
G2 X-12.7 Y17.087 I1.588 J0
G1 X-2.637
X0
G3 X0.318 Y17.405 I0 J0.318
G1 Y17.722
G19 G3 Y18.04 Z-7.683 J0 K0.318
G1 Z2
X-0.317 Y18.953
Z1
Z-7.883 F16.7
G2 Y18.636 Z-8.2 J-0.318 K0 F20
G1 Y17.405
G17 G3 X0 Y17.087 I0.318 J0
G1 X12.7 F50
G2 X14.288 Y15.5 I0 J-1.587
G1 Y-4.5
Y-11.5
Y-15.5
G2 X12.7 Y-17.087 I-1.588 J0
G1 X-12.7
G2 X-14.288 Y-15.5 I0 J1.587
G1 Y15.5
G2 X-12.7 Y17.087 I1.588 J0
G1 X-2.637
X0
G3 X0.318 Y17.405 I0 J0.318
G1 Y17.722
G19 G3 Y18.04 Z-7.883 J0 K0.317
G1 Z2
X-0.317 Y18.953
Z1
Z-8.083 F16.7
G2 Y18.636 Z-8.4 J-0.318 K0 F20
G1 Y17.405
G17 G3 X0 Y17.087 I0.318 J0
G1 X12.7 F50
G2 X14.288 Y15.5 I0 J-1.587
G1 Y-4.5
Y-11.5
Y-15.5
G2 X12.7 Y-17.087 I-1.588 J0
G1 X-12.7
G2 X-14.288 Y-15.5 I0 J1.587
G1 Y15.5
G2 X-12.7 Y17.087 I1.588 J0
G1 X-2.637
X0
G3 X0.318 Y17.405 I0 J0.318
G1 Y17.722
G19 G3 Y18.04 Z-8.083 J0 K0.317
G1 Z2
X-0.317 Y18.953
Z1
Z-8.283 F16.7
G2 Y18.636 Z-8.6 J-0.318 K0 F20
G1 Y17.405
G17 G3 X0 Y17.087 I0.318 J0
G1 X12.7 F50
G2 X14.288 Y15.5 I0 J-1.587
G1 Y-4.5
Y-11.5
Y-15.5
G2 X12.7 Y-17.087 I-1.588 J0
G1 X-12.7
G2 X-14.288 Y-15.5 I0 J1.587
G1 Y15.5
G2 X-12.7 Y17.087 I1.588 J0
G1 X-2.637
X0
G3 X0.318 Y17.405 I0 J0.318
G1 Y17.722
G19 G3 Y18.04 Z-8.283 J0 K0.318
G1 Z2
X-0.317 Y18.953
Z1
Z-8.483 F16.7
G2 Y18.636 Z-8.8 J-0.318 K0 F20
G1 Y17.405
G17 G3 X0 Y17.087 I0.318 J0
G1 X12.7 F50
G2 X14.288 Y15.5 I0 J-1.587
G1 Y-4.5
Y-11.5
Y-15.5
G2 X12.7 Y-17.087 I-1.588 J0
G1 X-12.7
G2 X-14.288 Y-15.5 I0 J1.587
G1 Y15.5
G2 X-12.7 Y17.087 I1.588 J0
G1 X-2.637
X0
G3 X0.318 Y17.405 I0 J0.318
G1 Y17.722
G19 G3 Y18.04 Z-8.483 J0 K0.318
G1 Z2
X-0.317 Y18.953
Z1
Z-8.683 F16.7
G2 Y18.636 Z-9 J-0.318 K0 F20
G1 Y17.405
G17 G3 X0 Y17.087 I0.318 J0
G1 X12.7 F50
G2 X14.288 Y15.5 I0 J-1.587
G1 Y8.675
Z-8.931
Y2.325
Z-9 F16.7
Y-15.5 F50
G2 X12.7 Y-17.087 I-1.588 J0
G1 X3.175
Z-8.931
X-3.175
Z-9 F16.7
X-12.7 F50
G2 X-14.288 Y-15.5 I0 J1.587
G1 Y2.325
Z-8.931
Y8.675
Z-9 F16.7
Y15.5 F50
G2 X-12.7 Y17.087 I1.588 J0
G1 X0
G3 X0.318 Y17.405 I0 J0.318
G1 Y17.722
G19 G3 Y18.04 Z-8.683 J0 K0.318
G1 Z2
X-0.317 Y18.953
Z1
Z-8.883 F16.7
G2 Y18.636 Z-9.2 J-0.318 K0 F20
G1 Y17.405
G17 G3 X0 Y17.087 I0.318 J0
G1 X12.7 F50
G2 X14.288 Y15.5 I0 J-1.587
G1 Y8.675
Z-8.931
Y2.325
Z-9.2 F16.7
Y-15.5 F50
G2 X12.7 Y-17.087 I-1.588 J0
G1 X3.175
Z-8.931
X-3.175
Z-9.2 F16.7
X-12.7 F50
G2 X-14.288 Y-15.5 I0 J1.587
G1 Y2.325
Z-8.931
Y8.675
Z-9.2 F16.7
Y15.5 F50
G2 X-12.7 Y17.087 I1.588 J0
G1 X0
G3 X0.318 Y17.405 I0 J0.318
G1 Y17.722
G19 G3 Y18.04 Z-8.883 J0 K0.318
G1 Z2
X-0.317 Y18.953
Z1
Z-9.083 F16.7
G2 Y18.636 Z-9.4 J-0.318 K0 F20
G1 Y17.405
G17 G3 X0 Y17.087 I0.318 J0
G1 X12.7 F50
G2 X14.288 Y15.5 I0 J-1.587
G1 Y8.675
Z-8.931
Y2.325
Z-9.4 F16.7
Y-15.5 F50
G2 X12.7 Y-17.087 I-1.588 J0
G1 X3.175
Z-8.931
X-3.175
Z-9.4 F16.7
X-12.7 F50
G2 X-14.288 Y-15.5 I0 J1.587
G1 Y2.325
Z-8.931
Y8.675
Z-9.4 F16.7
Y15.5 F50
G2 X-12.7 Y17.087 I1.588 J0
G1 X0
G3 X0.318 Y17.405 I0 J0.318
G1 Y17.722
G19 G3 Y18.04 Z-9.083 J0 K0.317
G1 Z2
X-0.317 Y18.953
Z1
Z-9.283 F16.7
G2 Y18.636 Z-9.6 J-0.318 K0 F20
G1 Y17.405
G17 G3 X0 Y17.087 I0.318 J0
G1 X12.7 F50
G2 X14.288 Y15.5 I0 J-1.587
G1 Y8.675
Z-8.931
Y2.325
Z-9.6 F16.7
Y-15.5 F50
G2 X12.7 Y-17.087 I-1.588 J0
G1 X3.175
Z-8.931
X-3.175
Z-9.6 F16.7
X-12.7 F50
G2 X-14.288 Y-15.5 I0 J1.587
G1 Y2.325
Z-8.931
Y8.675
Z-9.6 F16.7
Y15.5 F50
G2 X-12.7 Y17.087 I1.588 J0
G1 X0
G3 X0.318 Y17.405 I0 J0.318
G1 Y17.722
G19 G3 Y18.04 Z-9.283 J0 K0.318
G1 Z2
X-0.317 Y18.953
Z1
Z-9.408 F16.7
G2 Y18.636 Z-9.725 J-0.318 K0 F20
G1 Y17.405
G17 G3 X0 Y17.087 I0.318 J0
G1 X12.7 F50
G2 X14.288 Y15.5 I0 J-1.587
G1 Y8.675
Z-8.931
Y2.325
Z-9.725 F16.7
Y-15.5 F50
G2 X12.7 Y-17.087 I-1.588 J0
G1 X3.175
Z-8.931
X-3.175
Z-9.725 F16.7
X-12.7 F50
G2 X-14.288 Y-15.5 I0 J1.587
G1 Y2.325
Z-8.931
Y8.675
Z-9.725 F16.7
Y15.5 F50
G2 X-12.7 Y17.087 I1.588 J0
G1 X0
G3 X0.318 Y17.405 I0 J0.318
G1 Y17.722
G19 G3 Y18.04 Z-9.408 J0 K0.318
G1 Z5
G17
M5
M30
